; generated by Slic3r Prusa Edition 1.40.1+win64 on 2018-10-06 at 13:09:02

; 

; external perimeters extrusion width = 0.45mm
; perimeters extrusion width = 0.45mm
; infill extrusion width = 0.45mm
; solid infill extrusion width = 0.45mm
; top infill extrusion width = 0.40mm
; first layer extrusion width = 0.70mm

M107
M190 S60 ; set bed temperature and wait for it to be reached
M104 S210 ; set temperature
G28 ; home all axes
G1 Z5 F5000 ; lift nozzle
; Filament gcode
M109 S210 ; set temperature and wait for it to be reached
G21 ; set units to millimeters
G90 ; use absolute coordinates
M82 ; use absolute distances for extrusion
G92 E0
G1 E-4.00000 F2400.00000
G92 E0
G1 Z0.350 F4800.000
G1 Z0.650
G1 X56.353 Y110.376
G1 Z0.350
G1 E4.00000 F2400.00000
G1 F1800
G1 X57.193 Y109.978 E4.08458
G1 X58.077 Y109.686 E4.16916
G1 X58.989 Y109.506 E4.25374
G1 X59.917 Y109.438 E4.33832
G1 X140.007 Y109.438 E11.62086
G1 X141.392 Y109.567 E11.74732
G1 X142.729 Y109.947 E11.87378
G1 X143.975 Y110.567 E12.00024
G1 X145.091 Y111.408 E12.12732
G1 X155.655 Y121.979 E13.48626
G1 X156.221 Y122.700 E13.56961
G1 X156.698 Y123.490 E13.65357
G1 X157.076 Y124.333 E13.73753
G1 X157.349 Y125.215 E13.82149
G1 X157.506 Y126.084 E13.90176
G1 X157.562 Y126.958 E13.98140
G1 X157.530 Y159.692 E16.95792
G1 X157.391 Y160.598 E17.04127
G1 X157.142 Y161.487 E17.12523
G1 X156.785 Y162.339 E17.20920
G1 X156.328 Y163.141 E17.29316
G1 X155.780 Y163.876 E17.37651
G1 X155.143 Y164.544 E17.46047
G1 X154.429 Y165.130 E17.54443
G1 X153.649 Y165.624 E17.62839
G1 X152.637 Y166.088 E17.72962
G1 X151.568 Y166.398 E17.83084
G1 X131.456 Y170.421 E19.69578
G1 X130.446 Y170.549 E19.78838
G1 X69.796 Y170.559 E25.30326
G1 X68.542 Y170.420 E25.41803
G1 X47.832 Y166.245 E27.33909
G1 X46.475 Y165.691 E27.47232
G1 X45.251 Y164.885 E27.60554
G1 X44.205 Y163.859 E27.73877
G1 X43.374 Y162.644 E27.87261
G1 X42.984 Y161.822 E27.95534
G1 X42.694 Y160.953 E28.03869
G1 X42.513 Y160.061 E28.12142
G1 X42.439 Y159.148 E28.20476
G1 X42.438 Y126.952 E31.13226
G1 X42.497 Y126.058 E31.21376
G1 X42.661 Y125.177 E31.29525
G1 X42.947 Y124.271 E31.38168
G1 X43.346 Y123.408 E31.46811
G1 X43.849 Y122.601 E31.55454
G1 X44.449 Y121.864 E31.64097
G1 X54.750 Y111.557 E32.96596
G1 X55.512 Y110.914 E33.05671
G1 X56.302 Y110.408 E33.14200
G1 X56.638 Y110.936 F4800.000
G1 F1800
G1 X57.450 Y110.548 E33.22383
G1 X58.253 Y110.286 E33.30070
G1 X59.083 Y110.124 E33.37757
G1 X59.926 Y110.063 E33.45445
G1 X140.007 Y110.063 E40.73611
G1 X141.287 Y110.183 E40.85309
G1 X142.518 Y110.536 E40.96949
G1 X143.663 Y111.108 E41.08588
G1 X144.683 Y111.882 E41.20228
G1 X155.169 Y122.373 E42.55111
G1 X155.697 Y123.042 E42.62857
G1 X156.140 Y123.770 E42.70603
G1 X156.489 Y124.547 E42.78349
G1 X156.742 Y125.367 E42.86154
G1 X156.937 Y126.965 E43.00795
G1 X156.912 Y159.598 E45.97522
G1 X156.786 Y160.441 E46.05268
G1 X156.556 Y161.268 E46.13074
G1 X156.229 Y162.054 E46.20820
G1 X155.804 Y162.800 E46.28625
G1 X155.295 Y163.483 E46.36371
G1 X154.700 Y164.102 E46.44177
G1 X154.034 Y164.644 E46.51982
G1 X153.312 Y165.096 E46.59728
G1 X152.394 Y165.511 E46.68891
G1 X151.432 Y165.788 E46.77995
G1 X131.341 Y169.806 E48.64297
G1 X130.400 Y169.926 E48.72929
G1 X69.824 Y169.935 E54.23737
G1 X68.661 Y169.807 E54.34375
G1 X48.046 Y165.656 E56.25594
G1 X46.787 Y165.148 E56.37941
G1 X45.646 Y164.400 E56.50346
G1 X44.673 Y163.444 E56.62751
G1 X43.906 Y162.315 E56.75157
G1 X43.293 Y160.771 E56.90268
G1 X43.129 Y159.955 E56.97837
G1 X43.064 Y159.118 E57.05465
G1 X43.063 Y126.961 E59.97872
G1 X43.268 Y125.325 E60.12865
G1 X43.531 Y124.494 E60.20788
G1 X43.899 Y123.697 E60.28771
G1 X44.365 Y122.953 E60.36753
G1 X44.921 Y122.274 E60.44736
G1 X55.178 Y112.012 E61.76662
G1 X55.894 Y111.409 E61.85176
G1 X56.587 Y110.968 E61.92644
G1 X58.435 Y110.885 F4800.000
G1 F1800
G1 X59.946 Y110.688 E62.06494
G1 X140.006 Y110.688 E69.34480
G1 X141.166 Y110.796 E69.45076
G1 X142.293 Y111.119 E69.55728
G1 X143.340 Y111.644 E69.66380
G1 X144.272 Y112.353 E69.77032
G1 X154.690 Y122.775 E71.11026
G1 X155.583 Y124.054 E71.25213
G1 X156.136 Y125.520 E71.39456
G1 X156.312 Y126.971 E71.52746
G1 X156.292 Y159.508 E74.48611
G1 X155.973 Y161.042 E74.62854
G1 X155.283 Y162.455 E74.77152
G1 X154.270 Y163.649 E74.91395
G1 X152.988 Y164.560 E75.05694
G1 X152.168 Y164.929 E75.13871
G1 X151.297 Y165.178 E75.22104
G1 X131.220 Y169.193 E77.08282
G1 X130.358 Y169.302 E77.16178
G1 X69.851 Y169.311 E82.66367
G1 X68.785 Y169.194 E82.76120
G1 X48.250 Y165.065 E84.66584
G1 X47.087 Y164.600 E84.77966
G1 X46.035 Y163.911 E84.89405
G1 X45.139 Y163.028 E85.00843
G1 X44.437 Y161.984 E85.12282
G1 X43.889 Y160.583 E85.25964
G1 X43.688 Y159.097 E85.39591
G1 X43.688 Y126.969 E88.31734
G1 X43.874 Y125.476 E88.45416
G1 X44.116 Y124.713 E88.52692
G1 X44.453 Y123.987 E88.59968
G1 X44.879 Y123.310 E88.67244
G1 X45.391 Y122.687 E88.74577
G1 X55.612 Y112.462 E90.06033
G1 X56.276 Y111.903 E90.13929
G1 X57.016 Y111.437 E90.21881
G1 X58.379 Y110.906 E90.35186
G1 E86.35186 F2400.00000
G92 E0
G1 Z0.650 F4800.000
G1 X74.686 Y123.741
G1 Z0.350
G1 E4.00000 F2400.00000
G1 F1800
G1 X76.690 Y124.426 E4.19262
G1 X79.209 Y125.186 E4.43188
G1 X81.753 Y125.860 E4.67121
G1 X84.320 Y126.445 E4.91053
G1 X86.904 Y126.941 E5.14986
G1 X89.505 Y127.348 E5.38919
G1 X92.118 Y127.665 E5.62852
G1 X94.740 Y127.892 E5.86785
G1 X97.368 Y128.028 E6.10717
G1 X100.000 Y128.073 E6.34650
G1 X102.632 Y128.028 E6.58583
G1 X105.260 Y127.892 E6.82516
G1 X107.882 Y127.665 E7.06449
G1 X110.495 Y127.348 E7.30381
G1 X113.096 Y126.941 E7.54314
G1 X115.680 Y126.445 E7.78247
G1 X118.247 Y125.860 E8.02180
G1 X120.791 Y125.186 E8.26113
G1 X123.092 Y124.492 E8.47970
G1 X125.316 Y123.742 E8.69309
G1 X125.336 Y116.209 E9.37805
G1 X125.481 Y115.549 E9.43955
G1 X125.778 Y114.831 E9.51022
G1 X126.145 Y114.259 E9.57201
G1 X127.377 Y113.052 E9.72883
G1 X127.917 Y112.734 E9.78573
G1 X128.472 Y112.504 E9.84038
G1 X129.433 Y112.313 E9.92945
G1 X140.558 Y112.313 E10.94106
G1 X141.458 Y112.482 E11.02433
G1 X142.307 Y112.852 E11.10852
G1 X142.864 Y113.244 E11.17048
G1 X143.846 Y114.247 E11.29807
G1 X144.239 Y114.863 E11.36448
G1 X144.503 Y115.498 E11.42702
G1 X144.655 Y116.134 E11.48654
G1 X144.682 Y122.318 E12.04881
G1 X150.790 Y122.336 E12.60422
G1 X151.498 Y122.496 E12.67022
G1 X152.082 Y122.734 E12.72756
G1 X152.618 Y123.049 E12.78409
G1 X153.686 Y124.057 E12.91768
G1 X154.141 Y124.681 E12.98784
G1 X154.524 Y125.566 E13.07555
G1 X154.687 Y126.431 E13.15556
G1 X154.680 Y133.576 E13.80525
G1 X154.578 Y134.198 E13.86257
G1 X154.330 Y134.907 E13.93085
G1 X154.011 Y135.483 E13.99069
G1 X153.276 Y136.390 E14.09686
G1 X152.790 Y136.821 E14.15599
G1 X152.208 Y137.186 E14.21842
G1 X151.453 Y137.484 E14.29226
G1 X142.826 Y139.202 E15.09206
G1 X143.739 Y140.116 E15.20949
G1 X144.189 Y140.769 E15.28160
G1 X144.502 Y141.497 E15.35368
G1 X144.666 Y142.221 E15.42116
G1 X144.684 Y148.318 E15.97555
G1 X150.866 Y148.345 E16.53769
G1 X151.503 Y148.497 E16.59722
G1 X152.121 Y148.754 E16.65813
G1 X152.673 Y149.091 E16.71687
G1 X153.733 Y150.111 E16.85068
G1 X154.219 Y150.823 E16.92902
G1 X154.526 Y151.575 E17.00293
G1 X154.687 Y152.431 E17.08212
G1 X154.687 Y159.484 E17.72348
G1 X154.562 Y160.260 E17.79488
G1 X154.371 Y160.814 E17.84819
G1 X154.122 Y161.313 E17.89895
G1 X153.328 Y162.333 E18.01642
G1 X152.859 Y162.768 E18.07459
G1 X152.165 Y163.207 E18.14928
G1 X151.400 Y163.500 E18.22379
G1 X130.215 Y167.687 E20.18737
G1 X69.785 Y167.687 E25.68225
G1 X48.601 Y163.500 E27.64574
G1 X47.800 Y163.191 E27.72384
G1 X47.305 Y162.890 E27.77651
G1 X46.857 Y162.523 E27.82915
G1 X46.075 Y161.605 E27.93880
G1 X45.674 Y160.919 E28.01109
G1 X45.454 Y160.315 E28.06953
G1 X45.336 Y159.733 E28.12353
G1 X45.313 Y152.434 E28.78720
G1 X45.508 Y151.464 E28.87722
G1 X45.834 Y150.730 E28.95023
G1 X46.302 Y150.069 E29.02382
G1 X47.382 Y149.049 E29.15896
G1 X47.918 Y148.734 E29.21549
G1 X48.502 Y148.496 E29.27283
G1 X49.210 Y148.336 E29.33883
G1 X55.316 Y148.318 E29.89406
G1 X55.334 Y142.222 E30.44838
G1 X55.494 Y141.509 E30.51474
G1 X55.784 Y140.819 E30.58283
G1 X56.182 Y140.211 E30.64890
G1 X57.166 Y139.203 E30.77699
G1 X48.549 Y137.485 E31.57593
G1 X47.847 Y137.214 E31.64432
G1 X47.254 Y136.853 E31.70748
G1 X46.727 Y136.393 E31.77108
G1 X46.040 Y135.556 E31.86954
G1 X45.720 Y135.018 E31.92640
G1 X45.469 Y134.366 E31.99001
G1 X45.318 Y133.551 E32.06534
G1 X45.313 Y126.434 E32.71249
G1 X45.449 Y125.657 E32.78417
G1 X45.737 Y124.910 E32.85704
G1 X46.301 Y124.070 E32.94897
G1 X47.271 Y123.134 E33.07160
G1 X47.875 Y122.756 E33.13639
G1 X48.548 Y122.481 E33.20247
G1 X49.209 Y122.336 E33.26403
G1 X55.318 Y122.318 E33.81948
G1 X55.336 Y116.209 E34.37493
G1 X55.481 Y115.548 E34.43648
G1 X55.756 Y114.875 E34.50257
G1 X56.134 Y114.271 E34.56735
G1 X57.070 Y113.301 E34.68998
G1 X57.910 Y112.737 E34.78191
G1 X58.658 Y112.449 E34.85479
G1 X59.434 Y112.313 E34.92647
G1 X70.638 Y112.319 E35.94523
G1 X71.365 Y112.455 E36.01248
G1 X72.093 Y112.738 E36.08347
G1 X72.880 Y113.259 E36.16927
G1 X73.952 Y114.384 E36.31059
G1 X74.273 Y114.932 E36.36834
G1 X74.533 Y115.591 E36.43277
G1 X74.681 Y116.367 E36.50460
G1 X74.686 Y123.681 E37.16962
G1 X74.061 Y124.187 F4800.000
G1 F1800
G1 X76.499 Y125.021 E37.40386
G1 X79.039 Y125.788 E37.64513
G1 X81.604 Y126.466 E37.88642
G1 X84.191 Y127.056 E38.12770
G1 X86.797 Y127.557 E38.36899
G1 X89.419 Y127.967 E38.61028
G1 X92.053 Y128.286 E38.85157
G1 X94.697 Y128.515 E39.09286
G1 X97.347 Y128.652 E39.33414
G1 X100.000 Y128.698 E39.57543
G1 X102.653 Y128.652 E39.81672
G1 X105.303 Y128.515 E40.05801
G1 X107.947 Y128.286 E40.29930
G1 X110.581 Y127.967 E40.54058
G1 X113.203 Y127.557 E40.78187
G1 X115.809 Y127.056 E41.02316
G1 X118.396 Y126.466 E41.26445
G1 X120.961 Y125.788 E41.50574
G1 X123.282 Y125.087 E41.72620
G1 X125.940 Y124.191 E41.98119
G1 X125.960 Y116.248 E42.70350
G1 X126.083 Y115.716 E42.75311
G1 X126.323 Y115.138 E42.81000
G1 X126.612 Y114.675 E42.85963
G1 X127.731 Y113.569 E43.00275
G1 X128.177 Y113.303 E43.04996
G1 X128.683 Y113.094 E43.09971
G1 X129.463 Y112.938 E43.17209
G1 X140.529 Y112.938 E44.17832
G1 X141.245 Y113.071 E44.24450
G1 X141.979 Y113.385 E44.31706
G1 X142.439 Y113.704 E44.36799
G1 X143.375 Y114.659 E44.48956
G1 X143.694 Y115.170 E44.54439
G1 X143.903 Y115.675 E44.59404
G1 X144.030 Y116.177 E44.64116
G1 X144.060 Y122.941 E45.25619
G1 X150.752 Y122.960 E45.86474
G1 X151.285 Y123.084 E45.91441
G1 X151.824 Y123.303 E45.96734
G1 X152.266 Y123.567 E46.01422
G1 X153.235 Y124.490 E46.13589
G1 X153.584 Y124.966 E46.18952
G1 X153.918 Y125.722 E46.26468
G1 X154.062 Y126.462 E46.33320
G1 X154.058 Y133.504 E46.97358
G1 X153.977 Y134.023 E47.02132
G1 X153.768 Y134.633 E47.07997
G1 X153.507 Y135.112 E47.12956
G1 X152.808 Y135.975 E47.23052
G1 X152.399 Y136.333 E47.27999
G1 X151.903 Y136.640 E47.33297
G1 X151.303 Y136.877 E47.39166
G1 X141.201 Y138.889 E48.32831
G1 X142.435 Y139.700 E48.46255
G1 X143.245 Y140.500 E48.56611
G1 X143.628 Y141.047 E48.62682
G1 X143.916 Y141.716 E48.69305
G1 X144.048 Y142.321 E48.74935
G1 X144.060 Y148.940 E49.35127
G1 X150.823 Y148.970 E49.96627
G1 X151.325 Y149.097 E50.01339
G1 X151.823 Y149.303 E50.06235
G1 X152.266 Y149.567 E50.10930
G1 X153.277 Y150.539 E50.23675
G1 X153.655 Y151.094 E50.29783
G1 X153.920 Y151.727 E50.36025
G1 X154.062 Y152.462 E50.42829
G1 X154.062 Y159.460 E51.06461
G1 X153.962 Y160.081 E51.12185
G1 X153.787 Y160.589 E51.17069
G1 X153.578 Y161.003 E51.21286
G1 X152.854 Y161.926 E51.31953
G1 X152.458 Y162.288 E51.36832
G1 X151.910 Y162.636 E51.42738
G1 X151.251 Y162.892 E51.49167
G1 X130.184 Y167.062 E53.44437
G1 X69.816 Y167.062 E58.93369
G1 X48.749 Y162.892 E60.88641
G1 X48.098 Y162.641 E60.94990
G1 X47.682 Y162.391 E60.99396
G1 X47.275 Y162.058 E61.04178
G1 X46.570 Y161.223 E61.14117
G1 X46.250 Y160.676 E61.19884
G1 X46.062 Y160.166 E61.24827
G1 X45.954 Y159.639 E61.29718
G1 X45.938 Y152.464 E61.94957
G1 X46.094 Y151.681 E62.02216
G1 X46.365 Y151.060 E62.08378
G1 X46.757 Y150.499 E62.14602
G1 X47.734 Y149.567 E62.26875
G1 X48.176 Y149.303 E62.31563
G1 X48.715 Y149.084 E62.36856
G1 X49.248 Y148.960 E62.41823
G1 X55.940 Y148.941 E63.02679
G1 X55.952 Y142.321 E63.62875
G1 X56.082 Y141.721 E63.68456
G1 X56.326 Y141.131 E63.74256
G1 X56.652 Y140.624 E63.79741
G1 X57.497 Y139.758 E63.90746
G1 X58.789 Y138.888 E64.04902
G1 X48.749 Y136.892 E64.97978
G1 X48.099 Y136.641 E65.04315
G1 X47.642 Y136.362 E65.09181
G1 X47.192 Y135.975 E65.14579
G1 X46.537 Y135.177 E65.23961
G1 X46.294 Y134.769 E65.28286
G1 X46.063 Y134.168 E65.34141
G1 X45.943 Y133.522 E65.40114
G1 X45.938 Y126.463 E66.04306
G1 X46.058 Y125.801 E66.10421
G1 X46.306 Y125.171 E66.16576
G1 X46.758 Y124.497 E66.23957
G1 X47.681 Y123.607 E66.35613
G1 X48.138 Y123.323 E66.40507
G1 X48.716 Y123.083 E66.46199
G1 X49.248 Y122.960 E66.51159
G1 X55.941 Y122.941 E67.12018
G1 X55.960 Y116.248 E67.72877
G1 X56.083 Y115.716 E67.77837
G1 X56.323 Y115.138 E67.83529
G1 X56.607 Y114.681 E67.88423
G1 X57.497 Y113.758 E68.00079
G1 X58.171 Y113.306 E68.07460
G1 X58.801 Y113.058 E68.13615
G1 X59.463 Y112.938 E68.19732
G1 X70.607 Y112.944 E69.21062
G1 X71.215 Y113.063 E69.26701
G1 X71.829 Y113.306 E69.32707
G1 X72.502 Y113.758 E69.40077
G1 X73.433 Y114.734 E69.52339
G1 X73.701 Y115.185 E69.57115
G1 X73.941 Y115.793 E69.63057
G1 X74.056 Y116.397 E69.68644
G1 X74.061 Y124.127 E70.38938
G1 X73.436 Y124.634 F4800.000
G1 F1800
G1 X76.307 Y125.616 E70.66525
G1 X78.868 Y126.389 E70.90853
G1 X81.455 Y127.073 E71.15177
G1 X84.063 Y127.668 E71.39502
G1 X86.690 Y128.172 E71.63827
G1 X89.333 Y128.586 E71.88152
G1 X91.989 Y128.908 E72.12477
G1 X94.654 Y129.139 E72.36802
G1 X97.325 Y129.277 E72.61126
G1 X100.000 Y129.323 E72.85451
G1 X102.675 Y129.277 E73.09776
G1 X105.346 Y129.139 E73.34101
G1 X108.011 Y128.908 E73.58426
G1 X110.667 Y128.586 E73.82750
G1 X113.310 Y128.172 E74.07075
G1 X115.937 Y127.668 E74.31400
G1 X118.545 Y127.073 E74.55725
G1 X121.132 Y126.389 E74.80050
G1 X123.472 Y125.682 E75.02284
G1 X126.564 Y124.627 E75.31985
G1 X126.585 Y116.289 E76.07797
G1 X126.684 Y115.891 E76.11526
G1 X126.871 Y115.439 E76.15976
G1 X127.083 Y115.088 E76.19704
G1 X128.088 Y114.083 E76.32631
G1 X128.439 Y113.871 E76.36359
G1 X128.893 Y113.683 E76.40832
G1 X129.494 Y113.563 E76.46400
G1 X140.502 Y113.563 E77.46492
G1 X141.036 Y113.661 E77.51432
G1 X141.656 Y113.921 E77.57542
G1 X142.018 Y114.167 E77.61523
G1 X142.866 Y115.024 E77.72489
G1 X143.128 Y115.435 E77.76923
G1 X143.316 Y115.891 E77.81409
G1 X143.415 Y116.289 E77.85138
G1 X143.436 Y123.564 E78.51285
G1 X150.711 Y123.585 E79.17432
G1 X151.109 Y123.684 E79.21161
G1 X151.561 Y123.871 E79.25611
G1 X151.912 Y124.083 E79.29340
G1 X152.782 Y124.922 E79.40333
G1 X153.029 Y125.256 E79.44106
G1 X153.313 Y125.883 E79.50369
G1 X153.437 Y126.494 E79.56040
G1 X153.437 Y133.437 E80.19170
G1 X153.375 Y133.852 E80.22988
G1 X153.203 Y134.365 E80.27903
G1 X153.002 Y134.743 E80.31800
G1 X152.341 Y135.558 E80.41343
G1 X152.012 Y135.842 E80.45289
G1 X151.601 Y136.092 E80.49664
G1 X151.153 Y136.270 E80.54048
G1 X137.446 Y139.000 E81.81134
G1 X137.502 Y139.563 E81.86283
G1 X140.502 Y139.563 E82.13563
G1 X141.034 Y139.660 E82.18479
G1 X141.601 Y139.892 E82.24049
G1 X142.017 Y140.166 E82.28585
G1 X142.786 Y140.925 E82.38410
G1 X143.069 Y141.327 E82.42881
G1 X143.315 Y141.887 E82.48439
G1 X143.423 Y142.359 E82.52839
G1 X143.436 Y149.564 E83.18355
G1 X150.711 Y149.585 E83.84505
G1 X151.109 Y149.684 E83.88234
G1 X151.561 Y149.871 E83.92684
G1 X151.911 Y150.082 E83.96406
G1 X152.818 Y150.964 E84.07902
G1 X153.093 Y151.369 E84.12354
G1 X153.314 Y151.885 E84.17458
G1 X153.437 Y152.494 E84.23111
G1 X153.437 Y159.435 E84.86228
G1 X153.363 Y159.904 E84.90538
G1 X153.204 Y160.363 E84.94963
G1 X153.037 Y160.690 E84.98294
G1 X152.382 Y161.516 E85.07883
G1 X152.062 Y161.805 E85.11803
G1 X151.605 Y162.090 E85.16700
G1 X151.103 Y162.285 E85.21598
G1 X130.154 Y166.437 E87.15790
G1 X69.846 Y166.437 E92.64165
G1 X48.897 Y162.285 E94.58360
G1 X48.396 Y162.091 E94.63242
G1 X48.025 Y161.868 E94.67180
G1 X47.697 Y161.597 E94.71052
G1 X47.067 Y160.843 E94.79988
