; generated by Slic3r Prusa Edition 1.40.1+win64 on 2018-10-04 at 17:25:46

; 

; external perimeters extrusion width = 0.45mm
; perimeters extrusion width = 0.45mm
; infill extrusion width = 0.45mm
; solid infill extrusion width = 0.45mm
; top infill extrusion width = 0.40mm
; first layer extrusion width = 0.70mm

M107
M190 S60 ; set bed temperature and wait for it to be reached
M104 S210 ; set temperature
G28 ; home all axes
G1 Z5 F5000 ; lift nozzle
; Filament gcode
M109 S210 ; set temperature and wait for it to be reached
G21 ; set units to millimeters
G90 ; use absolute coordinates
M82 ; use absolute distances for extrusion
G92 E0
G1 E-4.00000 F2400.00000
G92 E0
G1 Z0.350 F4800.000
G1 Z0.650
G1 X77.656 Y112.197
G1 Z0.350
G1 E4.00000 F2400.00000
G1 F1800
G1 X78.248 Y110.594 E4.15534
G1 X78.717 Y109.791 E4.23992
G1 X79.286 Y109.047 E4.32512
G1 X79.942 Y108.378 E4.41032
G1 X80.676 Y107.796 E4.49551
G1 X81.477 Y107.309 E4.58071
G1 X82.331 Y106.924 E4.66590
G1 X83.227 Y106.649 E4.75110
G1 X84.149 Y106.486 E4.83630
G1 X115.007 Y106.438 E7.64214
G1 X116.378 Y106.564 E7.76737
G1 X117.710 Y106.940 E7.89322
G1 X118.946 Y107.549 E8.01845
G1 X120.055 Y108.376 E8.14430
G1 X120.996 Y109.391 E8.27015
G1 X121.732 Y110.555 E8.39538
G1 X122.247 Y111.840 E8.52123
G1 X122.519 Y113.197 E8.64707
G1 X122.562 Y166.102 E13.45772
G1 X122.346 Y167.797 E13.61306
G1 X121.752 Y169.406 E13.76902
G1 X121.264 Y170.237 E13.85668
G1 X120.674 Y171.000 E13.94434
G1 X119.992 Y171.681 E14.03200
G1 X119.228 Y172.270 E14.11967
G1 X118.396 Y172.757 E14.20733
G1 X117.509 Y173.134 E14.29499
G1 X116.581 Y173.395 E14.38265
G1 X115.627 Y173.536 E14.47032
G1 X84.830 Y173.560 E17.27070
G1 X83.170 Y173.338 E17.42297
G1 X81.594 Y172.752 E17.57586
G1 X80.740 Y172.248 E17.66599
G1 X79.960 Y171.638 E17.75612
G1 X79.261 Y170.925 E17.84686
G1 X78.667 Y170.132 E17.93699
G1 X78.180 Y169.268 E18.02712
G1 X77.812 Y168.348 E18.11725
G1 X77.566 Y167.388 E18.20737
G1 X77.449 Y166.404 E18.29750
G1 X77.439 Y113.891 E23.07244
G1 X77.648 Y112.256 E23.22232
G1 X78.265 Y112.338 F4800.000
G1 F1800
G1 X78.818 Y110.853 E23.36638
G1 X79.254 Y110.113 E23.44443
G1 X79.782 Y109.429 E23.52308
G1 X80.386 Y108.819 E23.60113
G1 X81.067 Y108.285 E23.67977
G1 X81.803 Y107.843 E23.75782
G1 X82.594 Y107.493 E23.83647
G1 X83.422 Y107.245 E23.91511
G1 X84.275 Y107.101 E23.99375
G1 X115.007 Y107.063 E26.78818
G1 X116.275 Y107.181 E26.90399
G1 X117.500 Y107.529 E27.01980
G1 X118.641 Y108.095 E27.13560
G1 X119.659 Y108.860 E27.25141
G1 X120.520 Y109.798 E27.36722
G1 X121.195 Y110.878 E27.48303
G1 X121.661 Y112.063 E27.59883
G1 X121.903 Y113.314 E27.71464
G1 X121.937 Y166.091 E32.51368
G1 X121.735 Y167.662 E32.65773
G1 X121.182 Y169.147 E32.80179
G1 X120.732 Y169.908 E32.88220
G1 X120.188 Y170.606 E32.96262
G1 X119.555 Y171.232 E33.04362
G1 X118.852 Y171.769 E33.12404
G1 X118.087 Y172.213 E33.20445
G1 X117.272 Y172.555 E33.28487
G1 X116.419 Y172.791 E33.36528
G1 X115.537 Y172.916 E33.44629
G1 X84.850 Y172.936 E36.23664
G1 X83.312 Y172.729 E36.37776
G1 X81.853 Y172.182 E36.51946
G1 X81.070 Y171.717 E36.60224
G1 X80.356 Y171.153 E36.68502
G1 X79.721 Y170.501 E36.76779
G1 X79.177 Y169.771 E36.85057
G1 X78.733 Y168.976 E36.93335
G1 X78.398 Y168.130 E37.01612
G1 X78.176 Y167.247 E37.09890
G1 X78.071 Y166.343 E37.18168
G1 X78.063 Y113.909 E41.94944
G1 X78.257 Y112.397 E42.08804
G1 X78.874 Y112.477 F4800.000
G1 F1800
G1 X79.386 Y111.113 E42.22046
G1 X80.274 Y109.815 E42.36344
G1 X81.460 Y108.774 E42.50699
G1 X82.862 Y108.061 E42.64998
G1 X84.396 Y107.717 E42.79297
G1 X115.006 Y107.688 E45.57634
G1 X116.166 Y107.796 E45.68230
G1 X117.287 Y108.116 E45.78826
G1 X118.329 Y108.637 E45.89421
G1 X119.258 Y109.340 E46.00017
G1 X120.042 Y110.202 E46.10613
G1 X120.654 Y111.194 E46.21209
G1 X121.074 Y112.281 E46.31804
G1 X121.286 Y113.427 E46.42400
G1 X121.312 Y166.074 E51.21122
G1 X121.127 Y167.518 E51.34357
G1 X120.614 Y168.887 E51.47647
G1 X120.196 Y169.584 E51.55035
G1 X119.697 Y170.217 E51.62368
G1 X119.121 Y170.781 E51.69700
G1 X118.473 Y171.271 E51.77089
G1 X117.773 Y171.671 E51.84421
G1 X117.027 Y171.978 E51.91753
G1 X116.248 Y172.188 E51.99086
G1 X115.443 Y172.297 E52.06474
G1 X84.870 Y172.311 E54.84478
G1 X83.452 Y172.120 E54.97488
G1 X82.113 Y171.614 E55.10498
G1 X81.406 Y171.189 E55.17999
G1 X80.755 Y170.672 E55.25556
G1 X80.182 Y170.079 E55.33058
G1 X79.688 Y169.410 E55.40615
G1 X79.289 Y168.689 E55.48117
G1 X78.985 Y167.915 E55.55674
G1 X78.786 Y167.108 E55.63232
G1 X78.694 Y166.282 E55.70790
G1 X78.688 Y113.919 E60.46922
G1 X78.867 Y112.536 E60.59603
G1 E56.59603 F2400.00000
G92 E0
G1 Z0.650 F4800.000
G1 X80.779 Y111.828
G1 Z0.350
G1 E4.00000 F2400.00000
G1 F1800
G1 X81.308 Y111.063 E4.08458
G1 X82.382 Y110.049 E4.21888
G1 X82.917 Y109.734 E4.27525
G1 X83.472 Y109.504 E4.32991
G1 X84.433 Y109.313 E4.41901
G1 X115.637 Y109.319 E7.25641
G1 X116.424 Y109.473 E7.32934
G1 X117.229 Y109.810 E7.40865
G1 X117.789 Y110.182 E7.46977
G1 X118.703 Y111.074 E7.58586
G1 X119.263 Y111.910 E7.67737
G1 X119.551 Y112.657 E7.75024
G1 X119.687 Y113.433 E7.82185
G1 X119.687 Y166.567 E12.65331
G1 X119.548 Y167.354 E12.72591
G1 X119.221 Y168.172 E12.80606
G1 X118.692 Y168.937 E12.89065
G1 X117.618 Y169.951 E13.02495
G1 X117.083 Y170.266 E13.08132
G1 X116.528 Y170.496 E13.13597
G1 X115.567 Y170.687 E13.22504
G1 X84.433 Y170.687 E16.05611
G1 X83.646 Y170.548 E16.12871
G1 X82.828 Y170.221 E16.20886
G1 X82.063 Y169.692 E16.29344
G1 X81.049 Y168.618 E16.42774
G1 X80.734 Y168.083 E16.48411
G1 X80.504 Y167.528 E16.53877
G1 X80.313 Y166.567 E16.62784
G1 X80.313 Y113.433 E21.45936
G1 X80.452 Y112.646 E21.53196
G1 X80.757 Y111.884 E21.60666
G1 X81.344 Y112.096 F4800.000
G1 F1800
G1 X81.763 Y111.493 E21.67347
G1 X82.734 Y110.567 E21.79543
G1 X83.177 Y110.303 E21.84239
G1 X83.683 Y110.094 E21.89213
G1 X84.464 Y109.938 E21.96453
G1 X115.605 Y109.944 E24.79619
G1 X116.269 Y110.079 E24.85780
G1 X116.912 Y110.349 E24.92125
G1 X117.375 Y110.651 E24.97153
G1 X118.243 Y111.498 E25.08179
G1 X118.694 Y112.171 E25.15544
G1 X118.942 Y112.801 E25.21699
G1 X119.062 Y113.462 E25.27810
G1 X119.062 Y166.538 E30.10428
G1 X118.940 Y167.208 E30.16616
G1 X118.656 Y167.904 E30.23450
G1 X118.237 Y168.507 E30.30131
G1 X117.266 Y169.433 E30.42327
G1 X116.823 Y169.697 E30.47023
G1 X116.317 Y169.906 E30.51997
G1 X115.537 Y170.062 E30.59235
G1 X84.462 Y170.062 E33.41797
G1 X83.792 Y169.940 E33.47985
G1 X83.096 Y169.656 E33.54818
G1 X82.493 Y169.237 E33.61500
G1 X81.567 Y168.266 E33.73696
G1 X81.303 Y167.823 E33.78392
G1 X81.094 Y167.317 E33.83366
G1 X80.938 Y166.537 E33.90604
G1 X80.938 Y113.462 E38.73211
G1 X81.060 Y112.792 E38.79399
G1 X81.321 Y112.152 E38.85687
G1 X81.907 Y112.369 F4800.000
G1 F1800
G1 X82.219 Y111.921 E38.90651
G1 X83.088 Y111.083 E39.01629
G1 X83.439 Y110.871 E39.05357
G1 X83.893 Y110.683 E39.09830
G1 X84.494 Y110.563 E39.15399
G1 X115.573 Y110.569 E41.97999
G1 X116.059 Y110.668 E42.02507
G1 X116.602 Y110.892 E42.07849
G1 X116.963 Y111.122 E42.11742
G1 X117.784 Y111.923 E42.22166
G1 X118.127 Y112.436 E42.27780
G1 X118.334 Y112.949 E42.32815
G1 X118.437 Y113.492 E42.37842
G1 X118.437 Y166.508 E47.19906
G1 X118.332 Y167.057 E47.24988
G1 X118.093 Y167.631 E47.30648
G1 X117.781 Y168.079 E47.35612
G1 X116.912 Y168.917 E47.46589
G1 X116.561 Y169.129 E47.50318
G1 X116.107 Y169.317 E47.54790
G1 X115.506 Y169.437 E47.60359
G1 X84.492 Y169.437 E50.42364
G1 X83.943 Y169.332 E50.47446
G1 X83.369 Y169.093 E50.53105
G1 X82.921 Y168.781 E50.58070
G1 X82.083 Y167.912 E50.69047
G1 X81.871 Y167.561 E50.72776
G1 X81.683 Y167.107 E50.77248
G1 X81.563 Y166.506 E50.82816
G1 X81.563 Y113.492 E55.64866
G1 X81.668 Y112.943 E55.69949
G1 X81.884 Y112.424 E55.75063
G1 X82.468 Y112.646 F4800.000
G1 F1800
G1 X82.677 Y112.347 E55.78380
G1 X83.447 Y111.595 E55.88163
G1 X83.702 Y111.438 E55.90891
G1 X84.104 Y111.272 E55.94846
G1 X84.525 Y111.188 E55.98745
G1 X115.538 Y111.194 E58.80743
G1 X115.897 Y111.272 E58.84086
G1 X116.298 Y111.438 E58.88032
G1 X116.553 Y111.595 E58.90760
G1 X117.324 Y112.347 E59.00550
G1 X117.563 Y112.704 E59.04456
G1 X117.728 Y113.104 E59.08392
G1 X117.812 Y113.525 E59.12291
G1 X117.812 Y166.475 E63.93766
G1 X117.727 Y166.899 E63.97699
G1 X117.532 Y167.354 E64.02199
G1 X117.323 Y167.653 E64.05517
G1 X116.553 Y168.405 E64.15299
G1 X116.298 Y168.562 E64.18028
G1 X115.896 Y168.728 E64.21983
G1 X115.475 Y168.812 E64.25882
G1 X84.525 Y168.812 E67.07312
G1 X84.101 Y168.727 E67.11245
G1 X83.646 Y168.532 E67.15746
G1 X83.347 Y168.323 E67.19063
G1 X82.595 Y167.553 E67.28846
G1 X82.438 Y167.298 E67.31574
G1 X82.272 Y166.896 E67.35529
G1 X82.188 Y166.475 E67.39428
G1 X82.188 Y113.525 E72.20903
G1 X82.273 Y113.101 E72.24836
G1 X82.444 Y112.701 E72.28791
G1 X83.029 Y112.923 F4800.000
G1 F1800
G1 X83.136 Y112.771 E72.30474
G1 X83.812 Y112.103 E72.39116
G1 X83.968 Y112.004 E72.40798
G1 X84.315 Y111.861 E72.44212
G1 X84.555 Y111.813 E72.46441
G1 X115.502 Y111.819 E75.27835
G1 X115.681 Y111.859 E75.29510
G1 X116.032 Y112.004 E75.32958
G1 X116.188 Y112.103 E75.34641
G1 X116.861 Y112.769 E75.43247
G1 X116.997 Y112.972 E75.45468
G1 X117.139 Y113.315 E75.48846
G1 X117.187 Y113.555 E75.51075
G1 X117.187 Y166.445 E80.31995
G1 X117.140 Y166.683 E80.34206
G1 X116.971 Y167.077 E80.38105
G1 X116.864 Y167.229 E80.39789
G1 X116.188 Y167.897 E80.48430
G1 X116.032 Y167.996 E80.50113
G1 X115.685 Y168.139 E80.53526
G1 X115.445 Y168.187 E80.55755
G1 X84.555 Y168.187 E83.36629
G1 X84.317 Y168.140 E83.38841
G1 X83.923 Y167.971 E83.42740
G1 X83.771 Y167.864 E83.44423
G1 X83.103 Y167.188 E83.53065
G1 X83.004 Y167.032 E83.54747
G1 X82.861 Y166.685 E83.58161
G1 X82.813 Y166.445 E83.60390
G1 X82.813 Y113.555 E88.41309
G1 X82.860 Y113.317 E88.43521
G1 X83.006 Y112.978 E88.46875
G1 X83.450 Y113.526 F4800.000
G1 F1800
G1 X83.603 Y113.188 E88.50245
G1 X84.188 Y112.603 E88.57773
G1 X84.586 Y112.438 E88.61691
G1 X115.414 Y112.438 E91.42007
G1 X115.812 Y112.603 E91.45924
G1 X116.432 Y113.239 E91.54001
G1 X116.562 Y113.586 E91.57372
G1 X116.562 Y166.414 E96.37733
G1 X116.397 Y166.812 E96.41651
G1 X115.761 Y167.432 E96.49728
G1 X115.414 Y167.562 E96.53099
G1 X84.586 Y167.562 E99.33415
G1 X84.188 Y167.397 E99.37333
G1 X83.568 Y166.761 E99.45410
G1 X83.438 Y166.414 E99.48781
G1 X83.438 Y113.585 E104.29155
G1 X84.110 Y113.564 F4800.000
G1 F1800
G1 X84.564 Y113.110 E104.34993
G1 X84.679 Y113.063 E104.36123
G1 X115.321 Y113.063 E107.14749
G1 X115.436 Y113.110 E107.15879
G1 X115.890 Y113.564 E107.21717
G1 X115.937 Y113.679 E107.22847
G1 X115.937 Y166.321 E112.01518
G1 X115.890 Y166.436 E112.02649
G1 X115.436 Y166.890 E112.08486
G1 X115.321 Y166.937 E112.09616
G1 X84.679 Y166.937 E114.88242
G1 X84.564 Y166.890 E114.89373
G1 X84.110 Y166.436 E114.95210
G1 X84.063 Y166.321 E114.96340
G1 X84.063 Y113.679 E119.75012
G1 X84.087 Y113.620 E119.75596
G1 X84.688 Y113.871 F4800.000
G1 F1800
G1 X84.871 Y113.688 E119.77950
G1 X115.129 Y113.688 E122.53092
G1 X115.312 Y113.871 E122.55446
G1 X115.312 Y166.129 E127.30633
G1 X115.129 Y166.312 E127.32987
G1 X84.871 Y166.312 E130.08129
G1 X84.688 Y166.129 E130.10483
G1 X84.688 Y113.931 E134.85125
G1 E130.85125 F2400.00000
G92 E0
G1 Z0.650 F4800.000
G1 X114.650 Y165.650
G1 Z0.350
G1 E4.00000 F2400.00000
G1 F1800
G1 X85.350 Y165.650 E6.66424
G1 X85.350 Y114.350 E11.32892
G1 X114.650 Y114.350 E13.99316
G1 X114.650 Y165.590 E18.65239
G1 X114.274 Y165.513 F4800.000
G1 X114.025 Y165.025
G1 F1800
G1 X85.975 Y165.025 E21.20299
G1 X85.975 Y114.975 E25.75403
G1 X114.025 Y114.975 E28.30463
G1 X114.025 Y164.965 E32.85022
G1 X113.400 Y164.400 F4800.000
G1 F1800
G1 X101.880 Y164.400 E33.89773
G1 X101.815 Y164.107 E33.92505
G1 X101.936 Y164.050 E33.93721
G1 X102.633 Y163.473 E34.01955
G1 X103.166 Y162.740 E34.10189
G1 X103.477 Y161.954 E34.17876
G1 X103.615 Y161.016 E34.26498
G1 X103.499 Y160.102 E34.34880
G1 X103.166 Y159.260 E34.43114
G1 X102.633 Y158.527 E34.51348
G1 X101.936 Y157.950 E34.59582
G1 X101.116 Y157.564 E34.67816
G1 X100.227 Y157.395 E34.76050
G1 X99.383 Y157.448 E34.83737
G1 X98.476 Y157.723 E34.92358
G1 X97.697 Y158.217 E35.00741
G1 X97.066 Y158.889 E35.09123
G1 X96.626 Y159.728 E35.17745
G1 X96.416 Y160.547 E35.25432
G1 X96.416 Y161.453 E35.33666
G1 X96.641 Y162.330 E35.41900
G1 X97.077 Y163.123 E35.50134
G1 X97.708 Y163.795 E35.58516
G1 X98.254 Y164.126 E35.64316
G1 X98.177 Y164.400 E35.66903
G1 X86.600 Y164.400 E36.72175
G1 X86.600 Y115.600 E41.15916
G1 X98.165 Y115.600 E42.21075
G1 X98.243 Y115.870 E42.23634
G1 X97.697 Y116.217 E42.29513
G1 X97.077 Y116.877 E42.37747
G1 X96.641 Y117.670 E42.45981
G1 X96.416 Y118.547 E42.54215
G1 X96.416 Y119.453 E42.62449
G1 X96.641 Y120.330 E42.70683
G1 X97.077 Y121.123 E42.78917
G1 X97.697 Y121.783 E42.87151
G1 X98.462 Y122.269 E42.95385
G1 X99.323 Y122.549 E43.03619
G1 X100.227 Y122.605 E43.11853
G1 X101.116 Y122.436 E43.20087
G1 X101.936 Y122.050 E43.28321
G1 X102.633 Y121.473 E43.36555
G1 X103.166 Y120.740 E43.44788
G1 X103.477 Y119.954 E43.52476
G1 X103.615 Y119.016 E43.61097
G1 X103.499 Y118.102 E43.69479
G1 X103.166 Y117.260 E43.77714
G1 X102.633 Y116.527 E43.85948
G1 X101.936 Y115.950 E43.94181
G1 X101.815 Y115.893 E43.95398
G1 X101.880 Y115.600 E43.98129
G1 X113.400 Y115.600 E45.02880
G1 X113.400 Y164.340 E49.46075
G1 E45.46075 F2400.00000
G92 E0
G1 Z0.650 F4800.000
G1 X100.727 Y121.238
G1 Z0.350
G1 E4.00000 F2400.00000
G1 F1800
G1 X100.148 Y121.348 E4.05363
G1 X99.559 Y121.311 E4.10725
G1 X98.998 Y121.129 E4.16088
G1 X98.500 Y120.813 E4.21451
G1 X98.097 Y120.383 E4.26813
G1 X97.812 Y119.866 E4.32176
G1 X97.666 Y119.295 E4.37539
G1 X97.666 Y118.705 E4.42901
G1 X97.812 Y118.134 E4.48264
G1 X98.097 Y117.617 E4.53627
G1 X98.500 Y117.187 E4.58990
G1 X99.001 Y116.869 E4.64385
G1 X99.606 Y116.686 E4.70135
G1 X100.148 Y116.652 E4.75066
G1 X100.727 Y116.762 E4.80429
G1 X101.261 Y117.013 E4.85792
G1 X101.715 Y117.389 E4.91154
G1 X102.062 Y117.867 E4.96517
G1 X102.279 Y118.415 E5.01880
G1 X102.353 Y119.004 E5.07275
G1 X102.261 Y119.629 E5.13025
G1 X102.062 Y120.133 E5.17956
G1 X101.715 Y120.611 E5.23319
G1 X101.261 Y120.987 E5.28682
G1 X100.781 Y121.212 E5.33499
G1 X100.644 Y121.629 F4800.000
G1 X100.922 Y121.837
G1 F1800
G1 X100.187 Y121.977 E5.40297
G1 X99.441 Y121.930 E5.47096
G1 X98.730 Y121.699 E5.53894
G1 X98.099 Y121.298 E5.60692
G1 X97.587 Y120.753 E5.67491
G1 X97.227 Y120.098 E5.74289
G1 X97.041 Y119.374 E5.81087
G1 X97.041 Y118.626 E5.87885
G1 X97.227 Y117.902 E5.94684
G1 X97.587 Y117.247 E6.01482
G1 X98.099 Y116.702 E6.08281
G1 X98.738 Y116.296 E6.15169
G1 X99.495 Y116.067 E6.22355
G1 X100.187 Y116.023 E6.28664
G1 X100.922 Y116.163 E6.35463
G1 X101.598 Y116.482 E6.42261
G1 X102.174 Y116.958 E6.49059
G1 X102.614 Y117.563 E6.55858
G1 X102.889 Y118.258 E6.62656
G1 X102.984 Y119.010 E6.69545
G1 X102.869 Y119.792 E6.76731
G1 X102.614 Y120.437 E6.83040
G1 X102.174 Y121.042 E6.89838
G1 X101.598 Y121.518 E6.96637
G1 X100.976 Y121.811 E7.02889
G1 E3.02889 F2400.00000
G92 E0
G1 Z0.650 F4800.000
G1 X100.148 Y158.652
G1 Z0.350
G1 E4.00000 F2400.00000
G1 F1800
G1 X100.727 Y158.762 E4.05363
G1 X101.261 Y159.013 E4.10725
G1 X101.715 Y159.389 E4.16088
G1 X102.062 Y159.867 E4.21451
G1 X102.279 Y160.415 E4.26813
G1 X102.353 Y161.004 E4.32209
G1 X102.261 Y161.629 E4.37959
G1 X102.062 Y162.133 E4.42890
G1 X101.715 Y162.611 E4.48253
G1 X101.261 Y162.987 E4.53616
G1 X100.770 Y163.217 E4.58547
G1 X100.151 Y163.348 E4.64297
G1 X99.559 Y163.311 E4.69692
G1 X99.043 Y163.144 E4.74624
G1 X98.503 Y162.815 E4.80374
G1 X98.097 Y162.383 E4.85769
G1 X97.812 Y161.866 E4.91132
G1 X97.666 Y161.295 E4.96494
G1 X97.666 Y160.705 E5.01857
G1 X97.801 Y160.180 E5.06788
G1 X98.094 Y159.620 E5.12539
G1 X98.500 Y159.187 E5.17934
G1 X99.001 Y158.869 E5.23329
G1 X99.606 Y158.686 E5.29079
G1 X100.088 Y158.656 E5.33465
G1 X100.369 Y158.319 F4800.000
G1 X100.187 Y158.023
G1 F1800
G1 X100.922 Y158.163 E5.40263
G1 X101.598 Y158.482 E5.47061
G1 X102.174 Y158.958 E5.53860
G1 X102.614 Y159.563 E5.60658
G1 X102.889 Y160.258 E5.67457
G1 X102.984 Y161.010 E5.74345
G1 X102.869 Y161.792 E5.81531
G1 X102.614 Y162.437 E5.87840
G1 X102.174 Y163.042 E5.94639
