; generated by Slic3r Prusa Edition 1.40.1+win64 on 2019-03-17 at 10:50:54

; Unselected the "only retract when crossing perimiters" option on the Infill page to see if I can get Z lift when retracting within a layer. Stop the head catching and also not leave a filament trail when travelling.
; Changed layer height from 0.3 to 0.2 to see better output - "Layers and Perimeters" page

; external perimeters extrusion width = 0.45mm
; perimeters extrusion width = 0.45mm
; infill extrusion width = 0.45mm
; solid infill extrusion width = 0.45mm
; top infill extrusion width = 0.40mm
; first layer extrusion width = 0.70mm

M107
M190 S60 ; set bed temperature and wait for it to be reached
M104 S210 ; set temperature
G28 ; home all axes
G1 Z5 F5000 ; lift nozzle
; Filament gcode
M109 S210 ; set temperature and wait for it to be reached
G21 ; set units to millimeters
G90 ; use absolute coordinates
M82 ; use absolute distances for extrusion
G92 E0
G1 E-4.00000 F2400.00000
G92 E0
G1 Z0.350 F4800.000
G1 Z0.650
G1 X45.982 Y71.843
G1 Z0.350
G1 E4.00000 F2400.00000
G1 F1800
G1 X47.154 Y71.244 E4.11969
G1 X70.141 Y63.565 E6.32339
G1 X71.476 Y63.257 E6.44801
G1 X72.492 Y63.188 E6.54060
G1 X127.507 Y63.188 E11.54305
G1 X128.671 Y63.279 E11.64920
G1 X129.800 Y63.546 E11.75473
G1 X153.131 Y71.366 E13.99220
G1 X153.923 Y71.785 E14.07370
G1 X154.661 Y72.295 E14.15520
G1 X155.337 Y72.893 E14.23731
G1 X155.934 Y73.562 E14.31881
G1 X156.447 Y74.297 E14.40030
G1 X156.872 Y75.093 E14.48242
G1 X157.197 Y75.929 E14.56391
G1 X157.422 Y76.803 E14.64602
G1 X157.562 Y78.241 E14.77741
G1 X157.562 Y209.291 E26.69370
G1 X157.502 Y210.199 E26.77643
G1 X157.334 Y211.093 E26.85916
G1 X157.060 Y211.960 E26.94189
G1 X156.680 Y212.794 E27.02524
G1 X156.159 Y213.638 E27.11536
G1 X155.528 Y214.411 E27.20611
G1 X154.800 Y215.093 E27.29685
G1 X153.989 Y215.675 E27.38760
G1 X153.114 Y216.141 E27.47773
G1 X152.180 Y216.491 E27.56847
G1 X151.207 Y216.715 E27.65922
G1 X150.214 Y216.809 E27.74996
G1 X49.939 Y216.812 E36.86791
G1 X49.038 Y216.751 E36.95002
G1 X48.144 Y216.581 E37.03275
G1 X47.283 Y216.307 E37.11487
G1 X46.456 Y215.930 E37.19760
G1 X45.601 Y215.401 E37.28896
G1 X44.830 Y214.768 E37.37970
G1 X44.148 Y214.040 E37.47045
G1 X43.565 Y213.221 E37.56181
G1 X43.098 Y212.339 E37.65255
G1 X42.749 Y211.397 E37.74391
G1 X42.528 Y210.417 E37.83527
G1 X42.440 Y209.416 E37.92664
G1 X42.438 Y78.202 E49.85784
G1 X42.498 Y77.295 E49.94057
G1 X42.667 Y76.401 E50.02330
G1 X42.943 Y75.533 E50.10603
G1 X43.320 Y74.706 E50.18876
G1 X44.036 Y73.601 E50.30845
G1 X44.932 Y72.637 E50.42815
G1 X45.935 Y71.879 E50.54239
G1 X46.309 Y72.379 F4800.000
G1 F1800
G1 X47.418 Y71.811 E50.65559
G1 X70.337 Y64.158 E52.85276
G1 X71.579 Y63.874 E52.96857
G1 X72.493 Y63.813 E53.05194
G1 X127.507 Y63.813 E58.05426
G1 X128.569 Y63.896 E58.15120
G1 X129.613 Y64.142 E58.24874
G1 X152.836 Y71.919 E60.47564
G1 X154.255 Y72.771 E60.62616
G1 X155.436 Y73.940 E60.77727
G1 X156.305 Y75.357 E60.92838
G1 X156.812 Y76.939 E61.07949
G1 X156.937 Y78.246 E61.19883
G1 X156.937 Y209.283 E73.11394
G1 X156.883 Y210.120 E73.19022
G1 X156.727 Y210.944 E73.26650
G1 X156.474 Y211.744 E73.34278
G1 X156.122 Y212.513 E73.41965
G1 X155.642 Y213.286 E73.50243
G1 X155.061 Y213.995 E73.58580
G1 X154.396 Y214.617 E73.66857
G1 X153.650 Y215.150 E73.75194
G1 X152.840 Y215.579 E73.83531
G1 X151.981 Y215.899 E73.91867
G1 X151.093 Y216.101 E74.00145
G1 X150.180 Y216.185 E74.08482
G1 X49.948 Y216.187 E83.19887
G1 X49.117 Y216.131 E83.27456
G1 X48.293 Y215.974 E83.35084
G1 X47.494 Y215.719 E83.42712
G1 X46.737 Y215.372 E83.50281
G1 X45.959 Y214.889 E83.58618
G1 X45.250 Y214.306 E83.66955
G1 X44.621 Y213.631 E83.75351
G1 X44.090 Y212.883 E83.83687
G1 X43.663 Y212.072 E83.92024
G1 X43.344 Y211.206 E84.00420
G1 X43.144 Y210.311 E84.08756
G1 X43.064 Y209.391 E84.17152
G1 X43.063 Y78.211 E96.09966
G1 X43.118 Y77.374 E96.17594
G1 X43.274 Y76.550 E96.25222
G1 X43.529 Y75.750 E96.32850
G1 X43.878 Y74.987 E96.40478
G1 X44.537 Y73.974 E96.51470
G1 X45.367 Y73.087 E96.62520
G1 X46.261 Y72.415 E96.72692
G1 E92.72692 F2400.00000
G92 E0
G1 Z0.650 F4800.000
G1 X43.882 Y76.696
G1 Z0.350
G1 E4.00000 F2400.00000
G1 F1800
G1 X44.435 Y75.270 E4.13907
G1 X45.039 Y74.346 E4.23940
G1 X45.799 Y73.538 E4.34030
G1 X46.684 Y72.879 E4.44064
G1 X47.676 Y72.381 E4.54154
G1 X70.527 Y64.754 E6.73211
G1 X71.682 Y64.491 E6.83975
G1 X72.492 Y64.438 E6.91364
G1 X127.506 Y64.438 E11.91601
G1 X128.477 Y64.514 E12.00454
G1 X129.430 Y64.740 E12.09362
G1 X152.540 Y72.471 E14.30952
G1 X153.851 Y73.248 E14.44802
G1 X154.937 Y74.316 E14.58653
G1 X155.735 Y75.613 E14.72504
G1 X156.201 Y77.070 E14.86410
G1 X156.312 Y78.242 E14.97118
G1 X156.312 Y209.281 E26.88648
G1 X156.120 Y210.798 E27.02555
G1 X155.565 Y212.230 E27.16518
G1 X155.125 Y212.935 E27.24075
G1 X154.596 Y213.577 E27.31633
G1 X153.988 Y214.143 E27.39190
G1 X153.311 Y214.625 E27.46748
G1 X152.576 Y215.013 E27.54306
G1 X151.796 Y215.301 E27.61863
G1 X150.986 Y215.485 E27.69421
G1 X150.152 Y215.561 E27.77035
G1 X49.957 Y215.562 E36.88106
G1 X48.440 Y215.367 E37.02013
G1 X47.020 Y214.815 E37.15863
G1 X46.315 Y214.375 E37.23421
G1 X45.669 Y213.842 E37.31035
G1 X45.099 Y213.228 E37.38649
G1 X44.616 Y212.545 E37.46263
G1 X44.227 Y211.803 E37.53876
G1 X43.940 Y211.017 E37.61490
G1 X43.759 Y210.199 E37.69104
G1 X43.689 Y209.365 E37.76718
G1 X43.688 Y78.213 E49.69276
G1 X43.874 Y76.755 E49.82637
G1 E45.82637 F2400.00000
G92 E0
G1 Z0.650 F4800.000
G1 X132.187 Y73.564
G1 Z0.350
G1 E4.00000 F2400.00000
G1 F1800
G1 X150.757 Y73.583 E5.68858
G1 X151.471 Y73.736 E5.75493
G1 X152.097 Y73.990 E5.81641
G1 X152.880 Y74.509 E5.90176
G1 X153.951 Y75.633 E6.04299
G1 X154.266 Y76.167 E6.09929
G1 X154.496 Y76.722 E6.15395
G1 X154.687 Y77.683 E6.24302
G1 X154.687 Y133.819 E11.34749
G1 X154.524 Y134.684 E11.42749
G1 X154.141 Y135.568 E11.51515
G1 X153.703 Y136.175 E11.58319
G1 X152.913 Y136.965 E11.68474
G1 X152.269 Y137.417 E11.75635
G1 X151.536 Y137.742 E11.82919
G1 X150.567 Y137.937 E11.91907
G1 X132.187 Y137.937 E13.59037
G1 X132.182 Y141.360 E13.90168
G1 X132.043 Y142.126 E13.97243
G1 X131.750 Y142.863 E14.04459
G1 X131.316 Y143.541 E14.11774
G1 X130.269 Y144.583 E14.25207
G1 X129.593 Y145.012 E14.32485
G1 X128.924 Y145.278 E14.39031
G1 X128.263 Y145.418 E14.45170
G1 X71.933 Y145.437 E19.57382
G1 X70.965 Y145.243 E19.66360
G1 X70.339 Y144.977 E19.72541
G1 X69.725 Y144.578 E19.79197
G1 X68.684 Y143.541 E19.92562
G1 X68.276 Y142.914 E19.99359
G1 X67.976 Y142.191 E20.06481
G1 X67.818 Y141.363 E20.14144
G1 X67.813 Y137.937 E20.45299
G1 X49.431 Y137.937 E22.12445
G1 X48.566 Y137.774 E22.20445
G1 X47.682 Y137.391 E22.29211
G1 X47.075 Y136.953 E22.36016
G1 X46.285 Y136.163 E22.46170
G1 X45.833 Y135.519 E22.53331
G1 X45.508 Y134.786 E22.60615
G1 X45.313 Y133.817 E22.69604
G1 X45.313 Y77.681 E27.80050
G1 X45.476 Y76.816 E27.88049
G1 X45.859 Y75.932 E27.96816
G1 X46.297 Y75.325 E28.03620
G1 X47.087 Y74.535 E28.13774
G1 X47.731 Y74.083 E28.20935
G1 X48.464 Y73.758 E28.28219
G1 X49.433 Y73.563 E28.37208
G1 X67.813 Y73.563 E30.04337
G1 X67.818 Y70.140 E30.35468
G1 X67.957 Y69.374 E30.42544
G1 X68.250 Y68.637 E30.49759
G1 X68.684 Y67.959 E30.57075
G1 X69.731 Y66.917 E30.70507
G1 X70.407 Y66.488 E30.77785
G1 X71.076 Y66.222 E30.84332
G1 X71.737 Y66.082 E30.90473
G1 X128.212 Y66.077 E36.03995
G1 X128.885 Y66.211 E36.10239
G1 X129.592 Y66.488 E36.17147
G1 X130.269 Y66.917 E36.24432
G1 X131.316 Y67.959 E36.37864
G1 X131.750 Y68.637 E36.45180
G1 X132.043 Y69.374 E36.52395
G1 X132.182 Y70.140 E36.59470
G1 X132.187 Y73.504 E36.90058
G1 X131.562 Y74.188 F4800.000
G1 F1800
G1 X150.662 Y74.201 E38.63735
G1 X151.263 Y74.327 E38.69318
G1 X151.832 Y74.557 E38.74899
G1 X152.502 Y75.008 E38.82245
G1 X153.433 Y75.984 E38.94507
G1 X153.697 Y76.427 E38.99203
G1 X153.906 Y76.933 E39.04177
G1 X154.062 Y77.713 E39.11415
G1 X154.062 Y133.788 E44.21301
G1 X153.918 Y134.528 E44.28154
G1 X153.584 Y135.284 E44.35668
G1 X153.244 Y135.750 E44.40913
G1 X152.492 Y136.502 E44.50589
G1 X151.939 Y136.885 E44.56700
G1 X151.319 Y137.156 E44.62855
G1 X150.537 Y137.312 E44.70108
G1 X131.562 Y137.312 E46.42646
G1 X131.562 Y141.281 E46.78737
G1 X131.449 Y141.930 E46.84727
G1 X131.203 Y142.558 E46.90861
G1 X130.847 Y143.126 E46.96957
G1 X129.901 Y144.077 E47.09153
G1 X129.330 Y144.444 E47.15329
G1 X128.767 Y144.672 E47.20853
G1 X128.166 Y144.799 E47.26437
G1 X71.964 Y144.812 E52.37482
G1 X71.180 Y144.655 E52.44748
G1 X70.611 Y144.413 E52.50373
G1 X70.097 Y144.075 E52.55967
G1 X69.152 Y143.126 E52.68146
G1 X68.820 Y142.604 E52.73768
G1 X68.568 Y141.987 E52.79833
G1 X68.438 Y141.280 E52.86369
G1 X68.438 Y137.312 E53.22448
G1 X49.462 Y137.312 E54.94999
G1 X48.722 Y137.168 E55.01852
G1 X47.966 Y136.834 E55.09367
G1 X47.500 Y136.494 E55.14611
G1 X46.748 Y135.742 E55.24287
G1 X46.365 Y135.189 E55.30398
G1 X46.094 Y134.569 E55.36554
G1 X45.938 Y133.787 E55.43807
G1 X45.938 Y77.712 E60.53692
G1 X46.082 Y76.972 E60.60545
G1 X46.416 Y76.216 E60.68059
G1 X46.756 Y75.750 E60.73304
G1 X47.508 Y74.998 E60.82980
G1 X48.060 Y74.615 E60.89091
G1 X48.681 Y74.344 E60.95246
G1 X49.463 Y74.188 E61.02499
G1 X68.438 Y74.188 E62.75037
G1 X68.438 Y70.219 E63.11128
G1 X68.551 Y69.570 E63.17118
G1 X68.797 Y68.942 E63.23252
G1 X69.153 Y68.374 E63.29348
G1 X70.099 Y67.423 E63.41544
G1 X70.670 Y67.056 E63.47720
G1 X71.233 Y66.828 E63.53244
G1 X71.834 Y66.701 E63.58830
G1 X128.178 Y66.702 E68.71160
G1 X128.729 Y66.816 E68.76278
G1 X129.331 Y67.056 E68.82170
G1 X129.901 Y67.423 E68.88333
G1 X130.847 Y68.374 E69.00529
G1 X131.203 Y68.942 E69.06625
G1 X131.449 Y69.570 E69.12759
G1 X131.562 Y70.219 E69.18749
G1 X131.562 Y74.128 E69.54295
G1 X130.937 Y74.813 F4800.000
G1 F1800
G1 X150.566 Y74.819 E71.32777
G1 X151.105 Y74.932 E71.37790
G1 X151.563 Y75.122 E71.42298
G1 X152.076 Y75.466 E71.47917
G1 X152.917 Y76.338 E71.58932
G1 X153.129 Y76.689 E71.62661
G1 X153.317 Y77.143 E71.67133
G1 X153.437 Y77.744 E71.72701
G1 X153.437 Y133.756 E76.82013
G1 X153.313 Y134.367 E76.87684
G1 X153.029 Y134.994 E76.93947
G1 X152.786 Y135.324 E76.97671
G1 X152.071 Y136.039 E77.06865
G1 X151.615 Y136.351 E77.11892
G1 X151.105 Y136.568 E77.16928
G1 X150.506 Y136.687 E77.22482
G1 X130.937 Y136.687 E79.00424
G1 X130.937 Y141.252 E79.41932
G1 X130.840 Y141.785 E79.46859
G1 X130.634 Y142.300 E79.51906
G1 X130.377 Y142.713 E79.56330
G1 X129.529 Y143.573 E79.67312
G1 X129.066 Y143.877 E79.72348
G1 X128.560 Y144.082 E79.77311
G1 X128.073 Y144.181 E79.81829
G1 X71.994 Y144.187 E84.91752
G1 X71.395 Y144.068 E84.97307
G1 X70.884 Y143.850 E85.02360
G1 X70.472 Y143.575 E85.06863
G1 X69.623 Y142.713 E85.17860
G1 X69.366 Y142.300 E85.22284
G1 X69.160 Y141.785 E85.27331
G1 X69.063 Y141.252 E85.32258
G1 X69.063 Y136.687 E85.73767
G1 X49.494 Y136.687 E87.51705
G1 X48.883 Y136.563 E87.57376
G1 X48.256 Y136.279 E87.63638
G1 X47.926 Y136.036 E87.67362
G1 X47.211 Y135.321 E87.76556
G1 X46.899 Y134.865 E87.81583
G1 X46.682 Y134.355 E87.86620
G1 X46.563 Y133.756 E87.92174
G1 X46.563 Y77.744 E93.01486
G1 X46.687 Y77.133 E93.07157
G1 X46.971 Y76.506 E93.13419
G1 X47.214 Y76.176 E93.17144
G1 X47.929 Y75.461 E93.26337
G1 X48.385 Y75.149 E93.31364
G1 X48.895 Y74.932 E93.36401
G1 X49.494 Y74.813 E93.41955
G1 X69.063 Y74.813 E95.19896
G1 X69.063 Y70.248 E95.61404
G1 X69.160 Y69.715 E95.66332
G1 X69.366 Y69.200 E95.71378
G1 X69.623 Y68.787 E95.75802
G1 X70.471 Y67.927 E95.86785
G1 X70.934 Y67.623 E95.91821
G1 X71.440 Y67.418 E95.96783
G1 X71.927 Y67.319 E96.01302
G1 X128.142 Y67.327 E101.12465
G1 X128.566 Y67.420 E101.16412
G1 X129.066 Y67.623 E101.21313
G1 X129.529 Y67.927 E101.26351
G1 X130.377 Y68.787 E101.37334
G1 X130.634 Y69.200 E101.41758
G1 X130.840 Y69.715 E101.46804
G1 X130.937 Y70.248 E101.51732
G1 X130.937 Y74.753 E101.92694
G1 X130.312 Y75.438 F4800.000
G1 F1800
G1 X150.475 Y75.438 E103.76038
G1 X150.896 Y75.522 E103.79936
G1 X151.296 Y75.687 E103.83872
G1 X151.653 Y75.926 E103.87778
G1 X152.405 Y76.697 E103.97568
G1 X152.562 Y76.952 E104.00296
G1 X152.728 Y77.354 E104.04252
G1 X152.812 Y77.775 E104.08150
G1 X152.812 Y133.725 E109.16905
G1 X152.727 Y134.147 E109.20822
G1 X152.502 Y134.657 E109.25888
G1 X152.326 Y134.901 E109.28623
G1 X151.652 Y135.574 E109.37286
G1 X151.296 Y135.813 E109.41184
G1 X150.896 Y135.978 E109.45121
G1 X150.475 Y136.062 E109.49020
G1 X130.312 Y136.062 E111.32364
G1 X130.312 Y141.225 E111.79306
G1 X130.248 Y141.583 E111.82616
G1 X130.063 Y142.044 E111.87137
G1 X129.904 Y142.303 E111.89899
G1 X129.153 Y143.074 E111.99687
G1 X128.796 Y143.313 E112.03593
G1 X128.397 Y143.478 E112.07519
G1 X128.038 Y143.556 E112.10862
G1 X72.025 Y143.562 E117.20184
G1 X71.604 Y143.478 E117.24083
G1 X71.204 Y143.313 E117.28018
G1 X70.847 Y143.074 E117.31925
G1 X70.096 Y142.303 E117.41712
G1 X69.937 Y142.044 E117.44475
G1 X69.752 Y141.583 E117.48995
G1 X69.688 Y141.225 E117.52305
G1 X69.688 Y136.062 E117.99248
G1 X49.525 Y136.062 E119.82589
G1 X49.103 Y135.977 E119.86506
G1 X48.593 Y135.752 E119.91573
G1 X48.349 Y135.576 E119.94308
G1 X47.676 Y134.902 E120.02971
G1 X47.437 Y134.546 E120.06869
G1 X47.272 Y134.146 E120.10806
G1 X47.188 Y133.725 E120.14705
G1 X47.188 Y77.775 E125.23459
G1 X47.273 Y77.353 E125.27376
G1 X47.498 Y76.843 E125.32442
G1 X47.674 Y76.599 E125.35178
G1 X48.348 Y75.926 E125.43840
G1 X48.704 Y75.687 E125.47739
G1 X49.104 Y75.522 E125.51675
G1 X49.525 Y75.438 E125.55574
G1 X69.688 Y75.438 E127.38918
G1 X69.688 Y70.275 E127.85861
G1 X69.752 Y69.917 E127.89170
G1 X69.937 Y69.456 E127.93691
G1 X70.096 Y69.197 E127.96454
G1 X70.847 Y68.426 E128.06241
G1 X71.204 Y68.187 E128.10147
G1 X71.603 Y68.022 E128.14073
G1 X71.962 Y67.944 E128.17416
G1 X128.103 Y67.952 E133.27899
G1 X128.394 Y68.021 E133.30619
G1 X128.796 Y68.187 E133.34573
G1 X129.153 Y68.426 E133.38479
G1 X129.904 Y69.197 E133.48267
G1 X130.063 Y69.456 E133.51029
G1 X130.248 Y69.917 E133.55550
G1 X130.312 Y70.275 E133.58860
G1 X130.312 Y75.378 E134.05257
G1 X129.687 Y76.063 F4800.000
G1 F1800
G1 X150.445 Y76.063 E135.94004
G1 X150.685 Y76.111 E135.96233
G1 X151.028 Y76.253 E135.99611
G1 X151.231 Y76.389 E136.01832
G1 X151.897 Y77.062 E136.10438
G1 X151.996 Y77.218 E136.12121
G1 X152.139 Y77.565 E136.15534
G1 X152.187 Y77.805 E136.17763
G1 X152.187 Y133.695 E141.25962
G1 X152.140 Y133.933 E141.28173
G1 X151.971 Y134.327 E141.32072
G1 X151.864 Y134.479 E141.33764
G1 X151.232 Y135.111 E141.41885
G1 X151.028 Y135.247 E141.44114
G1 X150.685 Y135.389 E141.47492
G1 X150.445 Y135.437 E141.49721
G1 X129.687 Y135.437 E143.38468
G1 X129.687 Y141.198 E143.90856
G1 X129.655 Y141.382 E143.92548
G1 X129.495 Y141.783 E143.96482
G1 X129.397 Y141.938 E143.98147
G1 X128.731 Y142.611 E144.06753
G1 X128.528 Y142.747 E144.08974
G1 X128.181 Y142.891 E144.12388
G1 X128.002 Y142.931 E144.14062
G1 X72.055 Y142.937 E149.22781
G1 X71.815 Y142.889 E149.25010
G1 X71.472 Y142.747 E149.28388
G1 X71.269 Y142.611 E149.30608
G1 X70.603 Y141.938 E149.39215
G1 X70.505 Y141.783 E149.40880
G1 X70.345 Y141.382 E149.44814
G1 X70.313 Y141.198 E149.46506
G1 X70.313 Y135.437 E149.98894
G1 X49.555 Y135.437 E151.87641
G1 X49.317 Y135.390 E151.89852
G1 X48.923 Y135.221 E151.93751
G1 X48.771 Y135.114 E151.95443
G1 X48.139 Y134.482 E152.03564
G1 X48.003 Y134.278 E152.05793
G1 X47.861 Y133.935 E152.09171
G1 X47.813 Y133.695 E152.11400
G1 X47.813 Y77.805 E157.19599
G1 X47.860 Y77.567 E157.21810
G1 X48.029 Y77.173 E157.25709
G1 X48.136 Y77.021 E157.27401
G1 X48.768 Y76.389 E157.35522
G1 X48.972 Y76.253 E157.37751
G1 X49.315 Y76.111 E157.41129
G1 X49.555 Y76.063 E157.43358
G1 X70.313 Y76.063 E159.32105
G1 X70.313 Y70.302 E159.84493
G1 X70.345 Y70.118 E159.86185
G1 X70.505 Y69.717 E159.90119
G1 X70.603 Y69.562 E159.91784
G1 X71.269 Y68.889 E160.00391
G1 X71.472 Y68.753 E160.02611
G1 X71.819 Y68.609 E160.06025
G1 X71.998 Y68.569 E160.07699
G1 X128.002 Y68.569 E165.16938
G1 X128.181 Y68.609 E165.18612
G1 X128.528 Y68.753 E165.22025
G1 X128.731 Y68.889 E165.24246
G1 X129.397 Y69.562 E165.32852
G1 X129.495 Y69.717 E165.34517
G1 X129.655 Y70.118 E165.38452
G1 X129.687 Y70.302 E165.40143
G1 X129.687 Y76.003 E165.91986
