; generated by Slic3r Prusa Edition 1.40.1+win64 on 2018-10-06 at 12:06:21

; 

; external perimeters extrusion width = 0.45mm
; perimeters extrusion width = 0.45mm
; infill extrusion width = 0.45mm
; solid infill extrusion width = 0.45mm
; top infill extrusion width = 0.40mm
; first layer extrusion width = 0.70mm

M107
M190 S60 ; set bed temperature and wait for it to be reached
M104 S210 ; set temperature
G28 ; home all axes
G1 Z5 F5000 ; lift nozzle
; Filament gcode
M109 S210 ; set temperature and wait for it to be reached
G21 ; set units to millimeters
G90 ; use absolute coordinates
M82 ; use absolute distances for extrusion
G92 E0
G1 E-4.00000 F2400.00000
G92 E0
G1 Z0.350 F4800.000
G1 Z0.650
G1 X43.881 Y108.057
G1 Z0.350
G1 E4.00000 F2400.00000
G1 F1800
G1 X44.927 Y106.892 E4.14245
G1 X46.127 Y106.005 E4.27813
G1 X47.484 Y105.368 E4.41443
G1 X70.154 Y97.811 E6.58727
G1 X71.638 Y97.487 E6.72542
G1 X127.507 Y97.438 E11.80554
G1 X128.664 Y97.528 E11.91107
G1 X129.794 Y97.794 E12.01660
G1 X152.938 Y105.532 E14.23562
G1 X154.300 Y106.279 E14.37683
G1 X155.475 Y107.284 E14.51744
G1 X156.425 Y108.512 E14.65865
G1 X157.104 Y109.909 E14.79987
G1 X157.441 Y111.153 E14.91710
G1 X157.562 Y112.444 E15.03495
G1 X157.558 Y167.745 E20.06345
G1 X157.358 Y169.244 E20.20098
G1 X156.861 Y170.679 E20.33913
G1 X156.091 Y171.981 E20.47666
G1 X155.073 Y173.108 E20.61480
G1 X153.873 Y173.995 E20.75049
G1 X152.516 Y174.632 E20.88679
G1 X129.846 Y182.189 E23.05963
G1 X128.362 Y182.513 E23.19777
G1 X72.466 Y182.562 E28.28036
G1 X71.329 Y182.471 E28.38405
G1 X70.213 Y182.208 E28.48835
G1 X47.467 Y174.625 E30.66849
G1 X46.612 Y174.261 E30.75307
G1 X45.802 Y173.790 E30.83827
G1 X45.061 Y173.227 E30.92285
G1 X44.391 Y172.572 E31.00805
G1 X43.593 Y171.517 E31.12835
G1 X42.988 Y170.332 E31.24928
G1 X42.602 Y169.067 E31.36959
G1 X42.442 Y167.747 E31.49051
G1 X42.438 Y112.439 E36.51963
G1 X42.611 Y110.889 E36.66146
G1 X43.099 Y109.407 E36.80329
G1 X43.850 Y108.109 E36.93967
G1 X44.390 Y108.424 F4800.000
G1 F1800
G1 X45.372 Y107.332 E37.07318
G1 X46.473 Y106.526 E37.19723
G1 X47.710 Y105.952 E37.32128
G1 X70.343 Y98.406 E39.49067
G1 X71.721 Y98.107 E39.61884
G1 X127.507 Y98.063 E44.69143
G1 X128.569 Y98.146 E44.78837
G1 X129.607 Y98.390 E44.88531
G1 X152.663 Y106.094 E47.09571
G1 X153.924 Y106.779 E47.22624
G1 X155.018 Y107.710 E47.35677
G1 X155.893 Y108.839 E47.48671
G1 X156.520 Y110.130 E47.61724
G1 X156.828 Y111.273 E47.72480
G1 X156.937 Y112.450 E47.83235
G1 X156.934 Y167.708 E52.85693
G1 X156.750 Y169.099 E52.98451
G1 X156.291 Y170.425 E53.11210
G1 X155.573 Y171.631 E53.23968
G1 X154.628 Y172.668 E53.36727
G1 X153.527 Y173.474 E53.49132
G1 X152.290 Y174.048 E53.61538
G1 X129.657 Y181.594 E55.78476
G1 X128.279 Y181.893 E55.91293
G1 X72.467 Y181.937 E60.98789
G1 X71.418 Y181.852 E61.08365
G1 X70.393 Y181.610 E61.17941
G1 X47.677 Y174.037 E63.35672
G1 X46.882 Y173.697 E63.43536
G1 X46.135 Y173.261 E63.51400
G1 X45.448 Y172.735 E63.59265
G1 X44.832 Y172.128 E63.67129
G1 X44.104 Y171.155 E63.78179
G1 X43.556 Y170.070 E63.89230
G1 X43.208 Y168.913 E64.00221
G1 X43.066 Y167.706 E64.11271
G1 X43.063 Y112.441 E69.13788
G1 X43.223 Y111.015 E69.26841
G1 X43.677 Y109.646 E69.39953
G1 X44.360 Y108.476 E69.52275
G1 X44.897 Y108.791 F4800.000
G1 F1800
G1 X45.809 Y107.780 E69.64652
G1 X46.806 Y107.055 E69.75866
G1 X47.920 Y106.540 E69.87023
G1 X70.539 Y99.000 E72.03824
G1 X71.799 Y98.727 E72.15543
G1 X127.506 Y98.688 E77.22089
G1 X128.477 Y98.764 E77.30942
G1 X129.424 Y98.988 E77.39794
G1 X152.398 Y106.661 E79.60033
G1 X153.554 Y107.283 E79.71977
G1 X154.557 Y108.132 E79.83921
G1 X155.359 Y109.164 E79.95809
G1 X155.933 Y110.345 E80.07752
G1 X156.214 Y111.387 E80.17561
G1 X156.312 Y112.461 E80.27370
G1 X156.310 Y167.680 E85.29471
G1 X156.143 Y168.952 E85.41135
G1 X155.720 Y170.169 E85.52854
G1 X155.059 Y171.275 E85.64573
G1 X154.191 Y172.220 E85.76236
G1 X153.194 Y172.945 E85.87450
G1 X152.080 Y173.460 E85.98608
G1 X129.461 Y181.000 E88.15409
G1 X128.201 Y181.273 E88.27128
G1 X72.469 Y181.312 E93.33899
G1 X71.511 Y181.234 E93.42639
G1 X70.576 Y181.012 E93.51379
G1 X47.892 Y173.450 E95.68799
G1 X47.162 Y173.139 E95.76019
G1 X46.472 Y172.734 E95.83295
G1 X45.279 Y171.690 E95.97706
G1 X44.625 Y170.810 E96.07683
G1 X44.131 Y169.823 E96.17717
G1 X43.816 Y168.765 E96.27750
G1 X43.690 Y167.669 E96.37784
G1 X43.688 Y112.450 E101.39886
G1 X43.836 Y111.139 E101.51886
G1 X44.251 Y109.893 E101.63829
G1 X44.867 Y108.843 E101.74899
G1 E97.74899 F2400.00000
G92 E0
G1 Z0.650 F4800.000
G1 X132.187 Y107.814
G1 Z0.350
G1 E4.00000 F2400.00000
G1 F1800
G1 X150.757 Y107.833 E5.68858
G1 X151.471 Y107.986 E5.75493
G1 X152.097 Y108.240 E5.81641
G1 X152.880 Y108.759 E5.90176
G1 X153.951 Y109.883 E6.04299
G1 X154.266 Y110.417 E6.09929
G1 X154.496 Y110.972 E6.15395
G1 X154.687 Y111.933 E6.24302
G1 X154.687 Y168.069 E11.34749
G1 X154.524 Y168.934 E11.42749
G1 X154.141 Y169.818 E11.51515
G1 X153.703 Y170.425 E11.58319
G1 X152.913 Y171.215 E11.68474
G1 X152.269 Y171.667 E11.75635
G1 X151.536 Y171.992 E11.82919
G1 X150.567 Y172.187 E11.91907
G1 X132.187 Y172.187 E13.59037
G1 X132.182 Y175.610 E13.90168
G1 X132.043 Y176.376 E13.97243
G1 X131.750 Y177.113 E14.04459
G1 X131.316 Y177.791 E14.11774
G1 X130.269 Y178.833 E14.25207
G1 X129.593 Y179.262 E14.32485
G1 X128.924 Y179.528 E14.39031
G1 X128.263 Y179.668 E14.45170
G1 X71.933 Y179.687 E19.57382
G1 X70.965 Y179.493 E19.66360
G1 X70.339 Y179.227 E19.72541
G1 X69.725 Y178.828 E19.79197
G1 X68.684 Y177.791 E19.92562
G1 X68.276 Y177.164 E19.99359
G1 X67.976 Y176.441 E20.06481
G1 X67.818 Y175.613 E20.14144
G1 X67.813 Y172.187 E20.45299
G1 X49.431 Y172.187 E22.12445
G1 X48.566 Y172.024 E22.20445
G1 X47.682 Y171.641 E22.29211
G1 X47.075 Y171.203 E22.36016
G1 X46.285 Y170.413 E22.46170
G1 X45.833 Y169.769 E22.53331
G1 X45.508 Y169.036 E22.60615
G1 X45.313 Y168.067 E22.69604
G1 X45.313 Y111.931 E27.80050
G1 X45.476 Y111.066 E27.88049
G1 X45.859 Y110.182 E27.96816
G1 X46.297 Y109.575 E28.03620
G1 X47.087 Y108.785 E28.13774
G1 X47.731 Y108.333 E28.20935
G1 X48.464 Y108.008 E28.28219
G1 X49.433 Y107.813 E28.37208
G1 X67.813 Y107.813 E30.04337
G1 X67.818 Y104.390 E30.35468
G1 X67.957 Y103.624 E30.42544
G1 X68.250 Y102.887 E30.49759
G1 X68.684 Y102.209 E30.57075
G1 X69.731 Y101.167 E30.70507
G1 X70.407 Y100.738 E30.77785
G1 X71.076 Y100.472 E30.84332
G1 X71.737 Y100.332 E30.90473
G1 X128.212 Y100.327 E36.03995
G1 X128.885 Y100.461 E36.10239
G1 X129.592 Y100.738 E36.17147
G1 X130.269 Y101.167 E36.24432
G1 X131.316 Y102.209 E36.37864
G1 X131.750 Y102.887 E36.45180
G1 X132.043 Y103.624 E36.52395
G1 X132.182 Y104.390 E36.59470
G1 X132.187 Y107.754 E36.90058
G1 X131.562 Y108.438 F4800.000
G1 F1800
G1 X150.662 Y108.451 E38.63735
G1 X151.263 Y108.577 E38.69318
G1 X151.832 Y108.807 E38.74899
G1 X152.502 Y109.258 E38.82245
G1 X153.433 Y110.234 E38.94507
G1 X153.697 Y110.677 E38.99203
G1 X153.906 Y111.183 E39.04177
G1 X154.062 Y111.963 E39.11415
G1 X154.062 Y168.038 E44.21301
G1 X153.918 Y168.778 E44.28154
G1 X153.584 Y169.534 E44.35668
G1 X153.244 Y170.000 E44.40913
G1 X152.492 Y170.752 E44.50589
G1 X151.939 Y171.135 E44.56700
G1 X151.319 Y171.406 E44.62855
G1 X150.537 Y171.562 E44.70108
G1 X131.562 Y171.562 E46.42646
G1 X131.562 Y175.531 E46.78737
G1 X131.449 Y176.180 E46.84727
G1 X131.203 Y176.808 E46.90861
G1 X130.847 Y177.376 E46.96957
G1 X129.901 Y178.327 E47.09153
G1 X129.330 Y178.694 E47.15329
G1 X128.767 Y178.922 E47.20853
G1 X128.166 Y179.049 E47.26437
G1 X71.964 Y179.062 E52.37482
G1 X71.180 Y178.905 E52.44748
G1 X70.611 Y178.663 E52.50373
G1 X70.097 Y178.325 E52.55967
G1 X69.152 Y177.376 E52.68146
G1 X68.820 Y176.854 E52.73768
G1 X68.568 Y176.237 E52.79833
G1 X68.438 Y175.530 E52.86369
G1 X68.438 Y171.562 E53.22448
G1 X49.462 Y171.562 E54.94999
G1 X48.722 Y171.418 E55.01852
G1 X47.966 Y171.084 E55.09367
G1 X47.500 Y170.744 E55.14611
G1 X46.748 Y169.992 E55.24287
G1 X46.365 Y169.439 E55.30398
G1 X46.094 Y168.819 E55.36554
G1 X45.938 Y168.037 E55.43807
G1 X45.938 Y111.962 E60.53692
G1 X46.082 Y111.222 E60.60545
G1 X46.416 Y110.466 E60.68059
G1 X46.756 Y110.000 E60.73304
G1 X47.508 Y109.248 E60.82980
G1 X48.060 Y108.865 E60.89091
G1 X48.681 Y108.594 E60.95246
G1 X49.463 Y108.438 E61.02499
G1 X68.438 Y108.438 E62.75037
G1 X68.438 Y104.469 E63.11128
G1 X68.551 Y103.820 E63.17118
G1 X68.797 Y103.192 E63.23252
G1 X69.153 Y102.624 E63.29348
G1 X70.099 Y101.673 E63.41544
G1 X70.670 Y101.306 E63.47720
G1 X71.233 Y101.078 E63.53244
G1 X71.834 Y100.951 E63.58830
G1 X128.178 Y100.952 E68.71160
G1 X128.729 Y101.066 E68.76278
G1 X129.331 Y101.306 E68.82170
G1 X129.901 Y101.673 E68.88333
G1 X130.847 Y102.624 E69.00529
G1 X131.203 Y103.192 E69.06625
G1 X131.449 Y103.820 E69.12759
G1 X131.562 Y104.469 E69.18749
G1 X131.562 Y108.378 E69.54295
G1 X130.937 Y109.063 F4800.000
G1 F1800
G1 X150.566 Y109.069 E71.32777
G1 X151.105 Y109.182 E71.37790
G1 X151.563 Y109.372 E71.42298
G1 X152.076 Y109.716 E71.47917
G1 X152.917 Y110.588 E71.58932
G1 X153.129 Y110.939 E71.62661
G1 X153.317 Y111.393 E71.67133
G1 X153.437 Y111.994 E71.72701
G1 X153.437 Y168.006 E76.82013
G1 X153.313 Y168.617 E76.87684
G1 X153.029 Y169.244 E76.93947
G1 X152.786 Y169.574 E76.97671
G1 X152.071 Y170.289 E77.06865
G1 X151.615 Y170.601 E77.11892
G1 X151.105 Y170.818 E77.16928
G1 X150.506 Y170.937 E77.22482
G1 X130.937 Y170.937 E79.00424
G1 X130.937 Y175.502 E79.41932
G1 X130.840 Y176.035 E79.46859
G1 X130.634 Y176.550 E79.51906
G1 X130.377 Y176.963 E79.56330
G1 X129.529 Y177.823 E79.67312
G1 X129.066 Y178.127 E79.72348
G1 X128.560 Y178.332 E79.77311
G1 X128.073 Y178.431 E79.81829
G1 X71.994 Y178.437 E84.91752
G1 X71.395 Y178.318 E84.97307
G1 X70.884 Y178.100 E85.02360
G1 X70.472 Y177.825 E85.06863
G1 X69.623 Y176.963 E85.17860
G1 X69.366 Y176.550 E85.22284
G1 X69.160 Y176.035 E85.27331
G1 X69.063 Y175.502 E85.32258
G1 X69.063 Y170.937 E85.73767
G1 X49.494 Y170.937 E87.51705
G1 X48.883 Y170.813 E87.57376
G1 X48.256 Y170.529 E87.63638
G1 X47.926 Y170.286 E87.67362
G1 X47.211 Y169.571 E87.76556
G1 X46.899 Y169.115 E87.81583
G1 X46.682 Y168.605 E87.86620
G1 X46.563 Y168.006 E87.92174
G1 X46.563 Y111.994 E93.01486
G1 X46.687 Y111.383 E93.07157
G1 X46.971 Y110.756 E93.13419
G1 X47.214 Y110.426 E93.17144
G1 X47.929 Y109.711 E93.26337
G1 X48.385 Y109.399 E93.31364
G1 X48.895 Y109.182 E93.36401
G1 X49.494 Y109.063 E93.41955
G1 X69.063 Y109.063 E95.19896
G1 X69.063 Y104.498 E95.61404
G1 X69.160 Y103.965 E95.66332
G1 X69.366 Y103.450 E95.71378
G1 X69.623 Y103.037 E95.75802
G1 X70.471 Y102.177 E95.86785
G1 X70.934 Y101.873 E95.91821
G1 X71.440 Y101.668 E95.96783
G1 X71.927 Y101.569 E96.01302
G1 X128.142 Y101.577 E101.12465
G1 X128.566 Y101.670 E101.16412
G1 X129.066 Y101.873 E101.21313
G1 X129.529 Y102.177 E101.26351
G1 X130.377 Y103.037 E101.37334
G1 X130.634 Y103.450 E101.41758
G1 X130.840 Y103.965 E101.46804
G1 X130.937 Y104.498 E101.51732
G1 X130.937 Y109.003 E101.92694
G1 X130.312 Y109.688 F4800.000
G1 F1800
G1 X150.475 Y109.688 E103.76038
G1 X150.896 Y109.772 E103.79936
G1 X151.296 Y109.937 E103.83872
G1 X151.653 Y110.176 E103.87778
G1 X152.405 Y110.947 E103.97568
G1 X152.562 Y111.202 E104.00296
G1 X152.728 Y111.604 E104.04252
G1 X152.812 Y112.025 E104.08150
G1 X152.812 Y167.975 E109.16905
G1 X152.727 Y168.397 E109.20822
G1 X152.502 Y168.907 E109.25888
G1 X152.326 Y169.151 E109.28623
G1 X151.652 Y169.824 E109.37286
G1 X151.296 Y170.063 E109.41184
G1 X150.896 Y170.228 E109.45121
G1 X150.475 Y170.312 E109.49020
G1 X130.312 Y170.312 E111.32364
G1 X130.312 Y175.475 E111.79306
G1 X130.248 Y175.833 E111.82616
G1 X130.063 Y176.294 E111.87137
G1 X129.904 Y176.553 E111.89899
G1 X129.153 Y177.324 E111.99687
G1 X128.796 Y177.563 E112.03593
G1 X128.397 Y177.728 E112.07519
G1 X128.038 Y177.806 E112.10862
G1 X72.025 Y177.812 E117.20184
G1 X71.604 Y177.728 E117.24083
G1 X71.204 Y177.563 E117.28018
G1 X70.847 Y177.324 E117.31925
G1 X70.096 Y176.553 E117.41712
G1 X69.937 Y176.294 E117.44475
G1 X69.752 Y175.833 E117.48995
G1 X69.688 Y175.475 E117.52305
G1 X69.688 Y170.312 E117.99248
G1 X49.525 Y170.312 E119.82589
G1 X49.103 Y170.227 E119.86506
G1 X48.593 Y170.002 E119.91573
G1 X48.349 Y169.826 E119.94308
G1 X47.676 Y169.152 E120.02971
G1 X47.437 Y168.796 E120.06869
G1 X47.272 Y168.396 E120.10806
G1 X47.188 Y167.975 E120.14705
G1 X47.188 Y112.025 E125.23459
G1 X47.273 Y111.603 E125.27376
G1 X47.498 Y111.093 E125.32442
G1 X47.674 Y110.849 E125.35178
G1 X48.348 Y110.176 E125.43840
G1 X48.704 Y109.937 E125.47739
G1 X49.104 Y109.772 E125.51675
G1 X49.525 Y109.688 E125.55574
G1 X69.688 Y109.688 E127.38918
G1 X69.688 Y104.525 E127.85861
G1 X69.752 Y104.167 E127.89170
G1 X69.937 Y103.706 E127.93691
G1 X70.096 Y103.447 E127.96454
G1 X70.847 Y102.676 E128.06241
G1 X71.204 Y102.437 E128.10147
G1 X71.603 Y102.272 E128.14073
G1 X71.962 Y102.194 E128.17416
G1 X128.103 Y102.202 E133.27899
G1 X128.394 Y102.271 E133.30619
G1 X128.796 Y102.437 E133.34573
G1 X129.153 Y102.676 E133.38479
G1 X129.904 Y103.447 E133.48267
G1 X130.063 Y103.706 E133.51029
G1 X130.248 Y104.167 E133.55550
G1 X130.312 Y104.525 E133.58860
G1 X130.312 Y109.628 E134.05257
G1 X129.687 Y110.313 F4800.000
G1 F1800
G1 X150.445 Y110.313 E135.94004
G1 X150.685 Y110.361 E135.96233
G1 X151.028 Y110.503 E135.99611
G1 X151.231 Y110.639 E136.01832
G1 X151.897 Y111.312 E136.10438
G1 X151.996 Y111.468 E136.12121
G1 X152.139 Y111.815 E136.15534
G1 X152.187 Y112.055 E136.17763
G1 X152.187 Y167.945 E141.25962
G1 X152.140 Y168.183 E141.28173
G1 X151.971 Y168.577 E141.32072
G1 X151.864 Y168.729 E141.33764
G1 X151.232 Y169.361 E141.41885
G1 X151.028 Y169.497 E141.44114
G1 X150.685 Y169.639 E141.47492
G1 X150.445 Y169.687 E141.49721
G1 X129.687 Y169.687 E143.38468
G1 X129.687 Y175.448 E143.90856
G1 X129.655 Y175.632 E143.92548
G1 X129.495 Y176.033 E143.96482
G1 X129.397 Y176.188 E143.98147
G1 X128.731 Y176.861 E144.06753
G1 X128.528 Y176.997 E144.08974
G1 X128.181 Y177.141 E144.12388
G1 X128.002 Y177.181 E144.14062
G1 X72.055 Y177.187 E149.22781
G1 X71.815 Y177.139 E149.25010
G1 X71.472 Y176.997 E149.28388
G1 X71.269 Y176.861 E149.30608
G1 X70.603 Y176.188 E149.39215
G1 X70.505 Y176.033 E149.40880
G1 X70.345 Y175.632 E149.44814
G1 X70.313 Y175.448 E149.46506
G1 X70.313 Y169.687 E149.98894
G1 X49.555 Y169.687 E151.87641
G1 X49.317 Y169.640 E151.89852
G1 X48.923 Y169.471 E151.93751
G1 X48.771 Y169.364 E151.95443
G1 X48.139 Y168.732 E152.03564
G1 X48.003 Y168.528 E152.05793
G1 X47.861 Y168.185 E152.09171
G1 X47.813 Y167.945 E152.11400
G1 X47.813 Y112.055 E157.19599
G1 X47.860 Y111.817 E157.21810
G1 X48.029 Y111.423 E157.25709
G1 X48.136 Y111.271 E157.27401
G1 X48.768 Y110.639 E157.35522
G1 X48.972 Y110.503 E157.37751
G1 X49.315 Y110.361 E157.41129
G1 X49.555 Y110.313 E157.43358
G1 X70.313 Y110.313 E159.32105
G1 X70.313 Y104.552 E159.84493
G1 X70.345 Y104.368 E159.86185
G1 X70.505 Y103.967 E159.90119
G1 X70.603 Y103.812 E159.91784
G1 X71.269 Y103.139 E160.00391
G1 X71.472 Y103.003 E160.02611
G1 X71.819 Y102.859 E160.06025
G1 X71.998 Y102.819 E160.07699
G1 X128.002 Y102.819 E165.16938
G1 X128.181 Y102.859 E165.18612
G1 X128.528 Y103.003 E165.22025
G1 X128.731 Y103.139 E165.24246
G1 X129.397 Y103.812 E165.32852
G1 X129.495 Y103.967 E165.34517
G1 X129.655 Y104.368 E165.38452
G1 X129.687 Y104.552 E165.40143
G1 X129.687 Y110.253 E165.91986
G1 X129.062 Y110.938 F4800.000
G1 F1800
G1 X150.414 Y110.938 E167.86136
G1 X150.812 Y111.103 E167.90053
G1 X151.397 Y111.688 E167.97581
G1 X151.550 Y112.026 E168.00951
G1 X151.562 Y167.914 E173.09140
G1 X151.397 Y168.312 E173.13058
G1 X150.812 Y168.897 E173.20586
G1 X150.414 Y169.062 E173.24503
G1 X129.062 Y169.062 E175.18653
G1 X129.062 Y175.414 E175.76409
G1 X128.897 Y175.812 E175.80327
G1 X128.312 Y176.397 E175.87854
G1 X127.914 Y176.562 E175.91772
G1 X72.086 Y176.562 E180.99412
G1 X71.688 Y176.397 E181.03330
G1 X71.103 Y175.812 E181.10857
G1 X70.938 Y175.414 E181.14775
G1 X70.938 Y169.062 E181.72531
G1 X49.586 Y169.062 E183.66681
G1 X49.188 Y168.897 E183.70599
G1 X48.603 Y168.312 E183.78126
G1 X48.438 Y167.914 E183.82044
