; generated by Slic3r Prusa Edition 1.40.1+win64 on 2018-10-04 at 14:58:28

; 

; external perimeters extrusion width = 0.45mm
; perimeters extrusion width = 0.45mm
; infill extrusion width = 0.45mm
; solid infill extrusion width = 0.45mm
; top infill extrusion width = 0.40mm
; first layer extrusion width = 0.70mm

M107
M190 S60 ; set bed temperature and wait for it to be reached
M104 S210 ; set temperature
G28 ; home all axes
G1 Z5 F5000 ; lift nozzle
; Filament gcode
M109 S210 ; set temperature and wait for it to be reached
G21 ; set units to millimeters
G90 ; use absolute coordinates
M82 ; use absolute distances for extrusion
G92 E0
G1 E-4.00000 F2400.00000
G92 E0
G1 Z0.350 F4800.000
G1 Z0.650
G1 X68.340 Y106.344
G1 Z0.350
G1 E4.00000 F2400.00000
G1 F1800
G1 X71.071 Y105.951 E4.25089
G1 X128.507 Y105.938 E9.47344
G1 X131.050 Y106.213 E9.70606
G1 X132.502 Y106.610 E9.84297
G1 X134.800 Y107.632 E10.07167
G1 X136.873 Y109.152 E10.30532
G1 X137.911 Y110.204 E10.43978
G1 X139.424 Y112.297 E10.67462
G1 X140.444 Y114.641 E10.90706
G1 X140.822 Y116.182 E11.05135
G1 X141.062 Y118.461 E11.25971
G1 X141.046 Y161.989 E15.21765
G1 X140.656 Y164.668 E15.46383
G1 X139.750 Y167.050 E15.69559
G1 X138.981 Y168.399 E15.83681
G1 X137.912 Y169.795 E15.99665
G1 X137.326 Y170.437 E16.07568
G1 X135.344 Y172.020 E16.30633
G1 X133.988 Y172.777 E16.44755
G1 X131.649 Y173.659 E16.67488
G1 X128.929 Y174.049 E16.92475
G1 X71.487 Y174.062 E22.14793
G1 X70.579 Y174.006 E22.23066
G1 X68.491 Y173.695 E22.42261
G1 X67.593 Y173.426 E22.50781
G1 X66.075 Y172.804 E22.65701
G1 X64.639 Y172.008 E22.80622
G1 X63.206 Y170.913 E22.97024
G1 X62.554 Y170.319 E23.05051
G1 X60.977 Y168.341 E23.28048
G1 X60.232 Y167.009 E23.41924
G1 X59.345 Y164.671 E23.64668
G1 X58.956 Y162.027 E23.88959
G1 X58.938 Y118.486 E27.84876
G1 X58.994 Y117.578 E27.93149
G1 X59.302 Y115.509 E28.12172
G1 X59.570 Y114.611 E28.20692
G1 X60.190 Y113.090 E28.35630
G1 X60.984 Y111.654 E28.50550
G1 X62.077 Y110.219 E28.66950
G1 X62.676 Y109.562 E28.75038
G1 X64.652 Y107.983 E28.98032
G1 X66.002 Y107.230 E29.12092
G1 X68.284 Y106.365 E29.34285
G1 X68.499 Y106.948 F4800.000
G1 F1800
G1 X71.123 Y106.574 E29.58384
G1 X128.506 Y106.563 E34.80166
G1 X130.938 Y106.828 E35.02406
G1 X132.285 Y107.196 E35.15106
G1 X134.488 Y108.173 E35.37021
G1 X136.472 Y109.631 E35.59410
G1 X137.426 Y110.598 E35.71757
G1 X138.881 Y112.607 E35.94319
G1 X139.859 Y114.861 E36.16651
G1 X140.208 Y116.300 E36.30123
G1 X140.437 Y118.464 E36.49905
G1 X140.424 Y161.929 E40.45134
G1 X140.051 Y164.511 E40.68850
G1 X139.178 Y166.798 E40.91117
G1 X138.462 Y168.050 E41.04229
G1 X136.863 Y170.016 E41.27270
G1 X134.974 Y171.516 E41.49207
G1 X133.725 Y172.210 E41.62201
G1 X131.491 Y173.054 E41.83915
G1 X128.877 Y173.426 E42.07923
G1 X71.487 Y173.437 E47.29765
G1 X70.650 Y173.385 E47.37393
G1 X68.622 Y173.084 E47.56034
G1 X67.788 Y172.832 E47.63957
G1 X66.309 Y172.224 E47.78494
G1 X64.982 Y171.485 E47.92312
G1 X63.593 Y170.422 E48.08210
G1 X62.975 Y169.855 E48.15838
G1 X61.485 Y167.977 E48.37640
G1 X60.796 Y166.739 E48.50516
G1 X59.947 Y164.505 E48.72251
G1 X59.578 Y161.959 E48.95646
G1 X59.563 Y118.480 E52.90992
G1 X59.913 Y115.640 E53.17013
G1 X60.162 Y114.812 E53.24877
G1 X60.770 Y113.324 E53.39497
G1 X61.508 Y111.996 E53.53315
G1 X62.568 Y110.605 E53.69209
G1 X63.139 Y109.982 E53.76896
G1 X65.016 Y108.491 E53.98695
G1 X66.266 Y107.797 E54.11689
G1 X68.443 Y106.969 E54.32873
G1 X68.654 Y107.553 F4800.000
G1 F1800
G1 X71.174 Y107.197 E54.56021
G1 X128.506 Y107.188 E59.77334
G1 X130.863 Y107.449 E59.98902
G1 X132.157 Y107.817 E60.11126
G1 X134.268 Y108.769 E60.32186
G1 X136.347 Y110.354 E60.55956
G1 X136.907 Y110.950 E60.63401
G1 X137.905 Y112.246 E60.78274
G1 X138.554 Y113.339 E60.89825
G1 X139.414 Y115.523 E61.11174
G1 X139.762 Y117.707 E61.31279
G1 X139.799 Y161.909 E65.33211
G1 X139.443 Y164.367 E65.55792
G1 X138.603 Y166.553 E65.77081
G1 X137.943 Y167.702 E65.89137
G1 X136.405 Y169.589 E66.11269
G1 X134.614 Y171.005 E66.32029
G1 X133.465 Y171.641 E66.43973
G1 X131.338 Y172.449 E66.64665
G1 X128.826 Y172.803 E66.87733
G1 X71.482 Y172.812 E72.09159
G1 X68.753 Y172.473 E72.34158
G1 X67.994 Y172.242 E72.41378
G1 X66.544 Y171.645 E72.55630
G1 X65.328 Y170.965 E72.68303
G1 X63.402 Y169.398 E72.90884
G1 X61.993 Y167.612 E73.11560
G1 X61.365 Y166.480 E73.23335
G1 X60.553 Y164.351 E73.44059
G1 X60.200 Y161.898 E73.66591
G1 X60.188 Y118.481 E77.61375
G1 X60.524 Y115.771 E77.86206
G1 X61.349 Y113.558 E78.07686
G1 X62.026 Y112.346 E78.20303
G1 X63.055 Y110.997 E78.35737
G1 X63.593 Y110.413 E78.42957
G1 X65.376 Y109.002 E78.63629
G1 X66.525 Y108.366 E78.75573
G1 X68.598 Y107.575 E78.95746
G1 E74.95746 F2400.00000
G92 E0
G1 Z0.650 F4800.000
G1 X62.929 Y113.984
G1 Z0.350
G1 E4.00000 F2400.00000
G1 F1800
G1 X63.016 Y113.830 E4.01611
G1 X64.908 Y111.400 E4.29615
G1 X66.653 Y110.115 E4.49318
G1 X68.628 Y109.249 E4.68932
G1 X71.343 Y108.813 E4.93936
G1 X128.690 Y108.816 E10.15386
G1 X130.923 Y109.123 E10.35881
G1 X133.012 Y109.928 E10.56241
G1 X135.226 Y111.528 E10.81078
G1 X135.437 Y111.751 E10.83874
G1 X137.065 Y113.973 E11.08921
G1 X137.833 Y115.911 E11.27870
G1 X138.161 Y117.986 E11.46973
G1 X138.187 Y161.643 E15.43948
G1 X137.882 Y163.902 E15.64674
G1 X137.072 Y166.014 E15.85247
G1 X136.984 Y166.170 E15.86875
G1 X135.091 Y168.602 E16.14895
G1 X133.345 Y169.886 E16.34606
G1 X131.370 Y170.752 E16.54211
G1 X128.657 Y171.187 E16.79198
G1 X71.356 Y171.187 E22.00235
G1 X69.095 Y170.882 E22.20979
G1 X66.984 Y170.071 E22.41536
G1 X66.830 Y169.984 E22.43147
G1 X64.400 Y168.092 E22.71151
G1 X63.115 Y166.347 E22.90854
G1 X62.249 Y164.372 E23.10467
G1 X61.813 Y161.657 E23.35471
G1 X61.813 Y118.356 E27.29209
G1 X62.118 Y116.095 E27.49954
G1 X62.907 Y114.040 E27.69964
G1 X63.503 Y114.231 F4800.000
G1 F1800
G1 X65.315 Y111.875 E27.96993
G1 X66.936 Y110.673 E28.15344
G1 X68.842 Y109.837 E28.34265
G1 X71.367 Y109.438 E28.57513
G1 X128.668 Y109.441 E33.78545
G1 X130.800 Y109.737 E33.98117
G1 X132.747 Y110.495 E34.17119
G1 X134.794 Y111.980 E34.40116
G1 X134.947 Y112.140 E34.42125
G1 X136.499 Y114.241 E34.65883
G1 X137.239 Y116.108 E34.84135
G1 X137.540 Y118.057 E35.02069
G1 X137.562 Y161.623 E38.98215
G1 X137.286 Y163.713 E39.17383
G1 X136.476 Y165.807 E39.37798
G1 X134.683 Y168.126 E39.64450
G1 X133.061 Y169.328 E39.82809
G1 X131.156 Y170.163 E40.01722
G1 X128.633 Y170.562 E40.24953
G1 X71.377 Y170.562 E45.45577
G1 X69.216 Y170.268 E45.65406
G1 X67.193 Y169.476 E45.85160
G1 X64.875 Y167.685 E46.11794
G1 X63.673 Y166.064 E46.30146
G1 X62.837 Y164.158 E46.49067
G1 X62.438 Y161.633 E46.72314
G1 X62.438 Y118.377 E50.65639
G1 X62.732 Y116.216 E50.85467
G1 X63.481 Y114.287 E51.04282
G1 X64.061 Y114.520 F4800.000
G1 F1800
G1 X65.723 Y112.351 E51.29127
G1 X67.279 Y111.197 E51.46745
G1 X69.053 Y110.426 E51.64328
G1 X71.391 Y110.063 E51.85841
G1 X128.647 Y110.066 E57.06469
G1 X130.608 Y110.333 E57.24462
G1 X132.482 Y111.063 E57.42753
G1 X134.366 Y112.436 E57.63953
G1 X134.460 Y112.531 E57.65168
G1 X135.935 Y114.512 E57.87628
G1 X136.627 Y116.239 E58.04537
G1 X136.918 Y118.129 E58.21925
G1 X136.937 Y161.602 E62.17230
G1 X136.671 Y163.593 E62.35488
G1 X135.939 Y165.480 E62.53900
G1 X134.275 Y167.650 E62.78761
G1 X132.718 Y168.805 E62.96387
G1 X130.945 Y169.574 E63.13962
G1 X128.609 Y169.937 E63.35459
G1 X71.397 Y169.937 E68.55684
G1 X69.407 Y169.671 E68.73938
G1 X67.520 Y168.939 E68.92350
G1 X65.351 Y167.277 E69.17194
G1 X64.197 Y165.721 E69.34813
G1 X63.426 Y163.947 E69.52396
G1 X63.063 Y161.609 E69.73908
G1 X63.063 Y118.397 E73.66833
G1 X63.329 Y116.407 E73.85087
G1 X64.040 Y114.576 E74.02953
G1 X64.626 Y114.790 F4800.000
G1 F1800
G1 X66.132 Y112.825 E74.25461
G1 X67.562 Y111.755 E74.41701
G1 X69.265 Y111.016 E74.58575
G1 X71.414 Y110.688 E74.78347
G1 X128.626 Y110.691 E79.98568
G1 X130.485 Y110.946 E80.15633
G1 X132.215 Y111.629 E80.32542
G1 X133.976 Y112.928 E80.52445
G1 X135.371 Y114.784 E80.73552
G1 X136.033 Y116.437 E80.89745
G1 X136.297 Y118.198 E81.05935
G1 X136.312 Y161.581 E85.00421
G1 X136.057 Y163.471 E85.17759
G1 X135.374 Y165.210 E85.34754
G1 X133.866 Y167.176 E85.57276
G1 X132.435 Y168.246 E85.73524
G1 X130.734 Y168.985 E85.90391
G1 X128.586 Y169.312 E86.10149
G1 X71.418 Y169.312 E91.29970
G1 X69.529 Y169.057 E91.47306
G1 X67.790 Y168.374 E91.64299
G1 X65.825 Y166.868 E91.86807
G1 X64.755 Y165.438 E92.03047
G1 X64.016 Y163.735 E92.19922
G1 X63.688 Y161.586 E92.39693
G1 X63.688 Y118.418 E96.32214
G1 X63.943 Y116.529 E96.49551
G1 X64.604 Y114.845 E96.65999
G1 X65.192 Y115.059 F4800.000
G1 F1800
G1 X66.541 Y113.300 E96.86157
G1 X67.906 Y112.278 E97.01663
G1 X69.473 Y111.606 E97.17161
G1 X71.437 Y111.313 E97.35218
G1 X128.604 Y111.316 E102.55034
G1 X130.360 Y111.560 E102.71160
G1 X131.944 Y112.193 E102.86669
G1 X133.519 Y113.360 E103.04493
G1 X134.806 Y115.056 E103.23853
G1 X135.439 Y116.634 E103.39314
G1 X135.675 Y118.264 E103.54293
G1 X135.687 Y161.562 E107.47993
G1 X135.462 Y163.278 E107.63738
G1 X134.808 Y164.941 E107.79983
G1 X133.458 Y166.701 E108.00155
G1 X132.092 Y167.723 E108.15668
G1 X130.526 Y168.394 E108.31158
G1 X128.563 Y168.687 E108.49202
G1 X71.438 Y168.687 E113.68636
G1 X69.722 Y168.462 E113.84380
G1 X68.059 Y167.808 E114.00624
G1 X66.300 Y166.459 E114.20783
G1 X65.278 Y165.094 E114.36289
G1 X64.606 Y163.527 E114.51786
G1 X64.313 Y161.563 E114.69843
G1 X64.313 Y118.438 E118.61977
G1 X64.538 Y116.722 E118.77722
G1 X65.170 Y115.115 E118.93420
G1 X65.756 Y115.331 F4800.000
G1 F1800
G1 X66.950 Y113.774 E119.11258
G1 X68.250 Y112.802 E119.26022
G1 X69.678 Y112.198 E119.40122
G1 X71.459 Y111.938 E119.56487
G1 X128.583 Y111.940 E124.75916
G1 X130.164 Y112.155 E124.90425
G1 X131.673 Y112.758 E125.05199
G1 X133.109 Y113.833 E125.21512
G1 X134.243 Y115.330 E125.38587
G1 X134.826 Y116.762 E125.52648
G1 X135.054 Y118.332 E125.67070
G1 X135.062 Y161.541 E129.59968
G1 X134.847 Y163.157 E129.74790
G1 X134.244 Y164.669 E129.89595
G1 X133.047 Y166.229 E130.07475
G1 X131.810 Y167.164 E130.21576
G1 X130.318 Y167.803 E130.36339
G1 X128.541 Y168.062 E130.52663
G1 X71.459 Y168.062 E135.71706
G1 X69.843 Y167.847 E135.86529
G1 X68.331 Y167.244 E136.01333
G1 X66.774 Y166.050 E136.19171
G1 X65.802 Y164.750 E136.33935
G1 X65.198 Y163.322 E136.48036
G1 X64.938 Y161.541 E136.64401
G1 X64.938 Y118.459 E140.56143
G1 X65.153 Y116.843 E140.70966
G1 X65.734 Y115.387 E140.85224
G1 X66.319 Y115.606 F4800.000
G1 F1800
G1 X67.361 Y114.246 E141.00799
G1 X68.530 Y113.362 E141.14128
G1 X69.883 Y112.789 E141.27493
G1 X71.480 Y112.563 E141.42159
G1 X128.562 Y112.565 E146.61196
G1 X130.040 Y112.768 E146.74762
G1 X131.398 Y113.321 E146.88097
G1 X132.697 Y114.304 E147.02914
G1 X133.680 Y115.603 E147.17722
G1 X134.232 Y116.961 E147.31050
G1 X134.432 Y118.396 E147.44224
G1 X134.437 Y161.520 E151.36349
G1 X134.234 Y163.033 E151.50235
G1 X133.681 Y164.394 E151.63591
G1 X132.637 Y165.756 E151.79196
G1 X131.465 Y166.642 E151.92554
G1 X130.113 Y167.212 E152.05890
G1 X128.520 Y167.437 E152.20526
G1 X71.480 Y167.437 E157.39182
G1 X69.967 Y167.234 E157.53069
G1 X68.606 Y166.681 E157.66426
G1 X67.246 Y165.639 E157.82000
G1 X66.362 Y164.470 E157.95329
G1 X65.789 Y163.117 E158.08694
G1 X65.563 Y161.520 E158.23360
G1 X65.563 Y118.480 E162.14715
G1 X65.766 Y116.967 E162.28602
G1 X66.296 Y115.661 E162.41413
G1 X66.882 Y115.880 F4800.000
G1 F1800
G1 X67.774 Y114.716 E162.54744
G1 X68.811 Y113.921 E162.66621
G1 X70.088 Y113.381 E162.79233
G1 X71.501 Y113.188 E162.92199
G1 X128.540 Y113.190 E168.10850
G1 X129.913 Y113.381 E168.23456
G1 X131.119 Y113.881 E168.35332
G1 X132.283 Y114.774 E168.48663
G1 X133.118 Y115.880 E168.61268
G1 X133.619 Y117.087 E168.73155
G1 X133.810 Y118.460 E168.85761
G1 X133.812 Y161.500 E172.77121
G1 X133.639 Y162.836 E172.89369
G1 X133.118 Y164.120 E173.01971
G1 X132.226 Y165.283 E173.15293
G1 X131.120 Y166.118 E173.27897
G1 X129.913 Y166.619 E173.39781
G1 X128.499 Y166.812 E173.52758
G1 X71.500 Y166.812 E178.71051
G1 X70.164 Y166.639 E178.83299
G1 X68.880 Y166.118 E178.95901
G1 X67.717 Y165.226 E179.09232
G1 X66.921 Y164.189 E179.21109
G1 X66.381 Y162.912 E179.33721
G1 X66.188 Y161.499 E179.46687
G1 X66.188 Y118.500 E183.37679
G1 X66.361 Y117.164 E183.49928
G1 X66.859 Y115.935 E183.61984
G1 E179.61984 F2400.00000
G92 E0
G1 Z0.650 F4800.000
G1 X130.823 Y165.524
G1 Z0.350
G1 E4.00000 F2400.00000
G1 F1800
G1 X129.713 Y165.984 E4.10925
G1 X128.477 Y166.150 E4.22272
G1 X71.523 Y166.150 E9.40150
G1 X70.297 Y165.989 E9.51391
G1 X69.177 Y165.524 E9.62421
G1 X68.214 Y164.786 E9.73452
G1 X67.476 Y163.823 E9.84483
G1 X67.011 Y162.703 E9.95514
G1 X66.850 Y161.477 E10.06755
G1 X66.850 Y118.523 E13.97335
G1 X67.011 Y117.297 E14.08576
G1 X67.471 Y116.187 E14.19501
G1 X68.214 Y115.214 E14.30637
G1 X69.177 Y114.476 E14.41664
G1 X70.287 Y114.016 E14.52590
G1 X71.523 Y113.850 E14.63936
G1 X128.489 Y113.852 E19.81922
G1 X129.703 Y114.011 E19.93054
G1 X130.823 Y114.476 E20.04085
G1 X131.786 Y115.214 E20.15116
G1 X132.524 Y116.177 E20.26146
G1 X132.989 Y117.297 E20.37177
G1 X133.150 Y118.523 E20.48418
G1 X133.150 Y161.477 E24.38998
G1 X132.989 Y162.703 E24.50239
G1 X132.524 Y163.823 E24.61270
G1 X131.786 Y164.786 E24.72301
G1 X130.871 Y165.488 E24.82786
G1 X130.477 Y165.324 F4800.000
G1 X130.508 Y164.979
G1 F1800
G1 X129.550 Y165.376 E24.92222
G1 X128.435 Y165.525 E25.02448
G1 X71.564 Y165.525 E30.19574
G1 X70.460 Y165.380 E30.29695
G1 X69.492 Y164.979 E30.39229
G1 X68.660 Y164.340 E30.48764
G1 X68.021 Y163.508 E30.58299
G1 X67.620 Y162.540 E30.67833
G1 X67.475 Y161.436 E30.77954
G1 X67.475 Y118.564 E34.67789
G1 X67.620 Y117.460 E34.77910
G1 X68.017 Y116.502 E34.87345
G1 X68.661 Y115.659 E34.96986
G1 X69.492 Y115.021 E35.06510
G1 X70.450 Y114.624 E35.15946
G1 X71.565 Y114.475 E35.26172
G1 X128.448 Y114.476 E40.43406
G1 X129.540 Y114.620 E40.53418
G1 X130.508 Y115.021 E40.62952
G1 X131.340 Y115.660 E40.72487
G1 X131.979 Y116.492 E40.82021
G1 X132.380 Y117.460 E40.91556
G1 X132.525 Y118.564 E41.01677
G1 X132.525 Y161.436 E44.91512
G1 X132.380 Y162.540 E45.01633
G1 X131.979 Y163.508 E45.11167
G1 X131.340 Y164.340 E45.20702
G1 X130.556 Y164.942 E45.29691
G1 X130.193 Y164.433 F4800.000
G1 F1800
G1 X129.386 Y164.767 E45.37637
G1 X128.393 Y164.900 E45.46743
G1 X71.605 Y164.900 E50.63118
G1 X70.624 Y164.771 E50.72118
G1 X69.807 Y164.433 E50.80156
G1 X69.105 Y163.895 E50.88195
G1 X68.567 Y163.193 E50.96233
G1 X68.229 Y162.376 E51.04272
G1 X68.100 Y161.395 E51.13272
G1 X68.100 Y118.605 E55.02362
G1 X68.229 Y117.624 E55.11362
G1 X68.563 Y116.816 E55.19309
G1 X69.107 Y116.104 E55.27453
G1 X69.807 Y115.567 E55.35474
G1 X70.614 Y115.233 E55.43421
G1 X71.607 Y115.100 E55.52527
G1 X128.407 Y115.101 E60.69009
G1 X129.376 Y115.229 E60.77900
G1 X130.193 Y115.567 E60.85939
G1 X130.895 Y116.105 E60.93977
G1 X131.433 Y116.807 E61.02016
G1 X131.771 Y117.624 E61.10054
G1 X131.900 Y118.605 E61.19054
G1 X131.900 Y161.395 E65.08145
G1 X131.771 Y162.376 E65.17145
G1 X131.433 Y163.193 E65.25183
G1 X130.895 Y163.895 E65.33222
G1 X130.241 Y164.396 E65.40715
G1 E61.40715 F2400.00000
G92 E0
G1 Z0.650 F4800.000
G1 X131.692 Y118.456
G1 Z0.350
G1 E4.00000 F2400.00000
G1 F1800
G1 X128.870 Y115.635 E4.36424
G1 X128.376 Y115.570 E4.40973
G1 X127.918 Y115.570 E4.45157
G1 X131.432 Y119.083 E4.90519
G1 X131.432 Y119.971 E4.98619
G1 X127.031 Y115.570 E5.55436
G1 X126.144 Y115.570 E5.63536
G1 X131.432 Y120.858 E6.31809
G1 X131.432 Y121.745 E6.39909
G1 X125.256 Y115.570 E7.19637
G1 X124.369 Y115.570 E7.27738
G1 X131.432 Y122.633 E8.18921
G1 X131.432 Y123.520 E8.27021
G1 X123.482 Y115.570 E9.29661
G1 X122.594 Y115.570 E9.37761
G1 X131.432 Y124.407 E10.51856
G1 X131.432 Y125.294 E10.59956
G1 X121.707 Y115.570 E11.85506
G1 X120.820 Y115.570 E11.93606
G1 X131.432 Y126.182 E13.30611
G1 X131.432 Y127.069 E13.38711
G1 X119.933 Y115.570 E14.87172
G1 X119.045 Y115.570 E14.95273
G1 X131.432 Y127.956 E16.55189
G1 X131.432 Y128.843 E16.63289
G1 X118.158 Y115.570 E18.34661
G1 X117.271 Y115.570 E18.42761
G1 X131.432 Y129.731 E20.25589
G1 X131.432 Y130.618 E20.33689
G1 X116.383 Y115.570 E22.27971
G1 X115.496 Y115.570 E22.36072
