; generated by Slic3r Prusa Edition 1.40.1+win64 on 2018-10-06 at 17:24:32

; 

; external perimeters extrusion width = 0.45mm
; perimeters extrusion width = 0.45mm
; infill extrusion width = 0.45mm
; solid infill extrusion width = 0.45mm
; top infill extrusion width = 0.40mm
; first layer extrusion width = 0.70mm

M107
M190 S60 ; set bed temperature and wait for it to be reached
M104 S210 ; set temperature
G28 ; home all axes
G1 Z5 F5000 ; lift nozzle
; Filament gcode
M109 S210 ; set temperature and wait for it to be reached
G21 ; set units to millimeters
G90 ; use absolute coordinates
M82 ; use absolute distances for extrusion
G92 E0
G1 E-4.00000 F2400.00000
G92 E0
G1 Z0.350 F4800.000
G1 Z0.650
G1 X120.611 Y87.714
G1 Z0.350
G1 E4.00000 F2400.00000
G1 F1800
G1 X121.899 Y87.044 E4.13200
G1 X123.291 Y86.632 E4.26399
G1 X124.736 Y86.494 E4.39599
G1 X126.120 Y86.622 E4.52245
G1 X127.458 Y87.003 E4.64892
G1 X128.681 Y87.607 E4.77292
G1 X129.855 Y88.472 E4.90553
G1 X151.646 Y110.266 E7.70793
G1 X152.314 Y111.157 E7.80915
G1 X152.844 Y112.136 E7.91037
G1 X153.225 Y113.182 E8.01160
G1 X153.447 Y114.272 E8.11282
G1 X153.507 Y115.384 E8.21404
G1 X153.404 Y116.492 E8.31526
G1 X153.139 Y117.573 E8.41648
G1 X152.718 Y118.604 E8.51770
G1 X151.958 Y119.825 E8.64847
G1 X150.830 Y121.077 E8.80169
G1 X80.363 Y191.534 E17.86272
G1 X79.467 Y192.240 E17.96641
G1 X78.481 Y192.799 E18.06947
G1 X77.423 Y193.205 E18.17254
G1 X76.309 Y193.449 E18.27623
G1 X75.178 Y193.523 E18.37930
G1 X74.042 Y193.426 E18.48298
G1 X72.939 Y193.162 E18.58605
G1 X71.883 Y192.732 E18.68974
G1 X70.870 Y192.126 E18.79712
G1 X69.959 Y191.364 E18.90512
G1 X48.851 Y170.257 E21.61936
G1 X48.194 Y169.520 E21.70914
G1 X47.561 Y168.604 E21.81037
G1 X47.081 Y167.653 E21.90728
G1 X46.736 Y166.630 E22.00542
G1 X46.540 Y165.569 E22.10356
G1 X46.497 Y164.490 E22.20170
G1 X46.608 Y163.417 E22.29984
G1 X46.871 Y162.370 E22.39798
G1 X47.284 Y161.365 E22.49674
G1 X47.906 Y160.330 E22.60658
G1 X48.690 Y159.402 E22.71704
G1 X119.475 Y88.618 E31.81950
G1 X120.564 Y87.751 E31.94605
G1 X120.945 Y88.242 F4800.000
G1 F1800
G1 X122.126 Y87.626 E32.06715
G1 X123.403 Y87.247 E32.18826
G1 X124.735 Y87.118 E32.30996
G1 X126.009 Y87.237 E32.42636
G1 X127.246 Y87.591 E32.54334
G1 X128.375 Y88.153 E32.65797
G1 X129.465 Y88.962 E32.78139
G1 X151.159 Y110.658 E35.57129
G1 X151.774 Y111.472 E35.66410
G1 X152.266 Y112.374 E35.75750
G1 X152.620 Y113.339 E35.85090
G1 X152.827 Y114.345 E35.94430
G1 X152.883 Y115.371 E36.03771
G1 X152.787 Y116.393 E36.13111
G1 X152.541 Y117.391 E36.22451
G1 X152.151 Y118.341 E36.31791
G1 X151.447 Y119.464 E36.43843
G1 X150.386 Y120.638 E36.58234
G1 X79.955 Y191.061 E45.63882
G1 X79.134 Y191.710 E45.73399
G1 X78.225 Y192.229 E45.82916
G1 X77.248 Y192.605 E45.92433
G1 X76.226 Y192.830 E46.01950
G1 X75.181 Y192.899 E46.11467
G1 X74.139 Y192.809 E46.20984
G1 X73.121 Y192.564 E46.30501
G1 X72.146 Y192.165 E46.40078
G1 X71.222 Y191.609 E46.49890
G1 X70.390 Y190.911 E46.59761
G1 X48.713 Y169.170 E49.38927
G1 X48.118 Y168.318 E49.48375
G1 X47.671 Y167.444 E49.57302
G1 X47.349 Y166.503 E49.66347
G1 X47.163 Y165.519 E49.75451
G1 X47.122 Y164.519 E49.84555
G1 X47.224 Y163.523 E49.93659
G1 X47.469 Y162.552 E50.02763
G1 X47.851 Y161.627 E50.11867
G1 X48.419 Y160.686 E50.21856
G1 X49.133 Y159.842 E50.31904
G1 X119.904 Y89.073 E59.41967
G1 X120.898 Y88.280 E59.53532
G1 X121.282 Y88.768 F4800.000
G1 F1800
G1 X122.364 Y88.203 E59.64634
G1 X123.529 Y87.859 E59.75679
G1 X124.738 Y87.743 E59.86724
G1 X125.905 Y87.853 E59.97376
G1 X127.036 Y88.180 E60.08085
G1 X128.066 Y88.697 E60.18568
G1 X129.069 Y89.446 E60.29947
G1 X150.674 Y111.053 E63.07785
G1 X151.241 Y111.798 E63.16300
G1 X151.691 Y112.619 E63.24815
G1 X152.015 Y113.498 E63.33330
G1 X152.206 Y114.421 E63.41901
G1 X152.258 Y115.356 E63.50415
G1 X152.170 Y116.294 E63.58986
G1 X151.945 Y117.203 E63.67501
G1 X151.585 Y118.074 E63.76072
G1 X150.937 Y119.102 E63.87117
G1 X149.941 Y120.199 E64.00592
G1 X79.549 Y190.585 E73.05748
G1 X78.803 Y191.180 E73.14431
G1 X77.969 Y191.659 E73.23171
G1 X77.079 Y192.004 E73.31855
G1 X76.140 Y192.211 E73.40595
G1 X75.187 Y192.274 E73.49278
G1 X74.230 Y192.191 E73.58018
G1 X73.301 Y191.965 E73.66702
G1 X72.413 Y191.600 E73.75442
G1 X71.579 Y191.096 E73.84294
G1 X70.829 Y190.466 E73.93203
G1 X49.233 Y168.820 E76.71240
G1 X48.676 Y168.033 E76.80005
G1 X48.261 Y167.235 E76.88182
G1 X47.961 Y166.374 E76.96471
G1 X47.787 Y165.473 E77.04817
G1 X47.746 Y164.556 E77.13163
G1 X47.839 Y163.637 E77.21565
G1 X48.063 Y162.747 E77.29911
G1 X48.417 Y161.893 E77.38313
G1 X48.931 Y161.045 E77.47334
G1 X49.576 Y160.283 E77.56412
G1 X120.333 Y89.527 E86.66297
G1 X121.235 Y88.806 E86.76797
G1 E82.76797 F2400.00000
G92 E0
G1 Z0.650 F4800.000
G1 X123.512 Y89.487
G1 Z0.350
G1 E4.00000 F2400.00000
G1 F1800
G1 X125.190 Y89.349 E4.15310
G1 X125.713 Y89.424 E4.20107
G1 X126.266 Y89.577 E4.25327
G1 X126.797 Y89.804 E4.30576
G1 X128.051 Y90.714 E4.44669
G1 X149.677 Y112.338 E7.22750
G1 X150.224 Y113.160 E7.31727
G1 X150.478 Y113.790 E7.37909
G1 X150.631 Y114.506 E7.44567
G1 X150.606 Y116.194 E7.59912
G1 X150.451 Y116.794 E7.65550
G1 X150.221 Y117.349 E7.71015
G1 X149.677 Y118.164 E7.79922
G1 X78.164 Y189.677 E16.99535
G1 X77.342 Y190.224 E17.08511
G1 X76.712 Y190.478 E17.14692
G1 X75.996 Y190.631 E17.21349
G1 X74.308 Y190.606 E17.36694
G1 X73.708 Y190.451 E17.42332
G1 X73.153 Y190.221 E17.47798
G1 X72.338 Y189.677 E17.56706
G1 X50.830 Y168.168 E20.33294
G1 X50.485 Y167.782 E20.38004
G1 X49.780 Y166.749 E20.49370
G1 X49.557 Y166.202 E20.54741
G1 X49.368 Y165.383 E20.62386
G1 X49.345 Y164.825 E20.67465
G1 X49.447 Y163.722 E20.77535
G1 X49.616 Y163.089 E20.83496
G1 X49.881 Y162.497 E20.89393
G1 X50.385 Y161.773 E20.97412
G1 X121.773 Y90.385 E30.15423
G1 X122.492 Y89.883 E30.23395
G1 X122.979 Y89.657 E30.28280
G1 X123.455 Y89.505 E30.32820
G1 X123.666 Y90.093 F4800.000
G1 F1800
G1 X125.136 Y89.972 E30.46235
G1 X125.603 Y90.039 E30.50519
G1 X126.075 Y90.172 E30.54983
G1 X126.516 Y90.363 E30.59350
G1 X127.626 Y91.173 E30.71844
G1 X149.213 Y112.758 E33.49429
G1 X149.657 Y113.423 E33.56695
G1 X149.888 Y113.997 E33.62320
G1 X150.012 Y114.598 E33.67908
G1 X149.991 Y116.077 E33.81349
G1 X149.865 Y116.576 E33.86037
G1 X149.655 Y117.082 E33.91012
G1 X149.213 Y117.744 E33.98249
G1 X77.744 Y189.213 E43.17304
G1 X77.079 Y189.656 E43.24568
G1 X76.505 Y189.888 E43.30193
G1 X75.904 Y190.012 E43.35779
G1 X74.426 Y189.991 E43.49220
G1 X73.926 Y189.865 E43.53909
G1 X73.420 Y189.655 E43.58884
G1 X72.758 Y189.213 E43.66122
G1 X51.278 Y167.732 E46.42350
G1 X50.964 Y167.380 E46.46645
G1 X50.344 Y166.478 E46.56593
G1 X50.159 Y166.032 E46.60989
G1 X49.991 Y165.323 E46.67608
G1 X49.969 Y164.860 E46.71825
G1 X50.066 Y163.808 E46.81434
G1 X50.211 Y163.280 E46.86413
G1 X50.437 Y162.782 E46.91384
G1 X50.846 Y162.196 E46.97884
G1 X122.196 Y90.846 E56.15395
G1 X122.780 Y90.438 E56.21873
G1 X123.223 Y90.233 E56.26318
G1 X123.609 Y90.111 E56.29991
G1 X123.817 Y90.701 F4800.000
G1 F1800
G1 X125.086 Y90.596 E56.41567
G1 X125.455 Y90.647 E56.44956
G1 X125.884 Y90.768 E56.49012
G1 X126.232 Y90.921 E56.52469
G1 X127.201 Y91.631 E56.63391
G1 X148.750 Y113.178 E59.40485
G1 X149.089 Y113.686 E59.46040
G1 X149.297 Y114.202 E59.51094
G1 X149.393 Y114.687 E59.55589
G1 X149.376 Y115.963 E59.67191
G1 X149.278 Y116.360 E59.70911
G1 X149.090 Y116.814 E59.75384
G1 X148.750 Y117.323 E59.80952
G1 X77.323 Y188.750 E68.99449
G1 X76.816 Y189.089 E69.05003
G1 X76.300 Y189.297 E69.10055
G1 X75.815 Y189.393 E69.14550
G1 X74.539 Y189.376 E69.26152
G1 X74.142 Y189.278 E69.29873
G1 X73.688 Y189.090 E69.34346
G1 X73.178 Y188.750 E69.39914
G1 X51.727 Y167.297 E72.15780
G1 X51.442 Y166.978 E72.19662
G1 X50.906 Y166.203 E72.28230
G1 X50.759 Y165.856 E72.31656
G1 X50.613 Y165.260 E72.37243
G1 X50.594 Y164.891 E72.40595
G1 X50.677 Y163.941 E72.49273
G1 X50.791 Y163.513 E72.53294
G1 X50.994 Y163.067 E72.57757
G1 X51.307 Y162.618 E72.62730
G1 X122.618 Y91.307 E81.79743
G1 X123.067 Y90.994 E81.84727
G1 X123.466 Y90.809 E81.88722
G1 X123.759 Y90.718 E81.91513
G1 X123.964 Y91.309 F4800.000
G1 F1800
G1 X125.039 Y91.220 E82.01320
G1 X125.308 Y91.255 E82.03792
G1 X125.692 Y91.363 E82.07411
G1 X125.945 Y91.476 E82.09933
G1 X126.775 Y92.089 E82.19318
G1 X148.286 Y113.599 E84.95925
G1 X148.524 Y113.955 E84.99824
G1 X148.690 Y114.355 E85.03760
G1 X148.773 Y114.776 E85.07667
G1 X148.760 Y115.853 E85.17457
G1 X148.691 Y116.145 E85.20185
G1 X148.524 Y116.547 E85.24140
G1 X148.286 Y116.903 E85.28038
G1 X76.903 Y188.286 E94.45978
G1 X76.547 Y188.524 E94.49876
G1 X76.147 Y188.690 E94.53811
G1 X75.726 Y188.773 E94.57717
G1 X74.649 Y188.760 E94.67507
G1 X74.357 Y188.691 E94.70236
G1 X73.955 Y188.524 E94.74191
G1 X73.599 Y188.286 E94.78090
G1 X52.175 Y166.861 E97.53592
G1 X51.921 Y166.576 E97.57065
G1 X51.465 Y165.924 E97.64300
G1 X51.358 Y165.676 E97.66761
G1 X51.234 Y165.190 E97.71313
G1 X51.218 Y164.922 E97.73757
G1 X51.297 Y164.026 E97.81938
G1 X51.385 Y163.708 E97.84937
G1 X51.549 Y163.355 E97.88472
G1 X51.769 Y163.041 E97.91961
G1 X123.041 Y91.769 E107.08474
G1 X123.355 Y91.549 E107.11964
G1 X123.708 Y91.386 E107.15497
G1 X123.907 Y91.326 E107.17384
G1 X125.497 Y91.957 F4800.000
G1 F1800
G1 X125.651 Y92.029 E107.18934
G1 X126.349 Y92.547 E107.26837
G1 X147.822 Y114.019 E110.02961
G1 X147.959 Y114.223 E110.05191
G1 X148.101 Y114.566 E110.08570
G1 X148.149 Y114.805 E110.10790
G1 X148.143 Y115.752 E110.19396
G1 X148.102 Y115.932 E110.21079
G1 X147.959 Y116.279 E110.24492
G1 X147.822 Y116.483 E110.26721
G1 X76.483 Y187.822 E119.44102
G1 X76.279 Y187.959 E119.46331
G1 X75.936 Y188.101 E119.49709
G1 X75.696 Y188.148 E119.51930
G1 X74.750 Y188.143 E119.60536
G1 X74.569 Y188.102 E119.62219
G1 X74.223 Y187.959 E119.65632
G1 X74.019 Y187.822 E119.67862
G1 X52.624 Y166.426 E122.42997
G1 X52.400 Y166.174 E122.46063
G1 X52.021 Y165.637 E122.52033
G1 X51.954 Y165.488 E122.53528
G1 X51.855 Y165.113 E122.57048
G1 X51.843 Y164.947 E122.58564
G1 X51.909 Y164.156 E122.65781
G1 X51.965 Y163.944 E122.67775
G1 X52.104 Y163.643 E122.70793
G1 X52.230 Y163.463 E122.72787
G1 X123.463 Y92.230 E131.88801
G1 X123.643 Y92.104 E131.90796
G1 X123.947 Y91.963 E131.93845
G1 X124.105 Y91.918 E131.95342
G1 X124.998 Y91.844 E132.03489
G1 X125.164 Y91.864 E132.05011
G1 X125.439 Y91.941 E132.07603
G1 X125.297 Y92.550 F4800.000
G1 F1800
G1 X125.923 Y93.005 E132.14638
G1 X147.359 Y114.439 E134.90282
G1 X147.524 Y114.837 E134.94200
G1 X147.524 Y115.665 E135.01728
G1 X147.393 Y116.012 E135.05098
G1 X76.063 Y187.359 E144.22470
G1 X75.665 Y187.524 E144.26387
G1 X74.837 Y187.524 E144.33915
G1 X74.490 Y187.393 E144.37286
G1 X53.083 Y166.002 E147.12465
G1 X52.897 Y165.795 E147.14997
G1 X52.571 Y165.340 E147.20087
G1 X52.474 Y165.023 E147.23103
G1 X52.529 Y164.235 E147.30283
G1 X52.660 Y163.931 E147.33294
G1 X123.885 Y92.691 E156.49301
G1 X124.235 Y92.529 E156.52804
G1 X124.970 Y92.468 E156.59508
G1 X125.239 Y92.534 E156.62027
G1 X124.369 Y93.145 F4800.000
G1 F1800
G1 X124.937 Y93.098 E156.67209
G1 X125.045 Y93.128 E156.68226
G1 X125.498 Y93.463 E156.73348
G1 X146.851 Y114.815 E159.47930
G1 X146.899 Y114.930 E159.49060
G1 X146.899 Y115.572 E159.54898
G1 X146.851 Y115.687 E159.56028
G1 X75.687 Y186.851 E168.71161
G1 X75.572 Y186.899 E168.72291
G1 X74.930 Y186.899 E168.78128
G1 X74.815 Y186.851 E168.79258
G1 X53.539 Y165.576 E171.52851
G1 X53.394 Y165.416 E171.54819
G1 X53.128 Y165.044 E171.58977
G1 X53.098 Y164.937 E171.59987
G1 X53.145 Y164.369 E171.65162
G1 X53.192 Y164.269 E171.66171
G1 X124.269 Y93.192 E180.80176
G1 X124.315 Y93.170 E180.80639
G1 X124.817 Y93.735 F4800.000
G1 F1800
G1 X125.074 Y93.923 E180.83534
G1 X146.274 Y115.122 E183.56146
G1 X146.274 Y115.380 E183.58499
G1 X75.380 Y186.274 E192.70149
G1 X75.121 Y186.274 E192.72502
G1 X53.984 Y165.137 E195.44312
G1 X53.735 Y164.818 E195.47991
G1 X53.754 Y164.590 E195.50072
G1 X124.590 Y93.754 E204.60986
G1 X124.757 Y93.740 E204.62505
G1 E200.62505 F2400.00000
G92 E0
G1 Z0.650 F4800.000
G1 X145.467 Y115.251
G1 Z0.350
G1 E4.00000 F2400.00000
G1 F1800
G1 X75.251 Y185.467 E13.02931
G1 X54.533 Y164.748 E15.69354
G1 X124.747 Y94.534 E24.72272
G1 X145.424 Y115.208 E27.38150
G1 X145.158 Y115.505 F4800.000
G1 X144.583 Y115.251
G1 F1800
G1 X75.251 Y184.583 E36.29716
G1 X55.416 Y164.748 E38.84775
G1 X124.747 Y95.417 E47.76329
G1 X144.540 Y115.208 E50.30843
G1 X143.699 Y115.251 F4800.000
G1 F1800
G1 X75.251 Y183.699 E59.11044
G1 X67.076 Y175.524 E60.16168
G1 X67.224 Y175.274 E60.18813
G1 X67.615 Y175.387 E60.22511
G1 X68.520 Y175.416 E60.30745
G1 X69.404 Y175.218 E60.38979
G1 X70.210 Y174.807 E60.47213
G1 X70.890 Y174.208 E60.55447
G1 X71.399 Y173.459 E60.63681
G1 X71.705 Y172.607 E60.71915
G1 X71.791 Y171.706 E60.80149
G1 X71.649 Y170.812 E60.88383
G1 X71.313 Y170.036 E60.96070
G1 X70.747 Y169.275 E61.04692
G1 X70.019 Y168.710 E61.13074
G1 X69.188 Y168.350 E61.21308
G1 X68.293 Y168.209 E61.29542
G1 X67.452 Y168.288 E61.37229
G1 X66.553 Y168.592 E61.45851
G1 X65.791 Y169.110 E61.54233
G1 X65.192 Y169.789 E61.62467
G1 X64.781 Y170.596 E61.70701
G1 X64.583 Y171.479 E61.78935
G1 X64.612 Y172.385 E61.87169
G1 X64.725 Y172.775 E61.90868
G1 X64.475 Y172.923 E61.93512
G1 X56.300 Y164.748 E62.98636
G1 X70.642 Y150.407 E64.83059
G1 X70.897 Y150.578 E64.85857
G1 X70.795 Y150.826 E64.88303
G1 X70.637 Y152.020 E64.99255
G1 X70.795 Y153.215 E65.10206
G1 X71.255 Y154.327 E65.21158
G1 X71.924 Y155.199 E65.31148
G1 X80.889 Y164.164 E66.46432
G1 X81.761 Y164.833 E66.56422
G1 X82.874 Y165.294 E66.67374
G1 X84.068 Y165.451 E66.78325
G1 X85.262 Y165.294 E66.89276
G1 X86.374 Y164.833 E67.00228
G1 X87.246 Y164.164 E67.10218
G1 X124.164 Y127.246 E71.84958
G1 X124.833 Y126.374 E71.94948
G1 X125.294 Y125.262 E72.05900
G1 X125.451 Y124.068 E72.16851
G1 X125.294 Y122.874 E72.27802
G1 X124.833 Y121.761 E72.38754
G1 X124.164 Y120.889 E72.48744
G1 X115.199 Y111.924 E73.64028
G1 X114.327 Y111.255 E73.74018
G1 X113.204 Y110.790 E73.85075
G1 X111.964 Y110.645 E73.96429
G1 X110.826 Y110.795 E74.06859
G1 X110.578 Y110.897 E74.09306
G1 X110.407 Y110.642 E74.12104
G1 X124.747 Y96.301 E75.96514
G1 X132.908 Y104.461 E77.01454
G1 X132.785 Y104.704 E77.03931
G1 X131.933 Y104.569 E77.11773
G1 X131.091 Y104.649 E77.19460
G1 X130.193 Y104.952 E77.28082
G1 X129.430 Y105.470 E77.36464
G1 X128.832 Y106.149 E77.44698
G1 X128.421 Y106.956 E77.52932
G1 X128.223 Y107.840 E77.61166
G1 X128.251 Y108.745 E77.69400
G1 X128.504 Y109.615 E77.77634
G1 X128.965 Y110.394 E77.85868
G1 X129.605 Y111.034 E77.94102
G1 X130.385 Y111.495 E78.02336
G1 X131.254 Y111.748 E78.10570
G1 X132.159 Y111.776 E78.18804
G1 X133.043 Y111.579 E78.27038
G1 X133.850 Y111.168 E78.35272
G1 X134.529 Y110.569 E78.43506
G1 X135.038 Y109.820 E78.51740
G1 X135.325 Y109.024 E78.59426
G1 X135.433 Y108.082 E78.68048
G1 X135.295 Y107.214 E78.76041
G1 X135.538 Y107.091 E78.78518
G1 X143.657 Y115.209 E79.82916
G1 E75.82916 F2400.00000
G92 E0
G1 Z0.650 F4800.000
G1 X133.916 Y109.248
G1 Z0.350
G1 E4.00000 F2400.00000
G1 F1800
G1 X133.584 Y109.736 E4.05363
G1 X133.142 Y110.126 E4.10725
G1 X132.616 Y110.394 E4.16088
G1 X132.041 Y110.522 E4.21451
G1 X131.451 Y110.504 E4.26813
G1 X130.885 Y110.339 E4.32176
G1 X130.377 Y110.039 E4.37539
G1 X129.960 Y109.622 E4.42902
G1 X129.660 Y109.114 E4.48264
G1 X129.496 Y108.548 E4.53627
G1 X129.477 Y107.958 E4.58990
G1 X129.606 Y107.383 E4.64352
G1 X129.873 Y106.857 E4.69715
G1 X130.264 Y106.415 E4.75078
G1 X130.754 Y106.081 E4.80473
G1 X131.353 Y105.879 E4.86223
G1 X131.893 Y105.828 E4.91154
G1 X132.476 Y105.920 E4.96517
G1 X133.017 Y106.155 E5.01880
G1 X133.483 Y106.516 E5.07242
G1 X133.845 Y106.982 E5.12605
G1 X134.079 Y107.523 E5.17968
G1 X134.172 Y108.109 E5.23363
G1 X134.099 Y108.738 E5.29113
G1 X133.936 Y109.192 E5.33499
G1 X134.133 Y109.584 F4800.000
G1 X134.477 Y109.534
G1 F1800
G1 X134.057 Y110.152 E5.40297
G1 X133.496 Y110.647 E5.47096
G1 X132.830 Y110.986 E5.53894
G1 X132.100 Y111.149 E5.60692
G1 X131.353 Y111.126 E5.67491
G1 X130.635 Y110.917 E5.74289
G1 X129.991 Y110.537 E5.81087
G1 X129.463 Y110.008 E5.87886
G1 X129.082 Y109.364 E5.94684
