; generated by Slic3r Prusa Edition 1.40.1+win64 on 2018-10-04 at 13:43:55

; 

; external perimeters extrusion width = 0.45mm
; perimeters extrusion width = 0.45mm
; infill extrusion width = 0.45mm
; solid infill extrusion width = 0.45mm
; top infill extrusion width = 0.40mm
; support material extrusion width = 0.40mm
; first layer extrusion width = 0.70mm

M107
M190 S60 ; set bed temperature and wait for it to be reached
M104 S210 ; set temperature
G28 ; home all axes
G1 Z5 F5000 ; lift nozzle
; Filament gcode
M109 S210 ; set temperature and wait for it to be reached
G21 ; set units to millimeters
G90 ; use absolute coordinates
M82 ; use absolute distances for extrusion
G92 E0
G1 E-4.00000 F2400.00000
G92 E0
G1 Z0.350 F4800.000
G1 Z0.650
G1 X59.966 Y103.968
G1 Z0.350
G1 E4.00000 F2400.00000
G1 F1800
G1 X61.230 Y103.327 E4.12892
G1 X62.592 Y102.933 E4.25784
G1 X64.004 Y102.801 E4.38677
G1 X136.714 Y103.086 E10.99828
G1 X138.061 Y103.248 E11.12167
G1 X139.364 Y103.651 E11.24567
G1 X140.573 Y104.281 E11.36967
G1 X141.650 Y105.118 E11.49367
G1 X142.658 Y106.273 E11.63305
G1 X143.416 Y107.613 E11.77304
G1 X143.886 Y109.079 E11.91303
G1 X144.050 Y110.603 E12.05240
G1 X144.046 Y170.751 E17.52163
G1 X143.882 Y172.098 E17.64502
G1 X143.480 Y173.394 E17.76840
G1 X142.852 Y174.597 E17.89179
G1 X142.015 Y175.674 E18.01579
G1 X140.856 Y176.686 E18.15578
G1 X139.509 Y177.446 E18.29638
G1 X138.035 Y177.915 E18.43698
G1 X136.497 Y178.075 E18.57759
G1 X63.774 Y177.791 E25.19034
G1 X62.427 Y177.629 E25.31373
G1 X61.124 Y177.226 E25.43773
G1 X59.915 Y176.596 E25.56173
G1 X58.838 Y175.758 E25.68573
G1 X57.862 Y174.648 E25.82019
G1 X57.120 Y173.369 E25.95464
G1 X56.641 Y171.970 E26.08910
G1 X56.443 Y170.505 E26.22356
G1 X56.457 Y109.834 E31.74031
G1 X56.688 Y108.435 E31.86924
G1 X57.177 Y107.104 E31.99816
G1 X57.905 Y105.888 E32.12708
G1 X58.848 Y104.829 E32.25600
G1 X59.918 Y104.004 E32.37885
G1 X60.290 Y104.502 F4800.000
G1 F1800
G1 X61.454 Y103.910 E32.49761
G1 X62.709 Y103.547 E32.61636
G1 X64.009 Y103.426 E32.73511
G1 X136.677 Y103.710 E39.34283
G1 X137.910 Y103.855 E39.45569
G1 X139.103 Y104.219 E39.56914
G1 X140.212 Y104.792 E39.68259
G1 X141.200 Y105.553 E39.79604
G1 X142.136 Y106.616 E39.92480
G1 X142.836 Y107.847 E40.05357
G1 X143.272 Y109.194 E40.18233
G1 X143.425 Y110.609 E40.31168
G1 X143.422 Y170.708 E45.77652
G1 X143.276 Y171.941 E45.88938
G1 X142.911 Y173.134 E46.00283
G1 X142.341 Y174.237 E46.11569
G1 X141.579 Y175.225 E46.22914
G1 X140.511 Y176.164 E46.35849
G1 X139.268 Y176.869 E46.48843
G1 X137.913 Y177.303 E46.61778
G1 X136.498 Y177.451 E46.74714
G1 X63.811 Y177.167 E53.35663
G1 X62.578 Y177.022 E53.46949
G1 X61.385 Y176.657 E53.58294
G1 X60.276 Y176.085 E53.69639
G1 X59.288 Y175.323 E53.80984
G1 X58.383 Y174.303 E53.93389
G1 X57.692 Y173.119 E54.05854
G1 X57.249 Y171.828 E54.18259
G1 X57.067 Y170.470 E54.30723
G1 X57.078 Y109.908 E59.81405
G1 X57.284 Y108.625 E59.93221
G1 X57.729 Y107.397 E60.05096
G1 X58.396 Y106.275 E60.16972
G1 X59.262 Y105.297 E60.28847
G1 X60.242 Y104.539 E60.40118
G1 X60.611 Y105.038 F4800.000
G1 F1800
G1 X61.676 Y104.494 E60.50994
G1 X62.819 Y104.163 E60.61815
G1 X64.004 Y104.051 E60.72636
G1 X136.649 Y104.334 E67.33196
G1 X137.769 Y104.464 E67.43455
G1 X138.849 Y104.791 E67.53713
G1 X139.859 Y105.308 E67.64028
G1 X140.755 Y105.993 E67.74287
G1 X141.614 Y106.962 E67.86062
G1 X142.258 Y108.086 E67.97838
G1 X142.660 Y109.323 E68.09669
G1 X142.800 Y110.610 E68.21445
G1 X142.798 Y170.675 E73.67605
G1 X142.668 Y171.795 E73.77863
G1 X142.341 Y172.875 E73.88122
G1 X141.828 Y173.879 E73.98381
G1 X141.139 Y174.781 E74.08695
G1 X140.165 Y175.644 E74.20527
G1 X139.035 Y176.289 E74.32358
G1 X137.797 Y176.688 E74.44190
G1 X136.497 Y176.826 E74.56078
G1 X63.839 Y176.542 E81.16751
G1 X62.719 Y176.413 E81.27010
G1 X61.639 Y176.086 E81.37268
G1 X60.629 Y175.569 E81.47583
G1 X59.733 Y174.884 E81.57842
G1 X58.899 Y173.950 E81.69224
G1 X58.263 Y172.865 E81.80663
G1 X57.855 Y171.675 E81.92101
G1 X57.691 Y170.428 E82.03540
G1 X57.699 Y109.985 E87.53141
G1 X57.882 Y108.809 E87.63961
G1 X58.283 Y107.689 E87.74782
G1 X58.886 Y106.663 E87.85602
G1 X59.672 Y105.769 E87.96423
G1 X60.564 Y105.075 E88.06698
G1 E84.06698 F2400.00000
G92 E0
G1 Z0.650 F4800.000
G1 X59.737 Y107.747
G1 Z0.350
G1 E4.00000 F2400.00000
G1 F1800
G1 X60.808 Y106.622 E4.14123
G1 X61.591 Y106.104 E4.22658
G1 X62.217 Y105.850 E4.28806
G1 X62.931 Y105.696 E4.35441
G1 X64.513 Y105.677 E4.49834
G1 X64.791 Y105.645 E4.52375
G1 X66.947 Y105.645 E4.71979
G1 X67.125 Y105.664 E4.73605
G1 X67.303 Y105.645 E4.75232
G1 X69.446 Y105.645 E4.94724
G1 X69.624 Y105.664 E4.96351
G1 X69.802 Y105.645 E4.97978
G1 X71.946 Y105.645 E5.17470
G1 X72.124 Y105.664 E5.19097
G1 X72.302 Y105.645 E5.20723
G1 X74.446 Y105.645 E5.40215
G1 X74.624 Y105.664 E5.41842
G1 X74.802 Y105.645 E5.43469
G1 X76.945 Y105.645 E5.62961
G1 X77.123 Y105.664 E5.64588
G1 X77.301 Y105.645 E5.66215
G1 X79.445 Y105.645 E5.85707
G1 X79.623 Y105.664 E5.87333
G1 X79.801 Y105.645 E5.88960
G1 X81.944 Y105.645 E6.08452
G1 X82.122 Y105.664 E6.10079
G1 X82.300 Y105.645 E6.11706
G1 X84.444 Y105.645 E6.31198
G1 X84.622 Y105.664 E6.32825
G1 X84.800 Y105.645 E6.34451
G1 X86.943 Y105.645 E6.53943
G1 X87.121 Y105.664 E6.55570
G1 X87.299 Y105.645 E6.57197
G1 X89.443 Y105.645 E6.76689
G1 X89.621 Y105.664 E6.78316
G1 X89.799 Y105.645 E6.79943
G1 X91.942 Y105.645 E6.99435
G1 X92.120 Y105.664 E7.01061
G1 X92.298 Y105.645 E7.02688
G1 X94.442 Y105.645 E7.22180
G1 X94.620 Y105.664 E7.23807
G1 X94.798 Y105.645 E7.25434
G1 X96.942 Y105.645 E7.44926
G1 X97.120 Y105.664 E7.46553
G1 X97.298 Y105.645 E7.48179
G1 X99.441 Y105.645 E7.67671
G1 X99.619 Y105.664 E7.69298
G1 X99.797 Y105.645 E7.70925
G1 X101.941 Y105.645 E7.90417
G1 X102.119 Y105.664 E7.92044
G1 X102.297 Y105.645 E7.93670
G1 X104.440 Y105.645 E8.13163
G1 X104.618 Y105.664 E8.14789
G1 X104.796 Y105.645 E8.16416
G1 X106.940 Y105.645 E8.35908
G1 X107.118 Y105.664 E8.37535
G1 X107.296 Y105.645 E8.39162
G1 X109.439 Y105.645 E8.58654
G1 X109.617 Y105.664 E8.60281
G1 X109.795 Y105.645 E8.61907
G1 X111.939 Y105.645 E8.81399
G1 X112.117 Y105.664 E8.83026
G1 X112.295 Y105.645 E8.84653
G1 X114.438 Y105.645 E9.04145
G1 X114.616 Y105.664 E9.05772
G1 X114.794 Y105.645 E9.07398
G1 X116.938 Y105.645 E9.26891
G1 X117.116 Y105.664 E9.28517
G1 X117.294 Y105.645 E9.30144
G1 X119.438 Y105.645 E9.49636
G1 X119.616 Y105.664 E9.51263
G1 X119.794 Y105.645 E9.52890
G1 X121.937 Y105.645 E9.72382
G1 X122.115 Y105.664 E9.74008
G1 X122.293 Y105.645 E9.75635
G1 X124.437 Y105.645 E9.95127
G1 X124.615 Y105.664 E9.96754
G1 X124.793 Y105.645 E9.98381
G1 X126.936 Y105.645 E10.17873
G1 X127.114 Y105.664 E10.19500
G1 X127.292 Y105.645 E10.21126
G1 X129.436 Y105.645 E10.40619
G1 X129.614 Y105.664 E10.42245
G1 X129.792 Y105.645 E10.43872
G1 X131.935 Y105.645 E10.63364
G1 X132.113 Y105.664 E10.64991
G1 X132.291 Y105.645 E10.66618
G1 X134.435 Y105.645 E10.86110
G1 X134.613 Y105.664 E10.87736
G1 X134.791 Y105.645 E10.89363
G1 X136.957 Y105.645 E11.09062
G1 X137.941 Y105.825 E11.18152
G1 X138.886 Y106.217 E11.27458
G1 X139.709 Y106.796 E11.36605
G1 X140.467 Y107.578 E11.46510
G1 X140.936 Y108.287 E11.54238
G1 X141.255 Y109.022 E11.61521
G1 X141.487 Y110.176 E11.72227
G1 X141.487 Y171.082 E17.26046
G1 X141.302 Y172.017 E17.34709
G1 X140.906 Y172.893 E17.43453
G1 X140.499 Y173.442 E17.49668
G1 X139.611 Y174.312 E17.60968
G1 X138.897 Y174.773 E17.68700
G1 X138.343 Y175.003 E17.74150
G1 X137.741 Y175.158 E17.79801
G1 X135.983 Y175.198 E17.95793
G1 X135.697 Y175.231 E17.98411
G1 X133.541 Y175.231 E18.18015
G1 X133.363 Y175.213 E18.19642
G1 X133.185 Y175.231 E18.21268
G1 X131.042 Y175.231 E18.40760
G1 X130.864 Y175.213 E18.42387
G1 X130.686 Y175.231 E18.44014
G1 X128.542 Y175.231 E18.63506
G1 X128.364 Y175.213 E18.65133
G1 X128.186 Y175.231 E18.66760
G1 X126.042 Y175.231 E18.86252
G1 X125.864 Y175.213 E18.87878
G1 X125.686 Y175.231 E18.89505
G1 X123.543 Y175.231 E19.08997
G1 X123.365 Y175.213 E19.10624
G1 X123.187 Y175.231 E19.12251
G1 X121.043 Y175.231 E19.31743
G1 X120.865 Y175.213 E19.33370
G1 X120.687 Y175.231 E19.34996
G1 X118.544 Y175.231 E19.54488
G1 X118.366 Y175.213 E19.56115
G1 X118.188 Y175.231 E19.57742
G1 X116.044 Y175.231 E19.77234
G1 X115.866 Y175.213 E19.78861
G1 X115.688 Y175.231 E19.80488
G1 X113.545 Y175.231 E19.99980
G1 X113.367 Y175.213 E20.01606
G1 X113.189 Y175.231 E20.03233
G1 X111.045 Y175.231 E20.22725
G1 X110.867 Y175.213 E20.24352
G1 X110.689 Y175.231 E20.25979
G1 X108.546 Y175.231 E20.45471
G1 X108.368 Y175.213 E20.47098
G1 X108.190 Y175.231 E20.48724
G1 X106.046 Y175.231 E20.68216
G1 X105.868 Y175.213 E20.69843
G1 X105.690 Y175.231 E20.71470
G1 X103.546 Y175.231 E20.90962
G1 X103.368 Y175.213 E20.92589
G1 X103.190 Y175.231 E20.94216
G1 X101.047 Y175.231 E21.13708
G1 X100.869 Y175.213 E21.15334
G1 X100.691 Y175.231 E21.16961
G1 X98.547 Y175.231 E21.36453
G1 X98.369 Y175.213 E21.38080
G1 X98.191 Y175.231 E21.39707
G1 X96.048 Y175.231 E21.59199
G1 X95.870 Y175.213 E21.60826
G1 X95.692 Y175.231 E21.62452
G1 X93.548 Y175.231 E21.81944
G1 X93.370 Y175.213 E21.83571
G1 X93.192 Y175.231 E21.85198
G1 X91.049 Y175.231 E22.04690
G1 X90.871 Y175.213 E22.06317
G1 X90.693 Y175.231 E22.07944
G1 X88.549 Y175.231 E22.27436
G1 X88.371 Y175.213 E22.29062
G1 X88.193 Y175.231 E22.30689
G1 X86.050 Y175.231 E22.50181
G1 X85.872 Y175.213 E22.51808
G1 X85.694 Y175.231 E22.53435
G1 X83.550 Y175.231 E22.72927
G1 X83.372 Y175.213 E22.74554
G1 X83.194 Y175.231 E22.76180
G1 X81.050 Y175.231 E22.95672
G1 X80.872 Y175.213 E22.97299
G1 X80.694 Y175.231 E22.98926
G1 X78.551 Y175.231 E23.18418
G1 X78.373 Y175.213 E23.20045
G1 X78.195 Y175.231 E23.21671
G1 X76.051 Y175.231 E23.41164
G1 X75.873 Y175.213 E23.42790
G1 X75.695 Y175.231 E23.44417
G1 X73.552 Y175.231 E23.63909
G1 X73.374 Y175.213 E23.65536
G1 X73.196 Y175.231 E23.67163
G1 X71.052 Y175.231 E23.86655
G1 X70.874 Y175.213 E23.88281
G1 X70.696 Y175.231 E23.89908
G1 X68.553 Y175.231 E24.09400
G1 X68.375 Y175.213 E24.11027
G1 X68.197 Y175.231 E24.12654
G1 X66.053 Y175.231 E24.32146
G1 X65.875 Y175.213 E24.33773
G1 X65.697 Y175.231 E24.35399
G1 X63.531 Y175.231 E24.55098
G1 X62.547 Y175.051 E24.64189
G1 X61.602 Y174.660 E24.73495
G1 X60.778 Y174.080 E24.82653
G1 X60.051 Y173.334 E24.92128
G1 X59.479 Y172.449 E25.01705
G1 X59.152 Y171.585 E25.10112
G1 X59.001 Y170.697 E25.18295
G1 X59.001 Y109.796 E30.72067
G1 X59.192 Y108.835 E30.80974
G1 X59.422 Y108.280 E30.86440
G1 X59.706 Y107.798 E30.91525
G1 X60.255 Y108.097 F4800.000
G1 F1800
G1 X61.186 Y107.121 E31.03787
G1 X61.856 Y106.670 E31.11133
G1 X62.425 Y106.440 E31.16714
G1 X63.027 Y106.314 E31.22302
G1 X64.555 Y106.302 E31.36197
G1 X64.811 Y106.270 E31.38549
G1 X66.927 Y106.270 E31.57784
G1 X67.125 Y106.293 E31.59598
G1 X67.323 Y106.270 E31.61411
G1 X69.426 Y106.270 E31.80537
G1 X69.624 Y106.293 E31.82350
G1 X69.823 Y106.270 E31.84164
G1 X71.926 Y106.270 E32.03290
G1 X72.124 Y106.293 E32.05103
G1 X72.322 Y106.270 E32.06917
G1 X74.425 Y106.270 E32.26043
G1 X74.624 Y106.293 E32.27856
G1 X74.822 Y106.270 E32.29669
G1 X76.925 Y106.270 E32.48795
G1 X77.123 Y106.293 E32.50609
G1 X77.321 Y106.270 E32.52422
G1 X79.425 Y106.270 E32.71548
G1 X79.623 Y106.293 E32.73361
G1 X79.821 Y106.270 E32.75175
G1 X81.924 Y106.270 E32.94301
G1 X82.122 Y106.293 E32.96114
G1 X82.320 Y106.270 E32.97927
G1 X84.424 Y106.270 E33.17053
G1 X84.622 Y106.293 E33.18867
G1 X84.820 Y106.270 E33.20680
G1 X86.923 Y106.270 E33.39806
G1 X87.121 Y106.293 E33.41619
G1 X87.319 Y106.270 E33.43433
G1 X89.423 Y106.270 E33.62559
G1 X89.621 Y106.293 E33.64372
G1 X89.819 Y106.270 E33.66185
G1 X91.922 Y106.270 E33.85311
G1 X92.120 Y106.293 E33.87125
G1 X92.319 Y106.270 E33.88938
G1 X94.422 Y106.270 E34.08064
G1 X94.620 Y106.293 E34.09877
G1 X94.818 Y106.270 E34.11691
G1 X96.921 Y106.270 E34.30817
G1 X97.120 Y106.293 E34.32630
G1 X97.318 Y106.270 E34.34443
G1 X99.421 Y106.270 E34.53569
G1 X99.619 Y106.293 E34.55383
G1 X99.817 Y106.270 E34.57196
G1 X101.921 Y106.270 E34.76322
G1 X102.119 Y106.293 E34.78135
G1 X102.317 Y106.270 E34.79949
G1 X104.420 Y106.270 E34.99075
G1 X104.618 Y106.293 E35.00888
G1 X104.816 Y106.270 E35.02701
G1 X106.920 Y106.270 E35.21827
G1 X107.118 Y106.293 E35.23641
G1 X107.316 Y106.270 E35.25454
G1 X109.419 Y106.270 E35.44580
G1 X109.617 Y106.293 E35.46393
G1 X109.815 Y106.270 E35.48207
G1 X111.919 Y106.270 E35.67333
G1 X112.117 Y106.293 E35.69146
G1 X112.315 Y106.270 E35.70959
G1 X114.418 Y106.270 E35.90085
G1 X114.616 Y106.293 E35.91899
G1 X114.815 Y106.270 E35.93712
G1 X116.918 Y106.270 E36.12838
G1 X117.116 Y106.293 E36.14651
G1 X117.314 Y106.270 E36.16465
G1 X119.417 Y106.270 E36.35591
G1 X119.616 Y106.293 E36.37404
G1 X119.814 Y106.270 E36.39217
G1 X121.917 Y106.270 E36.58343
G1 X122.115 Y106.293 E36.60157
G1 X122.313 Y106.270 E36.61970
G1 X124.417 Y106.270 E36.81096
G1 X124.615 Y106.293 E36.82909
G1 X124.813 Y106.270 E36.84723
G1 X126.916 Y106.270 E37.03849
G1 X127.114 Y106.293 E37.05662
G1 X127.312 Y106.270 E37.07475
G1 X129.416 Y106.270 E37.26601
G1 X129.614 Y106.293 E37.28415
G1 X129.812 Y106.270 E37.30228
G1 X131.915 Y106.270 E37.49354
G1 X132.113 Y106.293 E37.51167
G1 X132.311 Y106.270 E37.52981
G1 X134.415 Y106.270 E37.72107
G1 X134.613 Y106.293 E37.73920
G1 X134.811 Y106.270 E37.75733
G1 X136.927 Y106.270 E37.94977
G1 X137.791 Y106.433 E38.02964
G1 X138.611 Y106.779 E38.11061
G1 X139.282 Y107.253 E38.18534
G1 X139.965 Y107.951 E38.27412
G1 X140.374 Y108.562 E38.34102
G1 X140.668 Y109.240 E38.40817
G1 X140.862 Y110.207 E38.49782
G1 X140.862 Y171.050 E44.03026
G1 X140.697 Y171.854 E44.10492
G1 X140.353 Y172.600 E44.17960
G1 X140.045 Y173.012 E44.22642
G1 X139.197 Y173.843 E44.33438
G1 X138.632 Y174.207 E44.39545
G1 X138.125 Y174.416 E44.44530
G1 X137.624 Y174.543 E44.49233
G1 X135.939 Y174.574 E44.64561
G1 X135.677 Y174.606 E44.66961
G1 X133.561 Y174.606 E44.86197
G1 X133.363 Y174.583 E44.88010
G1 X133.165 Y174.606 E44.89824
G1 X131.062 Y174.606 E45.08950
G1 X130.864 Y174.583 E45.10763
G1 X130.665 Y174.606 E45.12576
G1 X128.562 Y174.606 E45.31702
G1 X128.364 Y174.583 E45.33516
G1 X128.166 Y174.606 E45.35329
G1 X126.063 Y174.606 E45.54455
G1 X125.864 Y174.583 E45.56268
G1 X125.666 Y174.606 E45.58082
G1 X123.563 Y174.606 E45.77208
G1 X123.365 Y174.583 E45.79021
G1 X123.167 Y174.606 E45.80834
G1 X121.063 Y174.606 E45.99960
G1 X120.865 Y174.583 E46.01774
G1 X120.667 Y174.606 E46.03587
G1 X118.564 Y174.606 E46.22713
G1 X118.366 Y174.583 E46.24526
G1 X118.168 Y174.606 E46.26340
G1 X116.064 Y174.606 E46.45466
G1 X115.866 Y174.583 E46.47279
G1 X115.668 Y174.606 E46.49092
G1 X113.565 Y174.606 E46.68218
G1 X113.367 Y174.583 E46.70032
G1 X113.169 Y174.606 E46.71845
G1 X111.065 Y174.606 E46.90971
G1 X110.867 Y174.583 E46.92784
G1 X110.669 Y174.606 E46.94598
G1 X108.566 Y174.606 E47.13724
G1 X108.368 Y174.583 E47.15537
G1 X108.169 Y174.606 E47.17350
G1 X106.066 Y174.606 E47.36476
G1 X105.868 Y174.583 E47.38290
G1 X105.670 Y174.606 E47.40103
G1 X103.567 Y174.606 E47.59229
G1 X103.368 Y174.583 E47.61042
G1 X103.170 Y174.606 E47.62856
G1 X101.067 Y174.606 E47.81982
G1 X100.869 Y174.583 E47.83795
G1 X100.671 Y174.606 E47.85608
G1 X98.567 Y174.606 E48.04734
G1 X98.369 Y174.583 E48.06548
G1 X98.171 Y174.606 E48.08361
G1 X96.068 Y174.606 E48.27487
G1 X95.870 Y174.583 E48.29300
G1 X95.672 Y174.606 E48.31114
G1 X93.568 Y174.606 E48.50240
G1 X93.370 Y174.583 E48.52053
G1 X93.172 Y174.606 E48.53867
G1 X91.069 Y174.606 E48.72993
G1 X90.871 Y174.583 E48.74806
G1 X90.673 Y174.606 E48.76619
G1 X88.569 Y174.606 E48.95745
G1 X88.371 Y174.583 E48.97559
G1 X88.173 Y174.606 E48.99372
G1 X86.070 Y174.606 E49.18498
G1 X85.872 Y174.583 E49.20311
G1 X85.673 Y174.606 E49.22125
G1 X83.570 Y174.606 E49.41251
G1 X83.372 Y174.583 E49.43064
G1 X83.174 Y174.606 E49.44877
G1 X81.071 Y174.606 E49.64003
G1 X80.872 Y174.583 E49.65817
G1 X80.674 Y174.606 E49.67630
G1 X78.571 Y174.606 E49.86756
G1 X78.373 Y174.583 E49.88569
G1 X78.175 Y174.606 E49.90383
G1 X76.071 Y174.606 E50.09509
G1 X75.873 Y174.583 E50.11322
G1 X75.675 Y174.606 E50.13135
