; generated by Slic3r Prusa Edition 1.40.1+win64 on 2018-10-06 at 14:16:15

; 

; external perimeters extrusion width = 0.45mm
; perimeters extrusion width = 0.45mm
; infill extrusion width = 0.45mm
; solid infill extrusion width = 0.45mm
; top infill extrusion width = 0.40mm
; first layer extrusion width = 0.70mm

M107
M190 S60 ; set bed temperature and wait for it to be reached
M104 S210 ; set temperature
G28 ; home all axes
G1 Z5 F5000 ; lift nozzle
; Filament gcode
M109 S210 ; set temperature and wait for it to be reached
G21 ; set units to millimeters
G90 ; use absolute coordinates
M82 ; use absolute distances for extrusion
G92 E0
G1 E-4.00000 F2400.00000
G92 E0
G1 Z0.350 F4800.000
G1 Z0.650
G1 X46.898 Y105.603
G1 Z0.350
G1 E4.00000 F2400.00000
G1 F1800
G1 X47.872 Y105.243 E4.09444
G1 X48.880 Y105.021 E4.18827
G1 X49.915 Y104.938 E4.28271
G1 X150.007 Y104.938 E13.38398
G1 X151.425 Y105.073 E13.51352
G1 X152.792 Y105.472 E13.64306
G1 X154.067 Y106.124 E13.77321
G1 X155.190 Y107.000 E13.90275
G1 X156.130 Y108.071 E14.03228
G1 X156.854 Y109.305 E14.16244
G1 X157.332 Y110.648 E14.29197
G1 X157.550 Y112.062 E14.42213
G1 X157.550 Y167.928 E19.50195
G1 X157.445 Y168.825 E19.58406
G1 X157.236 Y169.696 E19.66556
G1 X156.923 Y170.543 E19.74767
G1 X156.511 Y171.347 E19.82978
G1 X156.006 Y172.095 E19.91190
G1 X155.415 Y172.779 E19.99401
G1 X154.747 Y173.386 E20.07612
G1 X154.012 Y173.910 E20.15824
G1 X153.102 Y174.397 E20.25206
G1 X152.128 Y174.757 E20.34651
G1 X151.120 Y174.979 E20.44033
G1 X150.085 Y175.062 E20.53477
G1 X49.837 Y175.060 E29.65025
G1 X48.903 Y174.982 E29.73545
G1 X47.986 Y174.789 E29.82064
G1 X47.107 Y174.487 E29.90522
G1 X46.265 Y174.075 E29.99042
G1 X45.486 Y173.567 E30.07500
G1 X44.770 Y172.962 E30.16020
G1 X44.135 Y172.274 E30.24539
G1 X43.590 Y171.512 E30.33059
G1 X43.109 Y170.614 E30.42318
G1 X42.751 Y169.654 E30.51639
G1 X42.527 Y168.660 E30.60899
G1 X42.439 Y167.646 E30.70158
G1 X42.443 Y112.222 E35.74128
G1 X42.532 Y111.309 E35.82463
G1 X42.733 Y110.408 E35.90859
G1 X43.039 Y109.544 E35.99194
G1 X43.452 Y108.718 E36.07590
G1 X43.957 Y107.953 E36.15925
G1 X44.556 Y107.251 E36.24321
G1 X45.237 Y106.626 E36.32718
G1 X45.988 Y106.090 E36.41114
G1 X46.845 Y105.632 E36.49951
G1 X47.138 Y106.184 F4800.000
G1 F1800
G1 X48.069 Y105.837 E36.58992
G1 X48.991 Y105.636 E36.67565
G1 X49.931 Y105.563 E36.76138
G1 X150.007 Y105.563 E45.86124
G1 X151.313 Y105.688 E45.98058
G1 X152.572 Y106.057 E46.09992
G1 X153.740 Y106.657 E46.21926
G1 X154.773 Y107.466 E46.33860
G1 X155.636 Y108.455 E46.45795
G1 X156.297 Y109.589 E46.57729
G1 X156.733 Y110.827 E46.69663
G1 X156.927 Y112.125 E46.81597
G1 X156.927 Y167.871 E51.88491
G1 X156.640 Y169.508 E52.03601
G1 X156.352 Y170.288 E52.11171
G1 X155.969 Y171.035 E52.18799
G1 X154.957 Y172.353 E52.33909
G1 X154.340 Y172.912 E52.41478
G1 X153.655 Y173.396 E52.49107
G1 X152.822 Y173.837 E52.57679
G1 X151.931 Y174.163 E52.66311
G1 X151.009 Y174.364 E52.74884
G1 X150.069 Y174.437 E52.83457
G1 X49.857 Y174.436 E61.94685
G1 X48.995 Y174.364 E62.02549
G1 X48.149 Y174.186 E62.10414
G1 X47.331 Y173.903 E62.18278
G1 X46.561 Y173.525 E62.26083
G1 X45.843 Y173.054 E62.33888
G1 X45.184 Y172.494 E62.41753
G1 X44.604 Y171.861 E62.49558
G1 X44.104 Y171.155 E62.57422
G1 X43.668 Y170.334 E62.65877
G1 X43.346 Y169.462 E62.74332
G1 X43.143 Y168.554 E62.82787
G1 X43.064 Y167.621 E62.91301
G1 X43.067 Y112.259 E67.94706
G1 X43.149 Y111.411 E68.02452
G1 X43.332 Y110.586 E68.10139
G1 X43.617 Y109.783 E68.17886
G1 X43.998 Y109.021 E68.25632
G1 X44.470 Y108.312 E68.33378
G1 X45.020 Y107.670 E68.41065
G1 X45.650 Y107.096 E68.48811
G1 X46.345 Y106.604 E68.56558
G1 X47.085 Y106.212 E68.64172
G1 E64.64172 F2400.00000
G92 E0
G1 Z0.650 F4800.000
G1 X46.000 Y108.500
G1 X45.485 Y108.088
G1 Z0.350
G1 E4.00000 F2400.00000
G1 F1800
G1 X46.700 Y107.119 E4.14131
G1 X47.458 Y106.722 E4.21914
G1 X48.257 Y106.433 E4.29640
G1 X49.094 Y106.253 E4.37423
G1 X49.941 Y106.188 E4.45150
G1 X150.006 Y106.188 E13.55035
G1 X151.197 Y106.302 E13.65912
G1 X152.345 Y106.639 E13.76789
G1 X153.413 Y107.190 E13.87722
G1 X154.354 Y107.929 E13.98599
G1 X155.138 Y108.833 E14.09475
G1 X155.737 Y109.868 E14.20352
G1 X156.131 Y110.997 E14.31229
G1 X156.305 Y112.187 E14.42162
G1 X156.305 Y167.810 E19.47942
G1 X156.045 Y169.317 E19.61849
G1 X155.431 Y170.718 E19.75755
G1 X154.497 Y171.930 E19.89662
G1 X153.300 Y172.881 E20.03569
G1 X152.542 Y173.278 E20.11352
G1 X151.743 Y173.567 E20.19078
G1 X150.906 Y173.747 E20.26861
G1 X150.059 Y173.812 E20.34588
G1 X49.882 Y173.811 E29.45489
G1 X48.320 Y173.585 E29.59844
G1 X46.863 Y172.978 E29.74199
G1 X45.606 Y172.032 E29.88498
G1 X44.619 Y170.800 E30.02852
G1 X44.227 Y170.053 E30.10523
G1 X43.940 Y169.267 E30.18136
G1 X43.758 Y168.443 E30.25807
G1 X43.688 Y167.602 E30.33477
G1 X43.691 Y112.295 E35.36381
G1 X43.932 Y110.760 E35.50511
G1 X44.541 Y109.330 E35.64642
G1 X45.449 Y108.136 E35.78283
G1 E31.78283 F2400.00000
G92 E0
G1 Z0.650 F4800.000
G1 X48.496 Y107.998
G1 Z0.350
G1 E4.00000 F2400.00000
G1 F1800
G1 X49.431 Y107.813 E4.08664
G1 X150.637 Y107.819 E13.28927
G1 X151.424 Y107.973 E13.36222
G1 X152.229 Y108.310 E13.44153
G1 X152.789 Y108.682 E13.50265
G1 X153.703 Y109.574 E13.61874
G1 X154.263 Y110.410 E13.71025
G1 X154.551 Y111.157 E13.78312
G1 X154.687 Y111.933 E13.85473
G1 X154.687 Y168.067 E18.95899
G1 X154.496 Y169.028 E19.04806
G1 X154.266 Y169.583 E19.10272
G1 X153.951 Y170.118 E19.15909
G1 X152.943 Y171.186 E19.29268
G1 X152.381 Y171.605 E19.35638
G1 X151.504 Y172.002 E19.44392
G1 X150.569 Y172.187 E19.53056
G1 X49.433 Y172.187 E28.72686
G1 X48.472 Y171.996 E28.81593
G1 X47.917 Y171.766 E28.87059
G1 X47.382 Y171.451 E28.92696
G1 X46.314 Y170.443 E29.06055
G1 X45.895 Y169.881 E29.12425
G1 X45.498 Y169.004 E29.21179
G1 X45.313 Y168.069 E29.29842
G1 X45.313 Y111.933 E34.40290
G1 X45.504 Y110.972 E34.49197
G1 X45.734 Y110.417 E34.54663
G1 X46.049 Y109.882 E34.60300
G1 X47.057 Y108.814 E34.73659
G1 X47.619 Y108.395 E34.80029
G1 X48.442 Y108.023 E34.88238
G1 X48.659 Y108.603 F4800.000
G1 F1800
G1 X49.463 Y108.438 E34.95704
G1 X150.605 Y108.444 E44.15376
G1 X151.269 Y108.579 E44.21538
G1 X151.912 Y108.849 E44.27884
G1 X152.375 Y109.151 E44.32912
G1 X153.243 Y109.998 E44.43938
G1 X153.694 Y110.671 E44.51302
G1 X153.942 Y111.301 E44.57458
G1 X154.062 Y111.962 E44.63569
G1 X154.062 Y168.037 E49.73453
G1 X153.906 Y168.817 E49.80690
G1 X153.697 Y169.323 E49.85665
G1 X153.433 Y169.766 E49.90360
G1 X152.508 Y170.736 E50.02544
G1 X152.087 Y171.052 E50.07332
G1 X151.341 Y171.397 E50.14807
G1 X150.537 Y171.562 E50.22273
G1 X49.463 Y171.562 E59.41328
G1 X48.683 Y171.406 E59.48566
G1 X48.177 Y171.197 E59.53541
G1 X47.734 Y170.933 E59.58236
G1 X46.764 Y170.008 E59.70420
G1 X46.448 Y169.587 E59.75208
G1 X46.103 Y168.841 E59.82683
G1 X45.938 Y168.037 E59.90149
G1 X45.938 Y111.963 E65.00021
G1 X46.094 Y111.183 E65.07259
G1 X46.303 Y110.677 E65.12233
G1 X46.567 Y110.234 E65.16929
G1 X47.492 Y109.264 E65.29113
G1 X47.913 Y108.948 E65.33901
G1 X48.605 Y108.628 E65.40830
G1 X48.883 Y109.187 F4800.000
G1 F1800
G1 X49.494 Y109.063 E65.46502
G1 X150.573 Y109.069 E74.65606
G1 X151.059 Y109.168 E74.70115
G1 X151.602 Y109.392 E74.75456
G1 X151.963 Y109.622 E74.79350
G1 X152.784 Y110.423 E74.89774
G1 X153.127 Y110.936 E74.95388
G1 X153.334 Y111.449 E75.00423
G1 X153.437 Y111.992 E75.05450
G1 X153.437 Y168.006 E80.14779
G1 X153.317 Y168.607 E80.20347
G1 X153.129 Y169.061 E80.24819
G1 X152.917 Y169.412 E80.28548
G1 X152.078 Y170.282 E80.39541
G1 X151.744 Y170.529 E80.43314
G1 X151.117 Y170.813 E80.49577
G1 X150.506 Y170.937 E80.55248
G1 X49.494 Y170.937 E89.73743
G1 X48.893 Y170.817 E89.79312
G1 X48.439 Y170.629 E89.83784
G1 X48.088 Y170.417 E89.87513
G1 X47.218 Y169.578 E89.98506
G1 X46.971 Y169.244 E90.02279
G1 X46.687 Y168.617 E90.08542
G1 X46.563 Y168.006 E90.14213
G1 X46.563 Y111.994 E95.23525
G1 X46.683 Y111.393 E95.29093
G1 X46.871 Y110.939 E95.33566
G1 X47.083 Y110.588 E95.37294
G1 X47.922 Y109.718 E95.48288
G1 X48.256 Y109.471 E95.52061
G1 X48.828 Y109.212 E95.57779
G1 X49.103 Y109.773 F4800.000
G1 F1800
G1 X49.525 Y109.688 E95.61696
G1 X150.537 Y109.694 E104.80199
G1 X150.897 Y109.772 E104.83542
G1 X151.298 Y109.938 E104.87487
G1 X151.553 Y110.095 E104.90216
G1 X152.324 Y110.847 E105.00006
G1 X152.563 Y111.204 E105.03912
G1 X152.728 Y111.604 E105.07847
G1 X152.812 Y112.025 E105.11746
G1 X152.812 Y167.975 E110.20503
G1 X152.728 Y168.396 E110.24401
G1 X152.562 Y168.798 E110.28357
G1 X152.405 Y169.053 E110.31085
G1 X151.651 Y169.825 E110.40894
G1 X151.407 Y170.002 E110.43636
G1 X150.897 Y170.227 E110.48702
G1 X150.475 Y170.312 E110.52619
G1 X49.525 Y170.312 E119.70556
G1 X49.104 Y170.228 E119.74455
G1 X48.702 Y170.062 E119.78410
G1 X48.447 Y169.905 E119.81139
G1 X47.675 Y169.151 E119.90947
G1 X47.498 Y168.907 E119.93690
G1 X47.273 Y168.397 E119.98755
G1 X47.188 Y167.975 E120.02672
G1 X47.188 Y112.025 E125.11427
G1 X47.272 Y111.604 E125.15325
G1 X47.438 Y111.202 E125.19281
G1 X47.595 Y110.947 E125.22009
G1 X48.349 Y110.175 E125.31818
G1 X48.593 Y109.998 E125.34561
G1 X49.048 Y109.797 E125.39080
G1 X48.923 Y110.529 F4800.000
G1 F1800
G1 X49.317 Y110.360 E125.42980
G1 X49.555 Y110.313 E125.45191
G1 X150.502 Y110.319 E134.63093
G1 X150.681 Y110.359 E134.64767
G1 X151.032 Y110.504 E134.68216
G1 X151.188 Y110.603 E134.69898
G1 X151.861 Y111.269 E134.78505
G1 X151.997 Y111.472 E134.80725
G1 X152.139 Y111.815 E134.84104
G1 X152.187 Y112.055 E134.86333
G1 X152.187 Y167.945 E139.94531
G1 X152.139 Y168.185 E139.96760
G1 X151.996 Y168.532 E140.00174
G1 X151.897 Y168.688 E140.01856
G1 X151.229 Y169.364 E140.10498
G1 X151.077 Y169.471 E140.12181
G1 X150.683 Y169.640 E140.16080
G1 X150.445 Y169.687 E140.18291
G1 X49.555 Y169.687 E149.35673
G1 X49.315 Y169.639 E149.37902
G1 X48.968 Y169.496 E149.41315
G1 X48.812 Y169.397 E149.42998
G1 X48.136 Y168.729 E149.51639
G1 X48.029 Y168.577 E149.53322
G1 X47.860 Y168.183 E149.57222
G1 X47.813 Y167.945 E149.59433
G1 X47.813 Y112.055 E154.67632
G1 X47.861 Y111.815 E154.69861
G1 X48.004 Y111.468 E154.73274
G1 X48.103 Y111.312 E154.74957
G1 X48.771 Y110.636 E154.83598
G1 X48.874 Y110.564 E154.84736
G1 X49.526 Y110.950 F4800.000
G1 F1800
G1 X150.414 Y110.938 E164.02108
G1 X150.761 Y111.068 E164.05478
G1 X151.397 Y111.688 E164.13555
G1 X151.562 Y112.086 E164.17473
G1 X151.562 Y167.914 E169.25113
G1 X151.432 Y168.261 E169.28484
G1 X150.812 Y168.897 E169.36561
G1 X150.414 Y169.062 E169.40479
G1 X49.586 Y169.062 E178.57302
G1 X49.239 Y168.932 E178.60673
G1 X48.603 Y168.312 E178.68750
G1 X48.438 Y167.914 E178.72668
G1 X48.438 Y112.086 E183.80308
G1 X48.603 Y111.688 E183.84225
G1 X49.188 Y111.103 E183.91753
G1 X49.470 Y110.973 E183.94578
G1 X49.564 Y111.610 F4800.000
G1 F1800
G1 X49.679 Y111.563 E183.95708
G1 X150.321 Y111.563 E193.10842
G1 X150.436 Y111.610 E193.11972
G1 X150.890 Y112.064 E193.17809
G1 X150.937 Y112.179 E193.18940
G1 X150.937 Y167.821 E198.24890
G1 X150.890 Y167.936 E198.26020
G1 X150.436 Y168.390 E198.31857
G1 X150.321 Y168.437 E198.32988
G1 X49.679 Y168.437 E207.48121
G1 X49.564 Y168.390 E207.49251
G1 X49.110 Y167.936 E207.55089
G1 X49.063 Y167.821 E207.56219
G1 X49.063 Y112.179 E212.62169
G1 X49.110 Y112.064 E212.63299
G1 X49.522 Y111.653 E212.68591
G1 X49.871 Y112.188 F4800.000
G1 F1800
G1 X150.129 Y112.188 E221.80240
G1 X150.312 Y112.371 E221.82594
G1 X150.312 Y167.629 E226.85060
G1 X150.129 Y167.812 E226.87414
G1 X49.871 Y167.812 E235.99063
G1 X49.688 Y167.629 E236.01417
G1 X49.688 Y112.371 E241.03883
G1 X49.828 Y112.230 E241.05691
G1 E237.05691 F2400.00000
G92 E0
G1 Z0.650 F4800.000
G1 X50.350 Y167.150
G1 Z0.350
G1 E4.00000 F2400.00000
G1 F1800
G1 X50.350 Y112.850 E8.93748
G1 X149.650 Y112.850 E17.96678
G1 X149.650 Y167.150 E22.90426
G1 X50.410 Y167.150 E31.92811
G1 X50.490 Y166.775 F4800.000
G1 X50.975 Y166.525
G1 F1800
G1 X50.975 Y113.475 E36.75195
G1 X149.025 Y113.475 E45.66761
G1 X149.025 Y166.525 E50.49145
G1 X51.035 Y166.525 E59.40166
G1 E55.40166 F2400.00000
G92 E0
G1 Z0.650 F4800.000
G1 X142.666 Y155.295
G1 Z0.350
G1 E4.00000 F2400.00000
G1 F1800
G1 X142.666 Y154.705 E4.05363
G1 X142.812 Y154.134 E4.10725
G1 X143.097 Y153.617 E4.16088
G1 X143.500 Y153.187 E4.21451
G1 X143.998 Y152.871 E4.26813
G1 X144.559 Y152.689 E4.32176
G1 X145.116 Y152.654 E4.37251
G1 X145.725 Y152.761 E4.42872
G1 X146.261 Y153.013 E4.48256
G1 X146.715 Y153.389 E4.53619
G1 X147.062 Y153.867 E4.58982
G1 X147.279 Y154.415 E4.64345
G1 X147.353 Y155.000 E4.69707
G1 X147.279 Y155.585 E4.75070
G1 X147.062 Y156.133 E4.80433
G1 X146.715 Y156.611 E4.85795
G1 X146.261 Y156.987 E4.91158
G1 X145.727 Y157.238 E4.96521
G1 X145.148 Y157.348 E5.01883
G1 X144.559 Y157.311 E5.07246
G1 X143.998 Y157.129 E5.12609
G1 X143.500 Y156.813 E5.17971
G1 X143.097 Y156.383 E5.23334
G1 X142.812 Y155.866 E5.28697
G1 X142.681 Y155.353 E5.33514
G1 X142.297 Y155.140 F4800.000
G1 X142.041 Y155.374
G1 F1800
G1 X142.041 Y154.626 E5.40312
G1 X142.227 Y153.902 E5.47111
G1 X142.587 Y153.247 E5.53909
G1 X143.099 Y152.702 E5.60707
G1 X143.730 Y152.301 E5.67506
G1 X144.441 Y152.070 E5.74304
G1 X145.151 Y152.026 E5.80775
G1 X145.916 Y152.160 E5.87831
G1 X146.598 Y152.482 E5.94691
G1 X147.174 Y152.958 E6.01490
G1 X147.614 Y153.563 E6.08288
G1 X147.889 Y154.258 E6.15086
G1 X147.983 Y155.000 E6.21884
G1 X147.889 Y155.742 E6.28683
G1 X147.614 Y156.437 E6.35481
G1 X147.174 Y157.042 E6.42279
G1 X146.598 Y157.518 E6.49078
G1 X145.922 Y157.837 E6.55876
G1 X145.187 Y157.977 E6.62674
G1 X144.441 Y157.930 E6.69473
G1 X143.730 Y157.699 E6.76271
G1 X143.099 Y157.298 E6.83069
G1 X142.587 Y156.753 E6.89868
G1 X142.227 Y156.098 E6.96666
G1 X142.056 Y155.432 E7.02919
G1 E3.02919 F2400.00000
G92 E0
G1 Z0.650 F4800.000
G1 X133.388 Y157.592
G1 X136.057 Y159.486
G1 X139.109 Y161.049
G1 X142.329 Y162.001
G1 X144.741 Y162.241
G1 X146.414 Y160.401
G1 X147.325 Y159.055
G1 X148.001 Y157.646
G1 X148.246 Y156.892
G1 X148.141 Y156.774
G1 Z0.350
G1 E4.00000 F2400.00000
G1 F1800
G1 X148.400 Y156.858 E4.02477
G1 X148.400 Y165.900 E4.84696
G1 X51.600 Y165.900 E13.64898
G1 X51.600 Y156.839 E14.47289
G1 X51.881 Y156.767 E14.49934
G1 X52.077 Y157.123 E14.53632
G1 X52.697 Y157.783 E14.61866
G1 X53.462 Y158.269 E14.70100
G1 X54.323 Y158.549 E14.78334
G1 X55.227 Y158.605 E14.86568
G1 X56.116 Y158.436 E14.94802
G1 X56.936 Y158.050 E15.03036
G1 X57.633 Y157.473 E15.11270
G1 X58.166 Y156.740 E15.19504
G1 X58.484 Y155.936 E15.27371
G1 X58.614 Y155.011 E15.35863
G1 X58.499 Y154.102 E15.44198
G1 X58.166 Y153.260 E15.52432
G1 X57.633 Y152.527 E15.60666
G1 X56.936 Y151.950 E15.68900
G1 X56.106 Y151.560 E15.77236
G1 X55.187 Y151.397 E15.85728
G1 X54.323 Y151.451 E15.93595
G1 X53.462 Y151.731 E16.01828
G1 X52.697 Y152.217 E16.10062
G1 X52.077 Y152.877 E16.18296
G1 X51.881 Y153.233 E16.21995
G1 X51.600 Y153.161 E16.24640
G1 X51.600 Y126.839 E18.63980
G1 X51.881 Y126.767 E18.66625
G1 X52.077 Y127.123 E18.70323
G1 X52.697 Y127.783 E18.78557
G1 X53.462 Y128.269 E18.86791
G1 X54.323 Y128.549 E18.95025
G1 X55.227 Y128.605 E19.03259
G1 X56.116 Y128.436 E19.11493
G1 X56.899 Y128.067 E19.19360
G1 X57.627 Y127.482 E19.27852
G1 X58.166 Y126.740 E19.36188
G1 X58.499 Y125.898 E19.44422
G1 X58.612 Y125.000 E19.52655
G1 X58.499 Y124.102 E19.60889
G1 X58.166 Y123.260 E19.69123
G1 X57.633 Y122.527 E19.77357
G1 X56.936 Y121.950 E19.85591
G1 X56.106 Y121.560 E19.93927
G1 X55.187 Y121.397 E20.02419
G1 X54.323 Y121.451 E20.10286
G1 X53.462 Y121.731 E20.18520
G1 X52.697 Y122.217 E20.26753
G1 X52.077 Y122.877 E20.34987
G1 X51.881 Y123.233 E20.38686
G1 X51.600 Y123.161 E20.41331
G1 X51.600 Y114.100 E21.23722
G1 X148.400 Y114.100 E30.03924
G1 X148.400 Y123.142 E30.86143
G1 X148.141 Y123.226 E30.88620
G1 X147.633 Y122.527 E30.96475
G1 X146.936 Y121.950 E31.04709
G1 X146.106 Y121.560 E31.13044
G1 X145.187 Y121.397 E31.21536
G1 X144.323 Y121.451 E31.29403
G1 X143.462 Y121.731 E31.37637
G1 X142.697 Y122.217 E31.45871
G1 X142.077 Y122.877 E31.54105
G1 X141.641 Y123.670 E31.62339
G1 X141.416 Y124.547 E31.70573
G1 X141.416 Y125.453 E31.78807
G1 X141.641 Y126.330 E31.87041
G1 X142.077 Y127.123 E31.95275
