; generated by Slic3r Prusa Edition 1.40.1+win64 on 2019-03-17 at 10:44:45

; Unselected the "only retract when crossing perimiters" option on the Infill page to see if I can get Z lift when retracting within a layer. Stop the head catching and also not leave a filament trail when travelling.
; Changed layer height from 0.3 to 0.2 to see better output - "Layers and Perimeters" page
; With supports

; external perimeters extrusion width = 0.45mm
; perimeters extrusion width = 0.45mm
; infill extrusion width = 0.45mm
; solid infill extrusion width = 0.45mm
; top infill extrusion width = 0.40mm
; support material extrusion width = 0.40mm
; first layer extrusion width = 0.70mm

M107
M190 S60 ; set bed temperature and wait for it to be reached
M104 S210 ; set temperature
G28 ; home all axes
G1 Z5 F5000 ; lift nozzle
; Filament gcode
M109 S210 ; set temperature and wait for it to be reached
G21 ; set units to millimeters
G90 ; use absolute coordinates
M82 ; use absolute distances for extrusion
G92 E0
G1 E-4.00000 F2400.00000
G92 E0
G1 Z0.350 F4800.000
G1 Z0.650
G1 X57.849 Y106.235
G1 Z0.350
G1 E4.00000 F2400.00000
G1 F1800
G1 X58.877 Y105.071 E4.14122
G1 X59.954 Y104.245 E4.26460
G1 X61.161 Y103.625 E4.38799
G1 X62.459 Y103.230 E4.51138
G1 X63.807 Y103.074 E4.63476
G1 X137.737 Y103.072 E11.35720
G1 X139.149 Y103.205 E11.48613
G1 X140.511 Y103.599 E11.61505
G1 X141.775 Y104.240 E11.74397
G1 X142.898 Y105.106 E11.87289
G1 X143.835 Y106.161 E12.00120
G1 X144.563 Y107.378 E12.13012
G1 X145.051 Y108.709 E12.25904
G1 X145.281 Y110.108 E12.38797
G1 X145.295 Y171.203 E17.94333
G1 X145.094 Y172.682 E18.07902
G1 X144.607 Y174.093 E18.21470
G1 X143.853 Y175.380 E18.35039
G1 X142.860 Y176.494 E18.48608
G1 X141.784 Y177.320 E18.60946
G1 X140.577 Y177.941 E18.73285
G1 X139.279 Y178.335 E18.85623
G1 X137.931 Y178.491 E18.97962
G1 X63.960 Y178.494 E25.70577
G1 X62.422 Y178.327 E25.84637
G1 X60.945 Y177.849 E25.98759
G1 X59.602 Y177.083 E26.12819
G1 X58.438 Y176.055 E26.26941
G1 X57.615 Y174.984 E26.39218
G1 X56.999 Y173.790 E26.51434
G1 X56.603 Y172.500 E26.63711
G1 X56.442 Y171.159 E26.75988
G1 X56.438 Y110.586 E32.26771
G1 X56.606 Y109.049 E32.40832
G1 X57.083 Y107.578 E32.54892
G1 X57.819 Y106.287 E32.68407
G1 X58.361 Y106.599 F4800.000
G1 F1800
G1 X59.324 Y105.510 E32.81626
G1 X60.312 Y104.758 E32.92912
G1 X61.418 Y104.195 E33.04198
G1 X62.607 Y103.838 E33.15485
G1 X63.840 Y103.698 E33.26771
G1 X137.737 Y103.697 E39.98716
G1 X139.031 Y103.818 E40.10532
G1 X140.286 Y104.182 E40.22408
G1 X141.450 Y104.774 E40.34283
G1 X142.482 Y105.573 E40.46158
G1 X143.347 Y106.552 E40.58034
G1 X144.012 Y107.676 E40.69909
G1 X144.454 Y108.898 E40.81725
G1 X144.660 Y110.188 E40.93601
G1 X144.671 Y171.166 E46.48075
G1 X144.488 Y172.531 E46.60598
G1 X144.036 Y173.839 E46.73180
G1 X143.338 Y175.026 E46.85703
G1 X142.414 Y176.056 E46.98285
G1 X141.426 Y176.807 E47.09571
G1 X140.320 Y177.370 E47.20857
G1 X139.131 Y177.728 E47.32143
G1 X137.898 Y177.867 E47.43429
G1 X63.961 Y177.869 E54.15730
G1 X62.541 Y177.714 E54.28724
G1 X61.182 Y177.271 E54.41718
G1 X59.943 Y176.559 E54.54712
G1 X58.876 Y175.608 E54.67706
G1 X58.132 Y174.631 E54.78874
G1 X57.569 Y173.532 E54.90101
G1 X57.210 Y172.351 E55.01328
G1 X57.066 Y171.125 E55.12555
G1 X57.063 Y110.588 E60.63009
G1 X57.220 Y109.168 E60.76003
G1 X57.664 Y107.810 E60.88997
G1 X58.331 Y106.651 E61.01156
G1 X58.871 Y106.963 F4800.000
G1 F1800
G1 X59.767 Y105.951 E61.13451
G1 X60.663 Y105.276 E61.23654
G1 X61.671 Y104.767 E61.33912
G1 X62.746 Y104.447 E61.44114
G1 X63.867 Y104.323 E61.54373
G1 X137.737 Y104.322 E68.26070
G1 X138.922 Y104.434 E68.36891
G1 X140.065 Y104.766 E68.47712
G1 X141.125 Y105.307 E68.58532
G1 X142.064 Y106.038 E68.69353
G1 X142.850 Y106.931 E68.80173
G1 X143.454 Y107.957 E68.90994
G1 X143.855 Y109.077 E69.01814
G1 X144.039 Y110.259 E69.12691
G1 X144.047 Y171.130 E74.66192
G1 X143.881 Y172.383 E74.77687
G1 X143.466 Y173.584 E74.89237
G1 X142.818 Y174.677 E75.00788
G1 X141.970 Y175.615 E75.12283
G1 X141.074 Y176.290 E75.22485
G1 X140.067 Y176.798 E75.32744
G1 X138.992 Y177.118 E75.42946
G1 X137.871 Y177.243 E75.53205
G1 X63.969 Y177.244 E82.25184
G1 X62.670 Y177.102 E82.37072
G1 X61.427 Y176.696 E82.48959
G1 X60.295 Y176.042 E82.60847
G1 X59.318 Y175.165 E82.72791
G1 X58.645 Y174.274 E82.82937
G1 X58.138 Y173.273 E82.93139
G1 X57.818 Y172.204 E83.03286
G1 X57.690 Y171.090 E83.13488
G1 X57.688 Y110.597 E88.63548
G1 X57.831 Y109.297 E88.75436
G1 X58.239 Y108.055 E88.87323
G1 X58.841 Y107.015 E88.98249
G1 X59.841 Y107.798 F4800.000
G1 F1800
G1 X60.877 Y106.703 E89.11956
G1 X61.774 Y106.117 E89.21697
G1 X62.506 Y105.826 E89.28858
G1 X63.275 Y105.661 E89.36013
G1 X65.691 Y105.635 E89.57982
G1 X65.875 Y105.653 E89.59662
G1 X66.053 Y105.635 E89.61291
G1 X68.197 Y105.635 E89.80783
G1 X68.375 Y105.653 E89.82410
G1 X68.553 Y105.635 E89.84037
G1 X70.696 Y105.635 E90.03529
G1 X70.874 Y105.653 E90.05156
G1 X71.052 Y105.635 E90.06783
G1 X73.196 Y105.635 E90.26275
G1 X73.374 Y105.653 E90.27901
G1 X73.552 Y105.635 E90.29528
G1 X75.695 Y105.635 E90.49020
G1 X75.873 Y105.653 E90.50647
G1 X76.051 Y105.635 E90.52274
G1 X78.195 Y105.635 E90.71766
G1 X78.373 Y105.653 E90.73393
G1 X78.551 Y105.635 E90.75019
G1 X80.694 Y105.635 E90.94511
G1 X80.873 Y105.653 E90.96147
G1 X81.057 Y105.634 E90.97829
G1 X85.694 Y105.635 E91.39989
G1 X85.872 Y105.653 E91.41612
G1 X86.050 Y105.635 E91.43239
G1 X88.193 Y105.635 E91.62731
G1 X88.371 Y105.653 E91.64358
G1 X88.549 Y105.635 E91.65985
G1 X90.693 Y105.635 E91.85477
G1 X90.871 Y105.653 E91.87103
G1 X91.049 Y105.635 E91.88730
G1 X93.192 Y105.635 E92.08222
G1 X93.370 Y105.653 E92.09849
G1 X93.548 Y105.635 E92.11476
G1 X95.692 Y105.635 E92.30968
G1 X95.870 Y105.653 E92.32595
G1 X96.048 Y105.635 E92.34221
G1 X98.191 Y105.635 E92.53714
G1 X98.369 Y105.653 E92.55340
G1 X98.547 Y105.635 E92.56967
G1 X100.691 Y105.635 E92.76459
G1 X100.869 Y105.653 E92.78086
G1 X101.047 Y105.635 E92.79713
G1 X103.190 Y105.635 E92.99205
G1 X103.368 Y105.653 E93.00831
G1 X103.546 Y105.635 E93.02458
G1 X105.690 Y105.635 E93.21950
G1 X105.868 Y105.653 E93.23577
G1 X106.046 Y105.635 E93.25204
G1 X108.190 Y105.635 E93.44696
G1 X108.368 Y105.653 E93.46323
G1 X108.546 Y105.635 E93.47949
G1 X110.689 Y105.635 E93.67441
G1 X110.867 Y105.653 E93.69068
G1 X111.045 Y105.635 E93.70695
G1 X113.189 Y105.635 E93.90187
G1 X113.367 Y105.653 E93.91814
G1 X113.545 Y105.635 E93.93441
G1 X115.688 Y105.635 E94.12933
G1 X115.866 Y105.653 E94.14559
G1 X116.044 Y105.635 E94.16186
G1 X118.188 Y105.635 E94.35678
G1 X118.366 Y105.653 E94.37305
G1 X118.544 Y105.635 E94.38932
G1 X120.687 Y105.635 E94.58424
G1 X120.865 Y105.653 E94.60051
G1 X121.043 Y105.635 E94.61677
G1 X123.187 Y105.635 E94.81169
G1 X123.365 Y105.653 E94.82796
G1 X123.543 Y105.635 E94.84423
G1 X125.687 Y105.635 E95.03915
G1 X125.864 Y105.653 E95.05542
G1 X126.042 Y105.635 E95.07169
G1 X128.186 Y105.635 E95.26661
G1 X128.364 Y105.653 E95.28287
G1 X128.542 Y105.635 E95.29914
G1 X130.686 Y105.635 E95.49406
G1 X130.864 Y105.653 E95.51033
G1 X131.042 Y105.635 E95.52660
G1 X133.185 Y105.635 E95.72152
G1 X133.363 Y105.653 E95.73779
G1 X133.541 Y105.635 E95.75405
G1 X135.685 Y105.635 E95.94897
G1 X135.863 Y105.653 E95.96524
G1 X136.041 Y105.635 E95.98151
G1 X138.207 Y105.635 E96.17850
G1 X139.190 Y105.815 E96.26940
G1 X140.137 Y106.207 E96.36254
G1 X140.914 Y106.747 E96.44866
G1 X141.635 Y107.468 E96.54134
G1 X142.151 Y108.213 E96.62369
G1 X142.502 Y109.005 E96.70252
G1 X142.737 Y110.165 E96.81015
G1 X142.737 Y171.501 E102.38737
G1 X142.574 Y172.365 E102.46736
G1 X142.191 Y173.250 E102.55503
G1 X141.753 Y173.857 E102.62307
G1 X140.962 Y174.648 E102.72476
G1 X140.201 Y175.163 E102.80832
G1 X139.552 Y175.435 E102.87231
G1 X138.923 Y175.586 E102.93111
G1 X137.234 Y175.617 E103.08477
G1 X136.947 Y175.650 E103.11102
G1 X134.791 Y175.650 E103.30705
G1 X134.613 Y175.631 E103.32332
G1 X134.435 Y175.650 E103.33959
G1 X132.279 Y175.650 E103.53562
G1 X132.003 Y175.618 E103.56086
G1 X130.974 Y175.618 E103.65449
G1 X130.698 Y175.650 E103.67973
G1 X128.542 Y175.650 E103.87576
G1 X128.364 Y175.631 E103.89203
G1 X128.186 Y175.650 E103.90829
G1 X126.042 Y175.650 E104.10321
G1 X125.864 Y175.631 E104.11948
G1 X125.686 Y175.650 E104.13575
G1 X123.543 Y175.650 E104.33067
G1 X123.365 Y175.631 E104.34694
G1 X123.187 Y175.650 E104.36321
G1 X121.043 Y175.650 E104.55813
G1 X120.865 Y175.631 E104.57439
G1 X120.687 Y175.650 E104.59066
G1 X118.544 Y175.650 E104.78558
G1 X118.366 Y175.631 E104.80185
G1 X118.188 Y175.650 E104.81812
G1 X116.044 Y175.650 E105.01304
G1 X115.866 Y175.631 E105.02931
G1 X115.688 Y175.650 E105.04557
G1 X113.545 Y175.650 E105.24049
G1 X113.367 Y175.631 E105.25676
G1 X113.189 Y175.650 E105.27303
G1 X111.045 Y175.650 E105.46795
G1 X110.867 Y175.631 E105.48422
G1 X110.689 Y175.650 E105.50049
G1 X108.546 Y175.650 E105.69541
G1 X108.368 Y175.631 E105.71167
G1 X108.190 Y175.650 E105.72794
G1 X106.046 Y175.650 E105.92286
G1 X105.868 Y175.631 E105.93913
G1 X105.690 Y175.650 E105.95540
G1 X103.546 Y175.650 E106.15032
G1 X103.368 Y175.631 E106.16659
G1 X103.190 Y175.650 E106.18285
G1 X101.047 Y175.650 E106.37777
G1 X100.869 Y175.631 E106.39404
G1 X100.691 Y175.650 E106.41031
G1 X98.547 Y175.650 E106.60523
G1 X98.369 Y175.631 E106.62150
G1 X98.191 Y175.650 E106.63777
G1 X96.048 Y175.650 E106.83269
G1 X95.870 Y175.631 E106.84895
G1 X95.692 Y175.650 E106.86522
G1 X93.548 Y175.650 E107.06014
G1 X93.370 Y175.631 E107.07641
G1 X93.192 Y175.650 E107.09268
G1 X91.049 Y175.650 E107.28760
G1 X90.871 Y175.631 E107.30387
G1 X90.693 Y175.650 E107.32013
G1 X88.549 Y175.650 E107.51505
G1 X88.371 Y175.631 E107.53132
G1 X88.193 Y175.650 E107.54759
G1 X86.050 Y175.650 E107.74251
G1 X85.872 Y175.631 E107.75878
G1 X85.694 Y175.650 E107.77505
G1 X83.550 Y175.650 E107.96997
G1 X83.372 Y175.631 E107.98623
G1 X83.194 Y175.650 E108.00250
G1 X81.050 Y175.650 E108.19742
G1 X80.872 Y175.631 E108.21369
G1 X80.694 Y175.650 E108.22996
G1 X78.551 Y175.650 E108.42488
G1 X78.373 Y175.631 E108.44115
G1 X78.195 Y175.650 E108.45741
G1 X76.051 Y175.650 E108.65233
G1 X75.873 Y175.631 E108.66860
G1 X75.695 Y175.650 E108.68487
G1 X73.552 Y175.650 E108.87979
G1 X73.374 Y175.631 E108.89606
G1 X73.196 Y175.650 E108.91233
G1 X71.040 Y175.650 E109.10836
G1 X70.764 Y175.618 E109.13359
G1 X69.734 Y175.618 E109.22723
G1 X69.459 Y175.650 E109.25246
G1 X67.303 Y175.650 E109.44849
G1 X67.125 Y175.631 E109.46476
G1 X66.947 Y175.650 E109.48103
G1 X64.791 Y175.650 E109.67706
G1 X64.515 Y175.618 E109.70230
G1 X63.120 Y175.618 E109.82913
G1 X62.160 Y175.427 E109.91820
G1 X61.604 Y175.197 E109.97286
G1 X61.071 Y174.883 E110.02916
G1 X59.947 Y173.811 E110.17040
G1 X59.426 Y173.023 E110.25632
G1 X59.137 Y172.274 E110.32928
G1 X59.001 Y171.499 E110.40089
G1 X59.001 Y110.165 E115.97790
G1 X59.228 Y109.025 E116.08361
G1 X59.497 Y108.382 E116.14700
G1 X59.811 Y107.850 E116.20318
G1 X60.361 Y108.147 F4800.000
G1 F1800
G1 X61.303 Y107.161 E116.32714
G1 X62.033 Y106.686 E116.40635
G1 X62.711 Y106.417 E116.47264
G1 X63.372 Y106.279 E116.53403
G1 X65.674 Y106.260 E116.74344
G1 X65.875 Y106.283 E116.76181
G1 X66.073 Y106.260 E116.77994
G1 X68.177 Y106.260 E116.97120
G1 X68.375 Y106.283 E116.98933
G1 X68.573 Y106.260 E117.00747
G1 X70.676 Y106.260 E117.19873
G1 X70.874 Y106.283 E117.21686
G1 X71.072 Y106.260 E117.23499
G1 X73.176 Y106.260 E117.42625
G1 X73.374 Y106.283 E117.44439
G1 X73.572 Y106.260 E117.46252
G1 X75.675 Y106.260 E117.65378
G1 X75.873 Y106.283 E117.67191
G1 X76.071 Y106.260 E117.69005
G1 X78.175 Y106.260 E117.88131
G1 X78.373 Y106.283 E117.89944
G1 X78.571 Y106.260 E117.91757
G1 X80.674 Y106.260 E118.10883
G1 X80.873 Y106.283 E118.12703
G1 X81.076 Y106.259 E118.14559
G1 X83.247 Y106.266 E118.34300
G1 X83.385 Y106.281 E118.35564
G1 X83.570 Y106.260 E118.37259
G1 X85.673 Y106.260 E118.56383
G1 X85.872 Y106.283 E118.58196
G1 X86.070 Y106.260 E118.60009
G1 X88.173 Y106.260 E118.79135
G1 X88.371 Y106.283 E118.80949
G1 X88.569 Y106.260 E118.82762
G1 X90.673 Y106.260 E119.01888
G1 X90.871 Y106.283 E119.03701
G1 X91.069 Y106.260 E119.05515
G1 X93.172 Y106.260 E119.24641
G1 X93.370 Y106.283 E119.26454
G1 X93.568 Y106.260 E119.28267
G1 X95.672 Y106.260 E119.47393
G1 X95.870 Y106.283 E119.49207
G1 X96.068 Y106.260 E119.51020
G1 X98.171 Y106.260 E119.70146
G1 X98.369 Y106.283 E119.71959
G1 X98.567 Y106.260 E119.73773
G1 X100.671 Y106.260 E119.92899
G1 X100.869 Y106.283 E119.94712
G1 X101.067 Y106.260 E119.96525
G1 X103.170 Y106.260 E120.15651
G1 X103.368 Y106.283 E120.17465
G1 X103.567 Y106.260 E120.19278
G1 X105.670 Y106.260 E120.38404
G1 X105.868 Y106.283 E120.40217
G1 X106.066 Y106.260 E120.42031
G1 X108.169 Y106.260 E120.61157
G1 X108.368 Y106.283 E120.62970
G1 X108.566 Y106.260 E120.64783
G1 X110.669 Y106.260 E120.83909
G1 X110.867 Y106.283 E120.85723
G1 X111.065 Y106.260 E120.87536
G1 X113.169 Y106.260 E121.06662
G1 X113.367 Y106.283 E121.08475
G1 X113.565 Y106.260 E121.10289
G1 X115.668 Y106.260 E121.29415
G1 X115.866 Y106.283 E121.31228
G1 X116.064 Y106.260 E121.33041
G1 X118.168 Y106.260 E121.52167
G1 X118.366 Y106.283 E121.53981
G1 X118.564 Y106.260 E121.55794
G1 X120.667 Y106.260 E121.74920
G1 X120.865 Y106.283 E121.76733
G1 X121.063 Y106.260 E121.78547
G1 X123.167 Y106.260 E121.97673
G1 X123.365 Y106.283 E121.99486
G1 X123.563 Y106.260 E122.01299
G1 X125.666 Y106.260 E122.20425
G1 X125.864 Y106.283 E122.22239
G1 X126.063 Y106.260 E122.24052
G1 X128.166 Y106.260 E122.43178
G1 X128.364 Y106.283 E122.44991
G1 X128.562 Y106.260 E122.46805
G1 X130.665 Y106.260 E122.65931
G1 X130.864 Y106.283 E122.67744
G1 X131.062 Y106.260 E122.69557
G1 X133.165 Y106.260 E122.88683
G1 X133.363 Y106.283 E122.90497
G1 X133.561 Y106.260 E122.92310
G1 X135.665 Y106.260 E123.11436
G1 X135.863 Y106.283 E123.13249
G1 X136.061 Y106.260 E123.15063
G1 X138.177 Y106.260 E123.34307
G1 X139.040 Y106.422 E123.42293
G1 X139.861 Y106.768 E123.50391
G1 X140.531 Y107.242 E123.57855
G1 X141.140 Y107.850 E123.65679
G1 X141.592 Y108.495 E123.72840
G1 X141.917 Y109.227 E123.80124
G1 X142.112 Y110.196 E123.89112
G1 X142.112 Y171.470 E129.46272
G1 X141.968 Y172.210 E129.53125
G1 X141.634 Y172.966 E129.60639
G1 X141.294 Y173.432 E129.65884
G1 X140.542 Y174.183 E129.75549
G1 X139.881 Y174.626 E129.82787
G1 X139.375 Y174.835 E129.87761
G1 X138.874 Y174.962 E129.92464
G1 X137.188 Y174.993 E130.07792
G1 X136.926 Y175.025 E130.10193
G1 X134.811 Y175.025 E130.29428
G1 X134.613 Y175.002 E130.31242
G1 X134.415 Y175.025 E130.33055
G1 X132.299 Y175.025 E130.52291
G1 X132.043 Y174.993 E130.54643
G1 X130.934 Y174.993 E130.64721
G1 X130.678 Y175.025 E130.67072
G1 X128.562 Y175.025 E130.86308
G1 X128.364 Y175.002 E130.88122
G1 X128.166 Y175.025 E130.89935
G1 X126.063 Y175.025 E131.09061
G1 X125.864 Y175.002 E131.10874
G1 X125.666 Y175.025 E131.12688
G1 X123.563 Y175.025 E131.31814
G1 X123.365 Y175.002 E131.33627
G1 X123.167 Y175.025 E131.35440
G1 X121.063 Y175.025 E131.54566
G1 X120.865 Y175.002 E131.56380
G1 X120.667 Y175.025 E131.58193
G1 X118.564 Y175.025 E131.77319
G1 X118.366 Y175.002 E131.79132
G1 X118.168 Y175.025 E131.80946
G1 X116.064 Y175.025 E132.00072
G1 X115.866 Y175.002 E132.01885
G1 X115.668 Y175.025 E132.03698
G1 X113.565 Y175.025 E132.22824
G1 X113.367 Y175.002 E132.24638
G1 X113.169 Y175.025 E132.26451
G1 X111.065 Y175.025 E132.45577
G1 X110.867 Y175.002 E132.47390
G1 X110.669 Y175.025 E132.49204
G1 X108.566 Y175.025 E132.68330
G1 X108.368 Y175.002 E132.70143
G1 X108.169 Y175.025 E132.71956
G1 X106.066 Y175.025 E132.91082
G1 X105.868 Y175.002 E132.92896
G1 X105.670 Y175.025 E132.94709
G1 X103.567 Y175.025 E133.13835
G1 X103.368 Y175.002 E133.15648
G1 X103.170 Y175.025 E133.17462
G1 X101.067 Y175.025 E133.36588
G1 X100.869 Y175.002 E133.38401
G1 X100.671 Y175.025 E133.40214
G1 X98.567 Y175.025 E133.59340
G1 X98.369 Y175.002 E133.61154
G1 X98.171 Y175.025 E133.62967
G1 X96.068 Y175.025 E133.82093
G1 X95.870 Y175.002 E133.83906
G1 X95.672 Y175.025 E133.85720
G1 X93.568 Y175.025 E134.04846
G1 X93.370 Y175.002 E134.06659
G1 X93.172 Y175.025 E134.08472
