; generated by Slic3r Prusa Edition 1.40.1+win64 on 2018-10-07 at 12:17:21

; 

; external perimeters extrusion width = 0.45mm
; perimeters extrusion width = 0.45mm
; infill extrusion width = 0.45mm
; solid infill extrusion width = 0.45mm
; top infill extrusion width = 0.40mm
; support material extrusion width = 0.40mm
; first layer extrusion width = 0.70mm

M107
M190 S60 ; set bed temperature and wait for it to be reached
M104 S210 ; set temperature
G28 ; home all axes
G1 Z5 F5000 ; lift nozzle
; Filament gcode
M109 S210 ; set temperature and wait for it to be reached
G21 ; set units to millimeters
G90 ; use absolute coordinates
M82 ; use absolute distances for extrusion
G92 E0
G1 E-4.00000 F2400.00000
G92 E0
G1 Z0.350 F4800.000
G1 Z0.650
G1 X59.966 Y103.968
G1 Z0.350
G1 E4.00000 F2400.00000
G1 F1800
G1 X61.230 Y103.327 E4.12892
G1 X62.592 Y102.933 E4.25784
G1 X64.004 Y102.801 E4.38677
G1 X136.714 Y103.086 E10.99828
G1 X138.061 Y103.248 E11.12167
G1 X139.364 Y103.651 E11.24567
G1 X140.573 Y104.281 E11.36967
G1 X141.650 Y105.118 E11.49367
G1 X142.658 Y106.273 E11.63305
G1 X143.416 Y107.613 E11.77304
G1 X143.886 Y109.079 E11.91303
G1 X144.050 Y110.603 E12.05240
G1 X144.046 Y170.751 E17.52163
G1 X143.882 Y172.098 E17.64502
G1 X143.480 Y173.394 E17.76840
G1 X142.852 Y174.597 E17.89179
G1 X142.015 Y175.674 E18.01579
G1 X140.856 Y176.686 E18.15578
G1 X139.509 Y177.446 E18.29638
G1 X138.035 Y177.915 E18.43698
G1 X136.497 Y178.075 E18.57759
G1 X63.774 Y177.791 E25.19034
G1 X62.427 Y177.629 E25.31373
G1 X61.124 Y177.226 E25.43773
G1 X59.915 Y176.596 E25.56173
G1 X58.838 Y175.758 E25.68573
G1 X57.862 Y174.648 E25.82019
G1 X57.120 Y173.369 E25.95464
G1 X56.641 Y171.970 E26.08910
G1 X56.443 Y170.505 E26.22356
G1 X56.457 Y109.834 E31.74031
G1 X56.688 Y108.435 E31.86924
G1 X57.177 Y107.104 E31.99816
G1 X57.905 Y105.888 E32.12708
G1 X58.848 Y104.829 E32.25600
G1 X59.918 Y104.004 E32.37885
G1 X60.290 Y104.502 F4800.000
G1 F1800
G1 X61.454 Y103.910 E32.49761
G1 X62.709 Y103.547 E32.61636
G1 X64.009 Y103.426 E32.73511
G1 X136.677 Y103.710 E39.34283
G1 X137.910 Y103.855 E39.45569
G1 X139.103 Y104.219 E39.56914
G1 X140.212 Y104.792 E39.68259
G1 X141.200 Y105.553 E39.79604
G1 X142.136 Y106.616 E39.92480
G1 X142.836 Y107.847 E40.05357
G1 X143.272 Y109.194 E40.18233
G1 X143.425 Y110.609 E40.31168
G1 X143.422 Y170.708 E45.77652
G1 X143.276 Y171.941 E45.88938
G1 X142.911 Y173.134 E46.00283
G1 X142.341 Y174.237 E46.11569
G1 X141.579 Y175.225 E46.22914
G1 X140.511 Y176.164 E46.35849
G1 X139.268 Y176.869 E46.48843
G1 X137.913 Y177.303 E46.61778
G1 X136.498 Y177.451 E46.74714
G1 X63.811 Y177.167 E53.35663
G1 X62.578 Y177.022 E53.46949
G1 X61.385 Y176.657 E53.58294
G1 X60.276 Y176.085 E53.69639
G1 X59.288 Y175.323 E53.80984
G1 X58.383 Y174.303 E53.93389
G1 X57.692 Y173.119 E54.05854
G1 X57.249 Y171.828 E54.18259
G1 X57.067 Y170.470 E54.30723
G1 X57.078 Y109.908 E59.81405
G1 X57.284 Y108.625 E59.93221
G1 X57.729 Y107.397 E60.05096
G1 X58.396 Y106.275 E60.16972
G1 X59.262 Y105.297 E60.28847
G1 X60.242 Y104.539 E60.40118
G1 X60.611 Y105.038 F4800.000
G1 F1800
G1 X61.676 Y104.494 E60.50994
G1 X62.819 Y104.163 E60.61815
G1 X64.004 Y104.051 E60.72636
G1 X136.649 Y104.334 E67.33196
G1 X137.769 Y104.464 E67.43455
G1 X138.849 Y104.791 E67.53713
G1 X139.859 Y105.308 E67.64028
G1 X140.755 Y105.993 E67.74287
G1 X141.614 Y106.962 E67.86062
G1 X142.258 Y108.086 E67.97838
G1 X142.660 Y109.323 E68.09669
G1 X142.800 Y110.610 E68.21445
G1 X142.798 Y170.675 E73.67605
G1 X142.668 Y171.795 E73.77863
G1 X142.341 Y172.875 E73.88122
G1 X141.828 Y173.879 E73.98381
G1 X141.139 Y174.781 E74.08695
G1 X140.165 Y175.644 E74.20527
G1 X139.035 Y176.289 E74.32358
G1 X137.797 Y176.688 E74.44190
G1 X136.497 Y176.826 E74.56078
G1 X63.839 Y176.542 E81.16751
G1 X62.719 Y176.413 E81.27010
G1 X61.639 Y176.086 E81.37268
G1 X60.629 Y175.569 E81.47583
G1 X59.733 Y174.884 E81.57842
G1 X58.899 Y173.950 E81.69224
G1 X58.263 Y172.865 E81.80663
G1 X57.855 Y171.675 E81.92101
G1 X57.691 Y170.428 E82.03540
G1 X57.699 Y109.985 E87.53141
G1 X57.882 Y108.809 E87.63961
G1 X58.283 Y107.689 E87.74782
G1 X58.886 Y106.663 E87.85602
G1 X59.672 Y105.769 E87.96423
G1 X60.564 Y105.075 E88.06698
G1 E84.06698 F2400.00000
G92 E0
G1 Z0.650 F4800.000
G1 X64.000 Y110.363
G1 Z0.350
G1 E4.00000 F2400.00000
G1 F1800
G1 X64.000 Y170.232 E9.44382
G1 X65.250 Y170.232 E9.55746
G1 X65.250 Y110.645 E14.97571
G1 X66.500 Y110.645 E15.08936
G1 X66.500 Y170.232 E20.50761
G1 X67.750 Y170.232 E20.62125
G1 X67.750 Y110.645 E26.03950
G1 X69.000 Y110.645 E26.15314
G1 X69.000 Y114.988 E26.54804
G1 X68.288 Y114.988 E26.61276
G1 X67.988 Y115.288 E26.65137
G1 X67.988 Y164.712 E31.14552
G1 X68.288 Y165.012 E31.18412
G1 X69.000 Y165.012 E31.24884
G1 X69.000 Y170.232 E31.72346
G1 X70.249 Y170.232 E31.83710
G1 X70.249 Y165.012 E32.31171
G1 X71.499 Y165.012 E32.42536
G1 X71.499 Y170.232 E32.89997
G1 X72.749 Y170.232 E33.01361
G1 X72.749 Y165.012 E33.48823
G1 X73.999 Y165.012 E33.60187
G1 X73.999 Y170.232 E34.07649
G1 X75.248 Y170.232 E34.19013
G1 X75.248 Y165.012 E34.66474
G1 X76.498 Y165.012 E34.77838
G1 X76.498 Y170.232 E35.25300
G1 X77.748 Y170.232 E35.36664
G1 X77.748 Y165.012 E35.84126
G1 X78.998 Y165.012 E35.95490
G1 X78.998 Y170.232 E36.42951
G1 X80.248 Y170.232 E36.54316
G1 X80.248 Y165.012 E37.01777
G1 X81.497 Y165.012 E37.13141
G1 X81.497 Y170.232 E37.60603
G1 X82.747 Y170.232 E37.71967
G1 X82.747 Y165.012 E38.19428
G1 X83.997 Y165.012 E38.30793
G1 X83.997 Y170.232 E38.78254
G1 X85.247 Y170.232 E38.89618
G1 X85.247 Y165.012 E39.37080
G1 X86.496 Y165.012 E39.48444
G1 X86.496 Y170.232 E39.95906
G1 X87.746 Y170.232 E40.07270
G1 X87.746 Y165.012 E40.54731
G1 X88.996 Y165.012 E40.66095
G1 X88.996 Y170.232 E41.13557
G1 X90.246 Y170.232 E41.24921
G1 X90.246 Y165.012 E41.72383
G1 X91.496 Y165.012 E41.83747
G1 X91.496 Y170.232 E42.31208
G1 X92.745 Y170.232 E42.42573
G1 X92.745 Y165.012 E42.90034
G1 X93.995 Y165.012 E43.01398
G1 X93.995 Y170.232 E43.48860
G1 X95.245 Y170.232 E43.60224
G1 X95.245 Y165.012 E44.07685
G1 X96.495 Y165.012 E44.19050
G1 X96.495 Y170.232 E44.66511
G1 X97.744 Y170.232 E44.77875
G1 X97.744 Y165.012 E45.25337
G1 X98.994 Y165.012 E45.36701
G1 X98.994 Y170.232 E45.84163
G1 X100.244 Y170.232 E45.95527
G1 X100.244 Y165.012 E46.42988
G1 X101.494 Y165.012 E46.54352
G1 X101.494 Y170.232 E47.01814
G1 X102.744 Y170.232 E47.13178
G1 X102.744 Y165.012 E47.60640
G1 X103.993 Y165.012 E47.72004
G1 X103.993 Y170.232 E48.19465
G1 X105.243 Y170.232 E48.30830
G1 X105.243 Y165.012 E48.78291
G1 X106.493 Y165.012 E48.89655
G1 X106.493 Y170.232 E49.37117
G1 X107.743 Y170.232 E49.48481
G1 X107.743 Y165.012 E49.95942
G1 X108.992 Y165.012 E50.07307
G1 X108.992 Y170.232 E50.54768
G1 X110.242 Y170.232 E50.66132
G1 X110.242 Y165.012 E51.13594
G1 X111.492 Y165.012 E51.24958
G1 X111.492 Y170.232 E51.72420
G1 X112.742 Y170.232 E51.83784
G1 X112.742 Y165.012 E52.31245
G1 X113.992 Y165.012 E52.42609
G1 X113.992 Y170.232 E52.90071
G1 X115.241 Y170.232 E53.01435
G1 X115.241 Y165.012 E53.48897
G1 X116.491 Y165.012 E53.60261
G1 X116.491 Y170.232 E54.07722
G1 X117.741 Y170.232 E54.19087
G1 X117.741 Y165.012 E54.66548
G1 X118.991 Y165.012 E54.77912
G1 X118.991 Y170.232 E55.25374
G1 X120.240 Y170.232 E55.36738
G1 X120.240 Y165.012 E55.84199
G1 X121.490 Y165.012 E55.95564
G1 X121.490 Y170.232 E56.43025
G1 X122.740 Y170.232 E56.54389
G1 X122.740 Y165.012 E57.01851
G1 X123.990 Y165.012 E57.13215
G1 X123.990 Y170.232 E57.60677
G1 X125.240 Y170.232 E57.72041
G1 X125.240 Y165.012 E58.19502
G1 X126.489 Y165.012 E58.30866
G1 X126.489 Y170.232 E58.78328
G1 X127.739 Y170.232 E58.89692
G1 X127.739 Y165.012 E59.37154
G1 X128.989 Y165.012 E59.48518
G1 X128.989 Y170.232 E59.95979
G1 X130.239 Y170.232 E60.07344
G1 X130.239 Y165.012 E60.54805
G1 X131.488 Y165.012 E60.66169
G1 X131.488 Y170.232 E61.13631
G1 X132.738 Y170.232 E61.24995
G1 X132.738 Y110.645 E66.66820
G1 X133.988 Y110.645 E66.78184
G1 X133.988 Y170.232 E72.20010
G1 X135.238 Y170.232 E72.31374
G1 X135.238 Y110.645 E77.73199
G1 X136.488 Y110.645 E77.84563
G1 X136.488 Y170.513 E83.28945
G1 E79.28945 F2400.00000
G92 E0
G1 Z0.650 F4800.000
G1 X131.488 Y115.269
G1 Z0.350
G1 E4.00000 F2400.00000
G1 F1800
G1 X131.488 Y110.645 E4.42046
G1 X130.239 Y110.645 E4.53411
G1 X130.239 Y114.988 E4.92900
G1 X128.989 Y114.988 E5.04264
G1 X128.989 Y110.645 E5.43754
G1 X127.739 Y110.645 E5.55118
G1 X127.739 Y114.988 E5.94607
G1 X126.489 Y114.988 E6.05971
G1 X126.489 Y110.645 E6.45461
G1 X125.240 Y110.645 E6.56825
G1 X125.240 Y114.988 E6.96315
G1 X123.990 Y114.988 E7.07679
G1 X123.990 Y110.645 E7.47168
G1 X122.740 Y110.645 E7.58532
G1 X122.740 Y114.988 E7.98022
G1 X121.490 Y114.988 E8.09386
G1 X121.490 Y110.645 E8.48875
G1 X120.240 Y110.645 E8.60240
G1 X120.240 Y114.988 E8.99729
G1 X118.991 Y114.988 E9.11093
G1 X118.991 Y110.645 E9.50583
G1 X117.741 Y110.645 E9.61947
G1 X117.741 Y114.988 E10.01436
G1 X116.491 Y114.988 E10.12801
G1 X116.491 Y110.645 E10.52290
G1 X115.241 Y110.645 E10.63654
G1 X115.241 Y114.988 E11.03144
G1 X113.992 Y114.988 E11.14508
G1 X113.992 Y110.645 E11.53997
G1 X112.742 Y110.645 E11.65361
G1 X112.742 Y114.988 E12.04851
G1 X111.492 Y114.988 E12.16215
G1 X111.492 Y110.645 E12.55705
G1 X110.242 Y110.645 E12.67069
G1 X110.242 Y114.988 E13.06558
G1 X108.992 Y114.988 E13.17922
G1 X108.992 Y110.645 E13.57412
G1 X107.743 Y110.645 E13.68776
G1 X107.743 Y114.988 E14.08266
G1 X106.493 Y114.988 E14.19630
G1 X106.493 Y110.645 E14.59119
G1 X105.243 Y110.645 E14.70483
G1 X105.243 Y114.988 E15.09973
G1 X103.993 Y114.988 E15.21337
G1 X103.993 Y110.645 E15.60826
G1 X102.744 Y110.645 E15.72191
G1 X102.744 Y114.988 E16.11680
G1 X101.494 Y114.988 E16.23044
G1 X101.494 Y110.645 E16.62534
G1 X100.244 Y110.645 E16.73898
G1 X100.244 Y114.988 E17.13387
G1 X98.994 Y114.988 E17.24752
G1 X98.994 Y110.645 E17.64241
G1 X97.744 Y110.645 E17.75605
G1 X97.744 Y114.988 E18.15095
G1 X96.495 Y114.988 E18.26459
G1 X96.495 Y110.645 E18.65948
G1 X95.245 Y110.645 E18.77312
G1 X95.245 Y114.988 E19.16802
G1 X93.995 Y114.988 E19.28166
G1 X93.995 Y110.645 E19.67656
G1 X92.745 Y110.645 E19.79020
G1 X92.745 Y114.988 E20.18509
G1 X91.496 Y114.988 E20.29873
G1 X91.496 Y110.645 E20.69363
G1 X90.246 Y110.645 E20.80727
G1 X90.246 Y114.988 E21.20216
G1 X88.996 Y114.988 E21.31581
G1 X88.996 Y110.645 E21.71070
G1 X87.746 Y110.645 E21.82434
G1 X87.746 Y114.988 E22.21924
G1 X86.496 Y114.988 E22.33288
G1 X86.496 Y110.645 E22.72777
G1 X85.247 Y110.645 E22.84142
G1 X85.247 Y114.988 E23.23631
G1 X83.997 Y114.988 E23.34995
G1 X83.997 Y110.645 E23.74485
G1 X82.747 Y110.645 E23.85849
G1 X82.747 Y114.988 E24.25338
G1 X81.497 Y114.988 E24.36702
G1 X81.497 Y110.645 E24.76192
G1 X80.248 Y110.645 E24.87556
G1 X80.248 Y114.988 E25.27046
G1 X78.998 Y114.988 E25.38410
G1 X78.998 Y110.645 E25.77899
G1 X77.748 Y110.645 E25.89263
G1 X77.748 Y114.988 E26.28753
G1 X76.498 Y114.988 E26.40117
G1 X76.498 Y110.645 E26.79607
G1 X75.248 Y110.645 E26.90971
G1 X75.248 Y114.988 E27.30460
G1 X73.999 Y114.988 E27.41824
G1 X73.999 Y110.645 E27.81314
G1 X72.749 Y110.645 E27.92678
G1 X72.749 Y114.988 E28.32167
G1 X71.499 Y114.988 E28.43532
G1 X71.499 Y110.645 E28.83021
G1 X70.249 Y110.645 E28.94385
G1 X70.249 Y115.269 E29.36432
G1 E25.36432 F2400.00000
G92 E0
G1 Z0.650 F4800.000
G1 X66.500 Y113.500
G1 X114.600 Y161.350
G1 Z0.350
G1 E4.00000 F2400.00000
G1 F1800
G1 X85.400 Y161.350 E6.65510
G1 X85.400 Y158.105 E6.95016
G1 X85.271 Y157.124 E7.04016
G1 X84.933 Y156.307 E7.12055
G1 X84.395 Y155.605 E7.20093
G1 X83.693 Y155.067 E7.28132
G1 X82.876 Y154.729 E7.36170
G1 X81.895 Y154.600 E7.45170
G1 X78.650 Y154.600 E7.74676
G1 X78.650 Y125.400 E10.40187
G1 X81.895 Y125.400 E10.69693
G1 X82.876 Y125.271 E10.78693
G1 X83.693 Y124.933 E10.86731
G1 X84.395 Y124.395 E10.94770
G1 X84.933 Y123.693 E11.02808
G1 X85.271 Y122.876 E11.10847
G1 X85.400 Y121.895 E11.19847
G1 X85.400 Y118.650 E11.49353
G1 X114.600 Y118.650 E14.14863
G1 X114.600 Y121.895 E14.44369
G1 X114.729 Y122.876 E14.53369
G1 X115.067 Y123.693 E14.61408
G1 X115.605 Y124.395 E14.69446
G1 X116.307 Y124.933 E14.77485
G1 X117.124 Y125.271 E14.85523
G1 X118.105 Y125.400 E14.94523
G1 X121.350 Y125.400 E15.24029
G1 X121.350 Y154.600 E17.89539
G1 X118.105 Y154.600 E18.19045
G1 X117.124 Y154.729 E18.28045
G1 X116.307 Y155.067 E18.36084
G1 X115.605 Y155.605 E18.44122
G1 X115.067 Y156.307 E18.52161
G1 X114.729 Y157.124 E18.60199
G1 X114.600 Y158.105 E18.69199
G1 X114.600 Y161.290 E18.98160
G1 X113.975 Y160.725 F4800.000
G1 F1800
G1 X86.025 Y160.725 E21.52306
G1 X86.025 Y158.064 E21.76502
G1 X85.880 Y156.960 E21.86623
G1 X85.479 Y155.992 E21.96157
G1 X84.840 Y155.160 E22.05692
G1 X84.008 Y154.521 E22.15227
G1 X83.040 Y154.120 E22.24761
G1 X81.936 Y153.975 E22.34882
G1 X79.275 Y153.975 E22.59078
G1 X79.275 Y126.025 E25.13224
G1 X81.936 Y126.025 E25.37421
G1 X83.040 Y125.880 E25.47541
G1 X84.008 Y125.479 E25.57076
G1 X84.840 Y124.840 E25.66610
G1 X85.479 Y124.008 E25.76145
G1 X85.880 Y123.040 E25.85680
G1 X86.025 Y121.936 E25.95800
G1 X86.025 Y119.275 E26.19996
G1 X113.975 Y119.275 E28.74143
G1 X113.975 Y121.936 E28.98339
G1 X114.120 Y123.040 E29.08459
G1 X114.521 Y124.008 E29.17994
G1 X115.160 Y124.840 E29.27529
G1 X115.992 Y125.479 E29.37063
G1 X116.960 Y125.880 E29.46598
G1 X118.064 Y126.025 E29.56718
G1 X120.725 Y126.025 E29.80915
G1 X120.725 Y153.975 E32.35061
G1 X118.064 Y153.975 E32.59257
G1 X116.960 Y154.120 E32.69378
G1 X115.992 Y154.521 E32.78912
G1 X115.160 Y155.160 E32.88447
G1 X114.521 Y155.992 E32.97982
G1 X114.120 Y156.960 E33.07516
G1 X113.975 Y158.064 E33.17637
G1 X113.975 Y160.665 E33.41287
G1 X113.350 Y160.100 F4800.000
G1 F1800
G1 X86.650 Y160.100 E35.84069
G1 X86.650 Y158.023 E36.02956
G1 X86.489 Y156.797 E36.14197
G1 X86.024 Y155.677 E36.25228
G1 X85.286 Y154.714 E36.36259
G1 X84.323 Y153.976 E36.47289
G1 X83.203 Y153.511 E36.58320
G1 X81.977 Y153.350 E36.69561
G1 X79.900 Y153.350 E36.88448
G1 X79.900 Y126.650 E39.31230
G1 X81.977 Y126.650 E39.50116
G1 X83.203 Y126.489 E39.61357
G1 X84.323 Y126.024 E39.72388
G1 X85.286 Y125.286 E39.83419
G1 X86.024 Y124.323 E39.94450
G1 X86.489 Y123.203 E40.05480
G1 X86.650 Y121.977 E40.16721
G1 X86.650 Y119.900 E40.35608
G1 X113.350 Y119.900 E42.78390
G1 X113.350 Y121.977 E42.97277
G1 X113.511 Y123.203 E43.08518
G1 X113.976 Y124.323 E43.19548
G1 X114.714 Y125.286 E43.30579
G1 X115.677 Y126.024 E43.41610
G1 X116.797 Y126.489 E43.52641
G1 X118.023 Y126.650 E43.63882
G1 X120.100 Y126.650 E43.82768
G1 X120.100 Y153.350 E46.25550
G1 X118.023 Y153.350 E46.44437
G1 X116.797 Y153.511 E46.55678
G1 X115.677 Y153.976 E46.66709
G1 X114.714 Y154.714 E46.77739
G1 X113.976 Y155.677 E46.88770
G1 X113.511 Y156.797 E46.99801
G1 X113.350 Y158.023 E47.11042
G1 X113.350 Y160.040 E47.29383
G1 X113.343 Y160.500 F4800.000
G1 E43.29383 F2400.00000
G92 E0
G1 Z0.650 F4800.000
G1 X114.000 Y160.750
G1 X114.000 Y162.125
G1 X86.000 Y162.125
G1 X84.206 Y161.540
G1 X82.719 Y161.887
G1 X81.247 Y161.933
G1 X79.332 Y161.555
G1 X77.650 Y160.813
G1 X76.287 Y159.932
G1 X74.555 Y158.445
G1 X74.672 Y156.408
G1 X74.375 Y154.000
G1 X74.375 Y126.000
G1 X79.250 Y126.000
G1 X79.250 Y124.462
G1 X80.467 Y124.822
G1 X81.866 Y124.952
G1 X82.754 Y124.815
G1 X83.449 Y124.510
G1 X83.230 Y124.082
G1 Z0.350
G1 E4.00000 F2400.00000
G1 F1800
G1 X82.604 Y124.377 E4.06297
G1 X81.917 Y124.508 E4.12655
G1 X81.216 Y124.458 E4.19041
G1 X80.574 Y124.250 E4.25184
G1 X79.983 Y123.875 E4.31542
G1 X79.507 Y123.359 E4.37928
G1 X79.182 Y122.767 E4.44070
G1 X79.008 Y122.090 E4.50429
G1 X79.014 Y121.387 E4.56815
G1 X79.182 Y120.733 E4.62958
G1 X79.515 Y120.126 E4.69254
G1 X79.989 Y119.621 E4.75551
G1 X80.580 Y119.247 E4.81909
G1 X81.249 Y119.035 E4.88295
G1 X81.923 Y118.993 E4.94438
G1 X82.604 Y119.123 E5.00734
G1 X83.230 Y119.418 E5.07031
G1 X83.764 Y119.859 E5.13327
G1 X84.171 Y120.419 E5.19624
G1 X84.426 Y121.063 E5.25920
G1 X84.513 Y121.757 E5.32279
G1 X84.419 Y122.453 E5.38665
G1 X84.171 Y123.081 E5.44807
G1 X83.764 Y123.641 E5.51104
G1 X83.276 Y124.044 E5.56855
G1 X82.893 Y123.551 F4800.000
G1 F1800
G1 X82.409 Y123.778 E5.61716
