; generated by Slic3r Prusa Edition 1.40.1+win64 on 2019-03-11 at 14:43:26

; Unselected the "only retract when crossing perimiters" option on the Infill page to see if I can get Z lift when retracting within a layer. Stop the head catching and also not leave a filament trail when travelling.
; Changed layer height from 0.3 to 0.2 to see better output - "Layers and Perimeters" page
; No Brim

; external perimeters extrusion width = 0.45mm
; perimeters extrusion width = 0.45mm
; infill extrusion width = 0.45mm
; solid infill extrusion width = 0.45mm
; top infill extrusion width = 0.40mm
; first layer extrusion width = 0.70mm

M107
M190 S60 ; set bed temperature and wait for it to be reached
M104 S210 ; set temperature
G28 ; home all axes
G1 Z5 F5000 ; lift nozzle
; Filament gcode
M109 S210 ; set temperature and wait for it to be reached
G21 ; set units to millimeters
G90 ; use absolute coordinates
M82 ; use absolute distances for extrusion
G92 E0
G1 E-4.00000 F2400.00000
G92 E0
G1 Z0.350 F4800.000
G1 Z0.650
G1 X40.522 Y69.528
G1 Z0.350
G1 E4.00000 F2400.00000
G1 F1800
G1 X42.281 Y68.648 E4.17890
G1 X44.093 Y67.898 E4.35719
G1 X45.966 Y67.275 E4.53671
G1 X47.866 Y66.791 E4.71500
G1 X49.803 Y66.441 E4.89391
G1 X51.759 Y66.231 E5.07282
G1 X53.732 Y66.161 E5.25234
G1 X55.928 Y66.252 E5.45222
G1 X57.641 Y66.441 E5.60889
G1 X59.324 Y66.740 E5.76433
G1 X61.451 Y67.267 E5.96359
G1 X63.376 Y67.907 E6.14806
G1 X65.396 Y68.758 E6.34732
G1 X66.934 Y69.533 E6.50400
G1 X68.418 Y70.409 E6.66066
G1 X70.231 Y71.652 E6.86055
G1 X71.891 Y72.998 E7.05488
G1 X73.209 Y74.230 E7.21897
G1 X165.776 Y166.797 E19.12243
G1 X167.099 Y168.218 E19.29903
G1 X168.285 Y169.685 E19.47053
G1 X169.583 Y171.567 E19.67842
G1 X170.465 Y173.063 E19.83635
G1 X171.241 Y174.602 E19.99301
G1 X172.102 Y176.646 E20.19474
G1 X172.790 Y178.755 E20.39648
G1 X173.209 Y180.420 E20.55253
G1 X173.521 Y182.121 E20.70985
G1 X173.771 Y184.339 E20.91279
G1 X173.839 Y186.251 E21.08676
G1 X173.783 Y187.974 E21.24346
G1 X173.562 Y190.174 E21.44458
G1 X173.154 Y192.369 E21.64751
G1 X172.722 Y194.044 E21.80481
G1 X172.180 Y195.687 E21.96212
G1 X171.347 Y197.728 E22.16262
G1 X170.342 Y199.706 E22.36433
G1 X169.462 Y201.179 E22.52038
G1 X168.480 Y202.603 E22.67770
G1 X167.092 Y204.343 E22.88004
G1 X165.579 Y205.947 E23.08053
G1 X164.314 Y207.117 E23.23719
G1 X162.868 Y208.285 E23.40622
G1 X161.188 Y209.457 E23.59253
G1 X159.466 Y210.478 E23.77454
G1 X157.688 Y211.366 E23.95528
G1 X155.670 Y212.185 E24.15331
G1 X154.047 Y212.721 E24.30875
G1 X152.398 Y213.147 E24.46357
G1 X150.439 Y213.520 E24.64495
G1 X148.282 Y213.766 E24.84234
G1 X146.289 Y213.839 E25.02371
G1 X144.308 Y213.768 E25.20388
G1 X142.318 Y213.553 E25.38588
G1 X140.370 Y213.198 E25.56598
G1 X138.254 Y212.642 E25.76491
G1 X136.643 Y212.100 E25.91948
G1 X135.074 Y211.456 E26.07367
G1 X133.276 Y210.577 E26.25562
G1 X131.408 Y209.484 E26.45241
G1 X129.768 Y208.348 E26.63382
G1 X128.231 Y207.110 E26.81333
G1 X126.791 Y205.770 E26.99222
G1 X34.224 Y113.203 E38.89570
G1 X32.901 Y111.782 E39.07230
G1 X31.715 Y110.315 E39.24379
G1 X30.547 Y108.640 E39.42949
G1 X29.542 Y106.949 E39.60839
G1 X28.657 Y105.184 E39.78791
G1 X27.915 Y103.398 E39.96374
G1 X27.281 Y101.500 E40.14573
G1 X26.799 Y99.620 E40.32216
G1 X26.446 Y97.678 E40.50169
G1 X26.253 Y95.938 E40.66082
G1 X26.161 Y93.776 E40.85762
G1 X26.227 Y91.830 E41.03468
G1 X26.436 Y89.839 E41.21666
G1 X26.738 Y88.129 E41.37458
G1 X27.358 Y85.701 E41.60250
G1 X27.924 Y84.026 E41.76320
G1 X28.761 Y82.045 E41.95876
G1 X29.550 Y80.483 E42.11790
G1 X30.556 Y78.792 E42.29680
G1 X31.664 Y77.199 E42.47324
G1 X32.917 Y75.647 E42.65462
G1 X34.235 Y74.233 E42.83043
G1 X35.681 Y72.888 E43.00996
G1 X37.213 Y71.654 E43.18886
G1 X38.852 Y70.517 E43.37024
G1 X40.470 Y69.559 E43.54122
G1 X40.788 Y70.096 F4800.000
G1 F1800
G1 X42.539 Y69.218 E43.71930
G1 X44.309 Y68.485 E43.89356
G1 X46.140 Y67.875 E44.06900
G1 X47.997 Y67.402 E44.24326
G1 X49.889 Y67.060 E44.41811
G1 X51.801 Y66.855 E44.59296
G1 X53.730 Y66.786 E44.76840
G1 X55.865 Y66.874 E44.96275
G1 X57.557 Y67.060 E45.11749
G1 X59.206 Y67.353 E45.26986
G1 X61.281 Y67.868 E45.46420
G1 X63.155 Y68.491 E45.64379
G1 X65.113 Y69.315 E45.83695
G1 X66.633 Y70.081 E45.99169
G1 X68.098 Y70.945 E46.14643
G1 X69.856 Y72.151 E46.34019
G1 X71.475 Y73.464 E46.52981
G1 X72.766 Y74.671 E46.69047
G1 X165.329 Y167.234 E58.59346
G1 X166.626 Y168.626 E58.76650
G1 X167.778 Y170.051 E58.93307
G1 X169.047 Y171.890 E59.13628
G1 X169.919 Y173.367 E59.29222
G1 X170.681 Y174.880 E59.44635
G1 X171.515 Y176.863 E59.64188
G1 X172.183 Y178.907 E59.83742
G1 X172.598 Y180.550 E59.99157
G1 X172.905 Y182.224 E60.14633
G1 X173.147 Y184.380 E60.34361
G1 X173.210 Y186.524 E60.53861
G1 X173.144 Y188.218 E60.69272
G1 X172.943 Y190.084 E60.86343
G1 X172.548 Y192.217 E61.06070
G1 X172.123 Y193.865 E61.21546
G1 X171.590 Y195.482 E61.37021
G1 X170.780 Y197.467 E61.56515
G1 X169.803 Y199.390 E61.76125
G1 X168.938 Y200.840 E61.91480
G1 X167.971 Y202.240 E62.06956
G1 X166.622 Y203.931 E62.26627
G1 X165.151 Y205.491 E62.46120
G1 X163.907 Y206.643 E62.61534
G1 X162.498 Y207.782 E62.78014
G1 X160.851 Y208.930 E62.96267
G1 X159.169 Y209.928 E63.14049
G1 X157.432 Y210.796 E63.31710
G1 X155.470 Y211.594 E63.50967
G1 X153.866 Y212.123 E63.66323
G1 X152.244 Y212.541 E63.81560
G1 X150.329 Y212.905 E63.99282
G1 X148.231 Y213.143 E64.18479
G1 X146.290 Y213.214 E64.36140
G1 X144.323 Y213.143 E64.54042
G1 X142.237 Y212.907 E64.73123
G1 X140.317 Y212.543 E64.90898
G1 X138.694 Y212.125 E65.06137
G1 X137.156 Y211.618 E65.20863
G1 X135.134 Y210.801 E65.40690
G1 X133.407 Y209.941 E65.58232
G1 X131.719 Y208.942 E65.76071
G1 X130.123 Y207.833 E65.93736
G1 X128.637 Y206.635 E66.11102
G1 X127.229 Y205.324 E66.28589
G1 X34.667 Y112.762 E78.18886
G1 X33.374 Y111.374 E78.36131
G1 X32.218 Y109.944 E78.52847
G1 X31.073 Y108.303 E78.71042
G1 X30.091 Y106.650 E78.88526
G1 X29.223 Y104.920 E79.06129
G1 X28.498 Y103.174 E79.23319
G1 X27.881 Y101.325 E79.41040
G1 X27.409 Y99.481 E79.58348
G1 X27.064 Y97.583 E79.75892
G1 X26.875 Y95.872 E79.91543
G1 X26.786 Y93.763 E80.10741
G1 X26.851 Y91.860 E80.28049
G1 X27.056 Y89.922 E80.45770
G1 X27.353 Y88.240 E80.61303
G1 X27.951 Y85.898 E80.83285
G1 X28.505 Y84.255 E80.99047
G1 X29.321 Y82.322 E81.18127
G1 X30.093 Y80.791 E81.33719
G1 X31.080 Y79.133 E81.51263
G1 X32.163 Y77.576 E81.68512
G1 X33.387 Y76.059 E81.86233
G1 X34.680 Y74.671 E82.03481
G1 X36.088 Y73.361 E82.20967
G1 X37.585 Y72.155 E82.38451
G1 X39.187 Y71.045 E82.56173
G1 X40.737 Y70.127 E82.72552
G1 X41.055 Y70.664 F4800.000
G1 F1800
G1 X42.797 Y69.787 E82.90283
G1 X44.526 Y69.071 E83.07306
G1 X46.314 Y68.476 E83.24441
G1 X48.128 Y68.013 E83.41464
G1 X49.977 Y67.679 E83.58543
G1 X51.844 Y67.478 E83.75623
G1 X53.728 Y67.411 E83.92759
G1 X55.803 Y67.496 E84.11642
G1 X57.466 Y67.679 E84.26859
G1 X59.096 Y67.968 E84.41907
G1 X61.111 Y68.469 E84.60790
G1 X62.934 Y69.076 E84.78264
G1 X64.837 Y69.876 E84.97034
G1 X66.332 Y70.629 E85.12252
G1 X67.773 Y71.479 E85.27469
G1 X69.485 Y72.654 E85.46352
G1 X71.060 Y73.931 E85.64784
G1 X72.329 Y75.118 E85.80583
G1 X164.887 Y167.675 E97.70817
G1 X166.153 Y169.035 E97.87710
G1 X167.276 Y170.423 E98.03943
G1 X168.513 Y172.213 E98.23728
G1 X169.370 Y173.665 E98.39060
G1 X170.120 Y175.154 E98.54219
G1 X170.929 Y177.080 E98.73215
G1 X171.579 Y179.065 E98.92211
G1 X171.987 Y180.682 E99.07372
G1 X172.290 Y182.334 E99.22648
G1 X172.523 Y184.416 E99.41698
G1 X172.585 Y186.502 E99.60671
G1 X172.521 Y188.171 E99.75857
G1 X172.325 Y189.995 E99.92542
G1 X171.941 Y192.067 E100.11704
G1 X171.524 Y193.688 E100.26922
G1 X170.997 Y195.283 E100.42198
G1 X170.212 Y197.206 E100.61080
G1 X169.267 Y199.069 E100.80074
G1 X168.413 Y200.501 E100.95235
G1 X167.458 Y201.883 E101.10511
G1 X166.155 Y203.516 E101.29506
G1 X164.727 Y205.032 E101.48444
G1 X163.500 Y206.169 E101.63661
G1 X162.131 Y207.276 E101.79669
G1 X160.514 Y208.404 E101.97593
G1 X158.878 Y209.376 E102.14900
G1 X157.181 Y210.223 E102.32147
G1 X155.275 Y211.000 E102.50861
G1 X153.692 Y211.523 E102.66022
G1 X152.089 Y211.936 E102.81070
G1 X150.219 Y212.290 E102.98375
G1 X148.180 Y212.520 E103.17031
G1 X146.285 Y212.589 E103.34279
G1 X144.370 Y212.520 E103.51699
G1 X142.337 Y212.290 E103.70301
G1 X140.468 Y211.937 E103.87601
G1 X138.865 Y211.524 E104.02650
G1 X137.294 Y211.005 E104.17700
G1 X135.376 Y210.225 E104.36525
G1 X133.690 Y209.383 E104.53660
G1 X132.053 Y208.413 E104.70964
G1 X130.490 Y207.327 E104.88271
G1 X129.042 Y206.159 E105.05181
G1 X127.671 Y204.882 E105.22219
G1 X35.109 Y112.320 E117.12511
G1 X33.843 Y110.960 E117.29404
G1 X32.724 Y109.577 E117.45581
G1 X31.596 Y107.961 E117.63506
G1 X30.639 Y106.352 E117.80529
G1 X29.792 Y104.661 E117.97721
G1 X29.084 Y102.955 E118.14518
G1 X28.479 Y101.144 E118.31880
G1 X28.018 Y99.343 E118.48789
G1 X27.683 Y97.494 E118.65869
G1 X27.497 Y95.813 E118.81255
G1 X27.411 Y93.775 E118.99800
G1 X27.466 Y92.071 E119.15299
G1 X27.715 Y89.756 E119.36471
G1 X28.019 Y88.102 E119.51766
G1 X28.492 Y86.259 E119.69071
G1 X29.082 Y84.495 E119.85981
G1 X29.879 Y82.604 E120.04638
G1 X30.641 Y81.093 E120.20025
G1 X31.604 Y79.473 E120.37160
G1 X32.662 Y77.951 E120.54014
G1 X33.857 Y76.470 E120.71319
G1 X35.121 Y75.115 E120.88173
G1 X36.496 Y73.835 E121.05252
G1 X37.958 Y72.657 E121.22331
G1 X39.517 Y71.576 E121.39580
G1 X41.004 Y70.695 E121.55291
G1 E117.55291 F2400.00000
G92 E0
G1 Z0.650 F4800.000
G1 X110.241 Y171.454
G1 Z0.350
G1 E4.00000 F2400.00000
G1 F1800
G1 X110.885 Y170.954 E4.07415
G1 X111.654 Y170.631 E4.15001
G1 X112.425 Y170.509 E4.22098
G1 X113.232 Y170.585 E4.29466
G1 X113.994 Y170.859 E4.36834
G1 X114.664 Y171.315 E4.44202
G1 X115.200 Y171.923 E4.51570
G1 X115.568 Y172.645 E4.58938
G1 X115.745 Y173.435 E4.66307
G1 X115.719 Y174.245 E4.73675
G1 X115.493 Y175.023 E4.81043
G1 X115.081 Y175.721 E4.88411
G1 X114.508 Y176.294 E4.95779
G1 X113.810 Y176.706 E5.03147
G1 X113.032 Y176.932 E5.10515
G1 X112.222 Y176.958 E5.17884
G1 X111.431 Y176.781 E5.25252
G1 X110.705 Y176.411 E5.32667
G1 X110.085 Y175.853 E5.40253
G1 X109.646 Y175.207 E5.47350
G1 X109.372 Y174.445 E5.54718
G1 X109.295 Y173.638 E5.62086
G1 X109.422 Y172.838 E5.69454
G1 X109.744 Y172.094 E5.76822
G1 X110.204 Y171.501 E5.83645
G1 X110.686 Y171.899 F4800.000
G1 F1800
G1 X111.203 Y171.498 E5.89594
G1 X111.826 Y171.236 E5.95744
G1 X112.445 Y171.138 E6.01436
G1 X113.094 Y171.200 E6.07368
G1 X113.708 Y171.421 E6.13301
G1 X114.248 Y171.787 E6.19233
G1 X114.679 Y172.277 E6.25166
G1 X114.975 Y172.858 E6.31098
G1 X115.118 Y173.495 E6.37031
G1 X115.097 Y174.147 E6.42963
G1 X114.915 Y174.773 E6.48896
G1 X114.583 Y175.335 E6.54828
G1 X114.122 Y175.796 E6.60761
G1 X113.560 Y176.128 E6.66693
G1 X112.934 Y176.310 E6.72626
G1 X112.281 Y176.331 E6.78558
G1 X111.645 Y176.189 E6.84491
G1 X111.062 Y175.891 E6.90440
G1 X110.559 Y175.439 E6.96590
G1 X110.207 Y174.921 E7.02282
G1 X109.986 Y174.307 E7.08214
G1 X109.925 Y173.658 E7.14147
G1 X110.027 Y173.013 E7.20079
G1 X110.286 Y172.415 E7.26012
G1 X110.649 Y171.947 E7.31399
G1 X110.582 Y171.513 F4800.000
G1 E3.31399 F2400.00000
G92 E0
G1 Z0.650 F4800.000
G1 X107.420 Y167.822
G1 X107.845 Y163.949
G1 X108.233 Y161.944
G1 X107.690 Y160.216
G1 X110.029 Y157.833
G1 X113.840 Y154.431
G1 X116.340 Y151.743
G1 X122.447 Y157.851
G1 X125.869 Y154.429
G1 X127.750 Y157.091
G1 X131.315 Y154.664
G1 Z0.350
G1 E4.00000 F2400.00000
G1 F1800
G1 X130.859 Y153.994 E4.07368
G1 X130.585 Y153.232 E4.14736
G1 X130.509 Y152.425 E4.22104
G1 X130.635 Y151.625 E4.29473
G1 X130.957 Y150.881 E4.36841
G1 X131.454 Y150.241 E4.44209
G1 X132.098 Y149.741 E4.51624
G1 X132.867 Y149.417 E4.59210
G1 X133.638 Y149.295 E4.66307
G1 X134.445 Y149.372 E4.73675
G1 X135.207 Y149.646 E4.81043
G1 X135.877 Y150.102 E4.88411
G1 X136.413 Y150.709 E4.95779
G1 X136.781 Y151.431 E5.03147
G1 X136.958 Y152.222 E5.10516
G1 X136.932 Y153.032 E5.17884
G1 X136.706 Y153.810 E5.25252
G1 X136.294 Y154.508 E5.32620
G1 X135.721 Y155.081 E5.39988
G1 X135.023 Y155.493 E5.47356
G1 X134.245 Y155.719 E5.54725
G1 X133.435 Y155.745 E5.62093
G1 X132.645 Y155.568 E5.69461
G1 X131.923 Y155.200 E5.76829
G1 X131.360 Y154.704 E5.83651
G1 X131.787 Y154.248 F4800.000
G1 F1800
G1 X131.421 Y153.708 E5.89584
G1 X131.200 Y153.094 E5.95516
G1 X131.138 Y152.445 E6.01449
G1 X131.240 Y151.800 E6.07381
G1 X131.499 Y151.201 E6.13314
G1 X131.899 Y150.686 E6.19246
G1 X132.416 Y150.285 E6.25196
G1 X133.040 Y150.023 E6.31346
G1 X133.658 Y149.925 E6.37037
G1 X134.307 Y149.986 E6.42970
G1 X134.921 Y150.207 E6.48902
G1 X135.461 Y150.574 E6.54835
G1 X135.892 Y151.063 E6.60767
G1 X136.189 Y151.645 E6.66700
G1 X136.331 Y152.281 E6.72632
G1 X136.310 Y152.934 E6.78565
G1 X136.128 Y153.560 E6.84497
G1 X135.796 Y154.122 E6.90430
G1 X135.335 Y154.583 E6.96362
G1 X134.773 Y154.915 E7.02295
G1 X134.147 Y155.097 E7.08228
G1 X133.495 Y155.118 E7.14160
G1 X132.858 Y154.975 E7.20093
G1 X132.277 Y154.679 E7.26025
G1 X131.832 Y154.287 E7.31412
G1 X131.395 Y154.327 F4800.000
G1 E3.31412 F2400.00000
G92 E0
G1 Z0.650 F4800.000
G1 X89.448 Y108.808
G1 Z0.350
G1 E4.00000 F2400.00000
G1 F1800
G1 X88.750 Y109.220 E4.07368
G1 X87.972 Y109.446 E4.14736
G1 X87.162 Y109.472 E4.22104
G1 X86.372 Y109.295 E4.29473
G1 X85.650 Y108.927 E4.36841
G1 X85.042 Y108.391 E4.44209
G1 X84.586 Y107.721 E4.51577
G1 X84.312 Y106.959 E4.58945
G1 X84.235 Y106.152 E4.66313
G1 X84.362 Y105.351 E4.73681
G1 X84.684 Y104.608 E4.81050
G1 X85.181 Y103.968 E4.88418
G1 X85.825 Y103.468 E4.95833
G1 X86.594 Y103.144 E5.03419
G1 X87.365 Y103.022 E5.10516
G1 X88.172 Y103.099 E5.17884
G1 X88.934 Y103.373 E5.25252
G1 X89.604 Y103.828 E5.32620
G1 X90.140 Y104.436 E5.39988
G1 X90.508 Y105.158 E5.47356
G1 X90.685 Y105.949 E5.54724
G1 X90.659 Y106.759 E5.62093
G1 X90.433 Y107.537 E5.69461
G1 X90.021 Y108.235 E5.76829
G1 X89.490 Y108.765 E5.83652
G1 X89.062 Y108.310 F4800.000
G1 F1800
G1 X88.500 Y108.642 E5.89584
G1 X87.874 Y108.824 E5.95517
G1 X87.222 Y108.845 E6.01449
G1 X86.585 Y108.702 E6.07382
G1 X86.004 Y108.406 E6.13314
G1 X85.514 Y107.975 E6.19247
G1 X85.147 Y107.435 E6.25179
G1 X84.926 Y106.821 E6.31112
G1 X84.865 Y106.172 E6.37044
G1 X84.967 Y105.527 E6.42977
G1 X85.226 Y104.928 E6.48909
G1 X85.626 Y104.413 E6.54842
G1 X86.143 Y104.012 E6.60791
G1 X86.767 Y103.750 E6.66941
G1 X87.385 Y103.652 E6.72633
G1 X88.034 Y103.713 E6.78565
G1 X88.648 Y103.934 E6.84498
G1 X89.188 Y104.301 E6.90430
G1 X89.619 Y104.790 E6.96363
G1 X89.915 Y105.372 E7.02295
G1 X90.058 Y106.008 E7.08228
G1 X90.037 Y106.660 E7.14160
G1 X89.855 Y107.287 E7.20093
G1 X89.523 Y107.849 E7.26025
G1 X89.104 Y108.268 E7.31412
G1 X89.116 Y108.706 F4800.000
G1 E3.31412 F2400.00000
G92 E0
G1 Z0.650 F4800.000
G1 X92.450 Y113.878
G1 X91.725 Y118.209
G1 X92.222 Y119.758
G1 X89.949 Y122.136
G1 X86.153 Y125.562
G1 X83.490 Y128.439
G1 X77.369 Y122.319
G1 X74.019 Y125.669
G1 X72.738 Y123.704
G1 X68.927 Y125.650
G1 Z0.350
G1 E4.00000 F2400.00000
G1 F1800
G1 X69.295 Y126.372 E4.07368
G1 X69.472 Y127.162 E4.14736
G1 X69.446 Y127.972 E4.22104
G1 X69.220 Y128.750 E4.29473
G1 X68.808 Y129.448 E4.36841
G1 X68.235 Y130.021 E4.44209
G1 X67.537 Y130.433 E4.51577
G1 X66.759 Y130.659 E4.58945
G1 X65.949 Y130.685 E4.66313
G1 X65.158 Y130.508 E4.73682
G1 X64.436 Y130.140 E4.81050
G1 X63.828 Y129.604 E4.88418
G1 X63.373 Y128.934 E4.95786
G1 X63.097 Y128.167 E5.03201
G1 X63.027 Y127.336 E5.10787
G1 X63.149 Y126.565 E5.17884
G1 X63.471 Y125.821 E5.25252
G1 X63.968 Y125.181 E5.32620
G1 X64.612 Y124.681 E5.40035
G1 X65.381 Y124.358 E5.47621
G1 X66.152 Y124.235 E5.54718
G1 X66.959 Y124.312 E5.62086
G1 X67.721 Y124.586 E5.69454
G1 X68.391 Y125.042 E5.76822
G1 X68.887 Y125.605 E5.83645
G1 X68.406 Y126.004 F4800.000
G1 F1800
G1 X68.702 Y126.585 E5.89577
G1 X68.845 Y127.222 E5.95510
G1 X68.824 Y127.874 E6.01442
G1 X68.642 Y128.500 E6.07375
G1 X68.310 Y129.062 E6.13307
G1 X67.849 Y129.523 E6.19240
G1 X67.287 Y129.855 E6.25172
G1 X66.660 Y130.037 E6.31105
G1 X66.008 Y130.058 E6.37038
G1 X65.372 Y129.915 E6.42970
G1 X64.790 Y129.619 E6.48903
G1 X64.301 Y129.188 E6.54835
G1 X63.934 Y128.648 E6.60768
