; generated by Slic3r Prusa Edition 1.40.1+win64 on 2018-10-04 at 10:41:26

; 

; external perimeters extrusion width = 0.45mm
; perimeters extrusion width = 0.45mm
; infill extrusion width = 0.45mm
; solid infill extrusion width = 0.45mm
; top infill extrusion width = 0.40mm
; first layer extrusion width = 0.70mm

M107
M190 S60 ; set bed temperature and wait for it to be reached
M104 S210 ; set temperature
G28 ; home all axes
G1 Z5 F5000 ; lift nozzle
; Filament gcode
M109 S210 ; set temperature and wait for it to be reached
G21 ; set units to millimeters
G90 ; use absolute coordinates
M82 ; use absolute distances for extrusion
G92 E0
G1 E-4.00000 F2400.00000
G92 E0
G1 Z0.350 F4800.000
G1 Z0.650
G1 X65.391 Y40.676
G1 Z0.350
G1 E4.00000 F2400.00000
G1 F1800
G1 X66.945 Y39.366 E4.18486
G1 X68.096 Y38.651 E4.30808
G1 X69.487 Y38.052 E4.44577
G1 X70.354 Y37.775 E4.52850
G1 X71.214 Y37.608 E4.60814
G1 X72.846 Y37.439 E4.75734
G1 X127.007 Y37.438 E9.68219
G1 X128.784 Y37.607 E9.84450
G1 X129.782 Y37.811 E9.93710
G1 X131.450 Y38.439 E10.09923
G1 X132.388 Y38.916 E10.19491
G1 X133.811 Y39.946 E10.35460
G1 X134.589 Y40.654 E10.45028
G1 X135.711 Y42.049 E10.61307
G1 X136.314 Y43.025 E10.71737
G1 X137.051 Y44.775 E10.89002
G1 X147.082 Y74.864 E13.77408
G1 X147.326 Y75.804 E13.86236
G1 X147.504 Y77.067 E13.97832
G1 X147.559 Y77.968 E14.06044
G1 X147.562 Y202.020 E25.34044
G1 X147.392 Y203.790 E25.50215
G1 X147.186 Y204.795 E25.59536
G1 X137.068 Y235.181 E28.50752
G1 X136.569 Y236.432 E28.62996
G1 X135.854 Y237.749 E28.76626
G1 X134.598 Y239.332 E28.94998
G1 X132.999 Y240.676 E29.13994
G1 X131.804 Y241.400 E29.26702
G1 X130.455 Y241.970 E29.40009
G1 X129.587 Y242.240 E29.48282
G1 X127.967 Y242.500 E29.63200
G1 X127.100 Y242.562 E29.71103
G1 X72.952 Y242.562 E34.63465
G1 X71.223 Y242.393 E34.79264
G1 X70.232 Y242.189 E34.88462
G1 X67.945 Y241.270 E35.10880
G1 X67.182 Y240.799 E35.19030
G1 X66.051 Y239.942 E35.31937
G1 X65.244 Y239.165 E35.42120
G1 X64.390 Y238.087 E35.54623
G1 X63.508 Y236.608 E35.70280
G1 X62.945 Y235.212 E35.83968
G1 X52.913 Y205.123 E38.72374
G1 X52.668 Y204.163 E38.81387
G1 X52.482 Y202.812 E38.93786
G1 X52.438 Y77.980 E50.28879
G1 X52.608 Y76.210 E50.45050
G1 X52.814 Y75.205 E50.54371
G1 X62.932 Y44.819 E53.45586
G1 X63.426 Y43.581 E53.57707
G1 X64.139 Y42.262 E53.71337
G1 X65.353 Y40.723 E53.89167
G1 E49.89167 F2400.00000
G92 E0
G1 Z0.650 F4800.000
G1 X64.462 Y42.917
G1 Z0.350
G1 E4.00000 F2400.00000
G1 F1800
G1 X65.660 Y41.308 E4.18235
G1 X66.645 Y40.383 E4.30523
G1 X67.593 Y39.671 E4.41305
G1 X68.388 Y39.204 E4.49696
G1 X69.714 Y38.635 E4.62810
G1 X70.513 Y38.379 E4.70439
G1 X72.866 Y38.064 E4.92030
G1 X127.007 Y38.063 E9.84325
G1 X128.701 Y38.227 E9.99809
G1 X129.619 Y38.414 E10.08322
G1 X131.215 Y39.018 E10.23839
G1 X132.083 Y39.462 E10.32707
G1 X133.432 Y40.443 E10.47872
G1 X134.151 Y41.101 E10.56740
G1 X135.218 Y42.433 E10.72260
G1 X135.781 Y43.354 E10.82073
G1 X136.459 Y44.976 E10.98055
G1 X146.489 Y75.060 E13.86415
G1 X146.715 Y75.936 E13.94633
G1 X146.886 Y77.164 E14.05914
G1 X146.937 Y202.019 E25.41217
G1 X146.771 Y203.714 E25.56701
G1 X146.581 Y204.637 E25.65274
G1 X136.475 Y234.983 E28.56100
G1 X136.005 Y236.161 E28.67635
G1 X135.342 Y237.390 E28.80335
G1 X134.151 Y238.895 E28.97790
G1 X132.631 Y240.171 E29.15829
G1 X131.525 Y240.841 E29.27586
G1 X130.238 Y241.384 E29.40295
G1 X129.437 Y241.634 E29.47923
G1 X127.082 Y241.937 E29.69512
G1 X72.961 Y241.937 E34.61631
G1 X71.306 Y241.774 E34.76749
G1 X70.390 Y241.584 E34.85262
G1 X68.234 Y240.716 E35.06393
G1 X66.444 Y239.456 E35.26299
G1 X65.696 Y238.733 E35.35758
G1 X64.878 Y237.697 E35.47755
G1 X64.065 Y236.323 E35.62278
G1 X63.537 Y235.012 E35.75129
G1 X53.507 Y204.927 E38.63489
G1 X53.280 Y204.032 E38.71884
G1 X53.102 Y202.732 E38.83816
G1 X53.063 Y77.981 E50.18178
G1 X53.229 Y76.286 E50.33663
G1 X53.419 Y75.362 E50.42236
G1 X63.691 Y44.573 E53.37377
G1 X64.436 Y42.971 E53.53437
G1 E49.53437 F2400.00000
G92 E0
G1 Z0.650 F4800.000
G1 X70.667 Y38.985
G1 Z0.350
G1 E4.00000 F2400.00000
G1 F1800
G1 X72.881 Y38.689 E4.20312
G1 X127.006 Y38.688 E9.12468
G1 X128.619 Y38.846 E9.27203
G1 X129.457 Y39.018 E9.34986
G1 X130.973 Y39.594 E9.49728
G1 X131.768 Y40.001 E9.57849
G1 X133.047 Y40.936 E9.72256
G1 X133.706 Y41.539 E9.80376
G1 X134.721 Y42.812 E9.95179
G1 X135.244 Y43.676 E10.04369
G1 X135.868 Y45.178 E10.19150
G1 X145.896 Y75.256 E13.07457
G1 X146.104 Y76.068 E13.15071
G1 X146.268 Y77.254 E13.25958
G1 X146.312 Y202.012 E24.60382
G1 X146.153 Y203.625 E24.75118
G1 X145.977 Y204.475 E24.83014
G1 X135.735 Y235.180 E27.77332
G1 X135.008 Y236.752 E27.93079
G1 X133.878 Y238.268 E28.10278
G1 X133.285 Y238.859 E28.17892
G1 X132.337 Y239.610 E28.28885
G1 X131.251 Y240.280 E28.40492
G1 X129.291 Y241.026 E28.59562
G1 X127.075 Y241.312 E28.79872
G1 X72.963 Y241.312 E33.71915
G1 X71.390 Y241.155 E33.86290
G1 X70.552 Y240.981 E33.94073
G1 X68.523 Y240.161 E34.13970
G1 X66.837 Y238.970 E34.32742
G1 X66.147 Y238.300 E34.41482
G1 X65.364 Y237.303 E34.53012
G1 X64.622 Y236.037 E34.66358
G1 X64.128 Y234.811 E34.78376
G1 X54.102 Y204.738 E37.66627
G1 X53.892 Y203.908 E37.74410
G1 X53.722 Y202.654 E37.85917
G1 X53.688 Y77.988 E49.19500
G1 X53.847 Y76.375 E49.34236
G1 X54.023 Y75.525 E49.42132
G1 X64.260 Y44.832 E52.36338
G1 X64.988 Y43.253 E52.52141
G1 X66.118 Y41.733 E52.69364
G1 X67.020 Y40.883 E52.80634
G1 X67.932 Y40.196 E52.91018
G1 X68.680 Y39.756 E52.98907
G1 X70.611 Y39.006 E53.17743
G1 E49.17743 F2400.00000
G92 E0
G1 Z0.650 F4800.000
G1 X134.686 Y70.319
G1 Z0.350
G1 E4.00000 F2400.00000
G1 F1800
G1 X137.406 Y70.332 E4.24738
G1 X139.215 Y70.641 E4.41426
G1 X140.947 Y71.406 E4.58638
G1 X142.396 Y72.527 E4.75300
G1 X143.576 Y74.024 E4.92629
G1 X144.343 Y75.732 E5.09657
G1 X144.657 Y77.451 E5.25543
G1 X144.687 Y202.159 E16.59505
G1 X144.385 Y204.127 E16.77612
G1 X143.676 Y205.807 E16.94189
G1 X142.548 Y207.318 E17.11336
G1 X140.886 Y208.630 E17.30590
G1 X139.148 Y209.379 E17.47807
G1 X137.310 Y209.675 E17.64731
G1 X134.685 Y209.684 E17.88600
G1 X134.657 Y232.528 E19.96318
G1 X134.291 Y234.430 E20.13933
G1 X133.412 Y236.236 E20.32196
G1 X132.100 Y237.749 E20.50411
G1 X130.469 Y238.860 E20.68355
G1 X128.873 Y239.454 E20.83839
G1 X127.144 Y239.687 E20.99700
G1 X72.844 Y239.687 E25.93443
G1 X70.956 Y239.409 E26.10796
G1 X69.018 Y238.572 E26.29995
G1 X67.435 Y237.300 E26.48465
G1 X66.264 Y235.701 E26.66480
G1 X65.563 Y233.939 E26.83721
G1 X65.329 Y232.385 E26.98010
G1 X65.315 Y209.681 E29.04464
G1 X62.594 Y209.668 E29.29210
G1 X60.784 Y209.359 E29.45898
G1 X59.053 Y208.594 E29.63110
G1 X57.604 Y207.473 E29.79772
G1 X56.424 Y205.976 E29.97101
G1 X55.657 Y204.268 E30.14128
G1 X55.343 Y202.549 E30.30014
G1 X55.313 Y77.842 E41.63971
G1 X55.614 Y75.876 E41.82054
G1 X56.315 Y74.208 E41.98507
G1 X57.372 Y72.764 E42.14779
G1 X59.178 Y71.332 E42.35734
G1 X60.857 Y70.619 E42.52318
G1 X62.691 Y70.325 E42.69209
G1 X65.315 Y70.316 E42.93071
G1 X65.343 Y47.472 E45.00790
G1 X65.709 Y45.570 E45.18405
G1 X66.588 Y43.764 E45.36667
G1 X67.900 Y42.251 E45.54882
G1 X69.531 Y41.140 E45.72826
G1 X71.127 Y40.546 E45.88311
G1 X72.856 Y40.313 E46.04173
G1 X127.190 Y40.316 E50.98230
G1 X128.894 Y40.552 E51.13871
G1 X130.488 Y41.149 E51.29351
G1 X132.208 Y42.349 E51.48416
G1 X133.636 Y44.121 E51.69115
G1 X133.702 Y44.239 E51.70339
G1 X134.482 Y46.234 E51.89821
G1 X134.681 Y47.764 E52.03848
G1 X134.686 Y70.259 E54.08399
G1 X134.061 Y70.941 F4800.000
G1 F1800
G1 X137.377 Y70.957 E54.38551
G1 X139.071 Y71.250 E54.54182
G1 X140.594 Y71.923 E54.69328
G1 X141.982 Y72.997 E54.85283
G1 X143.059 Y74.377 E55.01198
G1 X143.756 Y75.949 E55.16838
G1 X144.037 Y77.532 E55.31456
G1 X144.062 Y202.136 E66.64472
G1 X143.794 Y203.921 E66.80881
G1 X143.116 Y205.527 E66.96740
G1 X142.075 Y206.908 E67.12461
G1 X140.534 Y208.112 E67.30246
G1 X139.009 Y208.769 E67.45343
G1 X137.283 Y209.050 E67.61245
G1 X134.061 Y209.061 E67.90545
G1 X134.037 Y232.442 E70.03149
G1 X133.710 Y234.198 E70.19393
G1 X132.911 Y235.861 E70.36170
G1 X131.711 Y237.258 E70.52912
G1 X130.214 Y238.288 E70.69436
G1 X128.688 Y238.856 E70.84239
G1 X127.124 Y239.062 E70.98585
G1 X72.866 Y239.062 E75.91948
G1 X71.162 Y238.817 E76.07602
G1 X69.375 Y238.058 E76.25259
G1 X67.859 Y236.839 E76.42941
G1 X66.794 Y235.367 E76.59468
G1 X66.176 Y233.810 E76.74703
G1 X65.954 Y232.361 E76.88029
G1 X65.940 Y209.059 E78.99917
G1 X62.623 Y209.043 E79.30076
G1 X60.929 Y208.750 E79.45707
G1 X59.406 Y208.077 E79.60852
G1 X58.018 Y207.003 E79.76808
G1 X56.941 Y205.623 E79.92723
G1 X56.244 Y204.051 E80.08362
G1 X55.963 Y202.468 E80.22980
G1 X55.938 Y77.866 E91.55977
G1 X56.225 Y76.012 E91.73043
G1 X56.875 Y74.488 E91.88101
G1 X57.850 Y73.170 E92.03013
G1 X59.463 Y71.889 E92.21743
G1 X60.996 Y71.230 E92.36912
G1 X62.718 Y70.950 E92.52776
G1 X65.939 Y70.939 E92.82069
G1 X65.963 Y47.558 E94.94673
G1 X66.290 Y45.802 E95.10917
G1 X67.089 Y44.139 E95.27693
G1 X68.289 Y42.742 E95.44435
G1 X69.786 Y41.712 E95.60959
G1 X71.312 Y41.144 E95.75764
G1 X72.876 Y40.938 E95.90111
G1 X127.170 Y40.941 E100.83798
G1 X128.708 Y41.149 E100.97915
G1 X130.231 Y41.720 E101.12702
G1 X131.811 Y42.833 E101.30277
G1 X133.109 Y44.456 E101.49175
G1 X133.868 Y46.355 E101.67766
G1 X134.056 Y47.785 E101.80880
G1 X134.061 Y70.881 E103.90897
G1 X133.436 Y71.565 F4800.000
G1 F1800
G1 X137.300 Y71.577 E104.26030
G1 X138.858 Y71.838 E104.40394
G1 X140.246 Y72.443 E104.54163
G1 X141.515 Y73.414 E104.68685
G1 X142.542 Y74.730 E104.83864
G1 X143.168 Y76.163 E104.98085
G1 X143.416 Y77.611 E105.11444
G1 X143.437 Y202.112 E116.43528
G1 X143.182 Y203.786 E116.58925
G1 X142.558 Y205.244 E116.73351
G1 X141.603 Y206.497 E116.87669
G1 X140.250 Y207.554 E117.03284
G1 X138.799 Y208.179 E117.17651
G1 X137.211 Y208.429 E117.32271
G1 X133.436 Y208.437 E117.66590
G1 X133.418 Y232.359 E119.84115
G1 X133.127 Y233.970 E119.98996
G1 X132.407 Y235.490 E120.14287
G1 X131.320 Y236.769 E120.29553
G1 X129.956 Y237.717 E120.44662
G1 X128.569 Y238.241 E120.58141
G1 X127.103 Y238.437 E120.71590
G1 X72.889 Y238.437 E125.64554
G1 X71.294 Y238.205 E125.79212
G1 X69.664 Y237.502 E125.95355
G1 X68.288 Y236.382 E126.11486
G1 X67.325 Y235.035 E126.26540
G1 X66.788 Y233.679 E126.39805
G1 X66.579 Y232.336 E126.52163
G1 X66.564 Y208.435 E128.69493
G1 X62.700 Y208.423 E129.04629
G1 X61.142 Y208.162 E129.18994
G1 X59.754 Y207.557 E129.32763
G1 X58.485 Y206.586 E129.47285
G1 X57.458 Y205.270 E129.62464
G1 X56.833 Y203.837 E129.76684
G1 X56.584 Y202.389 E129.90044
G1 X56.563 Y77.889 E141.22115
G1 X56.817 Y76.217 E141.37498
G1 X57.400 Y74.829 E141.51185
G1 X58.328 Y73.574 E141.65375
G1 X59.748 Y72.447 E141.81866
G1 X61.206 Y71.820 E141.96295
G1 X62.790 Y71.571 E142.10875
G1 X66.564 Y71.563 E142.45189
G1 X66.582 Y47.641 E144.62715
G1 X66.873 Y46.030 E144.77595
G1 X67.593 Y44.510 E144.92886
G1 X68.680 Y43.231 E145.08152
G1 X70.044 Y42.283 E145.23261
G1 X71.431 Y41.759 E145.36740
G1 X72.897 Y41.563 E145.50190
G1 X127.148 Y41.566 E150.43491
G1 X128.587 Y41.763 E150.56697
G1 X129.970 Y42.289 E150.70153
G1 X131.411 Y43.315 E150.86238
G1 X132.576 Y44.790 E151.03327
G1 X133.254 Y46.477 E151.19860
G1 X133.431 Y47.806 E151.32049
G1 X133.436 Y71.505 E153.47541
G1 X132.812 Y72.189 F4800.000
G1 F1800
G1 X137.226 Y72.198 E153.87679
G1 X138.649 Y72.428 E154.00787
G1 X139.898 Y72.964 E154.13145
G1 X141.102 Y73.885 E154.26926
G1 X142.022 Y75.078 E154.40632
G1 X142.578 Y76.373 E154.53443
G1 X142.796 Y77.687 E154.65552
G1 X142.812 Y202.088 E165.96726
G1 X142.571 Y203.650 E166.11096
G1 X142.001 Y204.958 E166.24070
G1 X141.133 Y206.084 E166.36997
G1 X139.963 Y206.998 E166.50501
G1 X138.661 Y207.568 E166.63425
G1 X137.137 Y207.808 E166.77449
G1 X132.812 Y207.812 E167.16782
G1 X132.797 Y232.280 E169.39262
G1 X132.542 Y233.745 E169.52787
G1 X131.901 Y235.121 E169.66592
G1 X130.926 Y236.283 E169.80379
G1 X129.694 Y237.149 E169.94073
G1 X128.448 Y237.627 E170.06211
G1 X127.082 Y237.812 E170.18749
G1 X72.912 Y237.812 E175.11309
G1 X71.427 Y237.593 E175.24956
G1 X69.956 Y236.948 E175.39568
G1 X68.719 Y235.928 E175.54145
G1 X67.857 Y234.707 E175.67735
G1 X67.399 Y233.548 E175.79070
G1 X67.204 Y232.311 E175.90453
G1 X67.189 Y207.811 E178.13226
G1 X62.774 Y207.802 E178.53365
G1 X61.351 Y207.572 E178.66474
G1 X60.102 Y207.036 E178.78832
G1 X58.898 Y206.115 E178.92613
G1 X57.978 Y204.922 E179.06319
G1 X57.422 Y203.627 E179.19129
G1 X57.204 Y202.313 E179.31239
G1 X57.188 Y77.913 E190.62401
G1 X57.428 Y76.352 E190.76766
G1 X57.959 Y75.111 E190.89043
G1 X58.803 Y73.981 E191.01865
G1 X60.037 Y73.002 E191.16181
G1 X61.344 Y72.431 E191.29154
G1 X62.863 Y72.192 E191.43137
G1 X67.188 Y72.188 E191.82468
G1 X67.203 Y47.720 E194.04948
G1 X67.458 Y46.255 E194.18474
G1 X68.099 Y44.879 E194.32278
G1 X69.074 Y43.717 E194.46065
G1 X70.306 Y42.851 E194.59759
G1 X71.552 Y42.373 E194.71897
G1 X72.919 Y42.188 E194.84437
G1 X127.126 Y42.191 E199.77344
G1 X128.464 Y42.377 E199.89626
G1 X129.706 Y42.857 E200.01735
G1 X131.010 Y43.796 E200.16348
G1 X132.015 Y45.067 E200.31080
G1 X132.640 Y46.601 E200.46143
G1 X132.806 Y47.827 E200.57393
G1 X132.812 Y72.129 E202.78363
G1 X132.187 Y72.813 F4800.000
G1 F1800
G1 X137.155 Y72.820 E203.23536
G1 X138.440 Y73.019 E203.35360
G1 X139.614 Y73.522 E203.46980
G1 X140.685 Y74.352 E203.59298
G1 X141.500 Y75.424 E203.71539
G1 X141.987 Y76.579 E203.82940
G1 X142.175 Y77.760 E203.93810
G1 X142.187 Y202.065 E215.24116
G1 X141.981 Y203.442 E215.36777
G1 X141.482 Y204.608 E215.48310
G1 X140.662 Y205.671 E215.60511
G1 X139.673 Y206.444 E215.71928
G1 X138.522 Y206.957 E215.83388
G1 X137.064 Y207.187 E215.96804
G1 X132.187 Y207.187 E216.41153
G1 X132.177 Y232.203 E218.68623
G1 X131.956 Y233.524 E218.80803
G1 X131.392 Y234.756 E218.93120
G1 X130.529 Y235.799 E219.05428
G1 X129.433 Y236.580 E219.17670
G1 X128.259 Y237.030 E219.29098
G1 X127.062 Y237.187 E219.40078
G1 X72.936 Y237.187 E224.32245
G1 X71.561 Y236.981 E224.44884
G1 X70.316 Y236.436 E224.57242
G1 X69.202 Y235.530 E224.70306
G1 X68.424 Y234.441 E224.82470
G1 X67.994 Y233.352 E224.93120
G1 X67.825 Y232.242 E225.03330
G1 X67.813 Y207.187 E227.31148
G1 X62.845 Y207.180 E227.76321
G1 X61.560 Y206.981 E227.88146
G1 X60.386 Y206.478 E227.99766
G1 X59.315 Y205.648 E228.12084
G1 X58.500 Y204.576 E228.24324
G1 X58.013 Y203.421 E228.35725
G1 X57.825 Y202.240 E228.46596
G1 X57.813 Y77.936 E239.76891
G1 X58.019 Y76.560 E239.89539
G1 X58.518 Y75.392 E240.01089
G1 X59.277 Y74.391 E240.12516
G1 X60.328 Y73.556 E240.24718
G1 X61.483 Y73.041 E240.36214
G1 X62.936 Y72.813 E240.49589
G1 X67.813 Y72.813 E240.93938
G1 X67.823 Y47.797 E243.21409
G1 X68.044 Y46.476 E243.33588
G1 X68.608 Y45.244 E243.45905
G1 X69.471 Y44.201 E243.58213
G1 X70.567 Y43.420 E243.70455
G1 X71.741 Y42.970 E243.81883
G1 X72.938 Y42.813 E243.92864
G1 X127.106 Y42.816 E248.85407
G1 X128.274 Y42.973 E248.96123
G1 X129.442 Y43.425 E249.07511
G1 X130.605 Y44.274 E249.20605
G1 X131.495 Y45.416 E249.33771
G1 X132.026 Y46.725 E249.46621
G1 X132.181 Y47.849 E249.56937
G1 X132.187 Y72.753 E251.83384
G1 X131.562 Y73.438 F4800.000
G1 F1800
G1 X137.088 Y73.441 E252.33628
G1 X138.232 Y73.609 E252.44145
G1 X139.329 Y74.080 E252.55002
G1 X140.265 Y74.816 E252.65826
G1 X140.975 Y75.765 E252.76601
G1 X141.394 Y76.780 E252.86593
G1 X141.553 Y77.829 E252.96237
G1 X141.562 Y202.041 E264.25694
G1 X141.369 Y203.306 E264.37328
G1 X140.926 Y204.320 E264.47389
G1 X140.196 Y205.253 E264.58165
G1 X139.324 Y205.924 E264.68170
G1 X138.310 Y206.368 E264.78232
G1 X137.041 Y206.562 E264.89903
G1 X131.562 Y206.562 E265.39724
G1 X131.556 Y232.131 E267.72216
G1 X131.368 Y233.308 E267.83061
G1 X130.881 Y234.395 E267.93890
G1 X130.128 Y235.318 E268.04716
G1 X129.166 Y236.013 E268.15514
G1 X128.138 Y236.416 E268.25553
G1 X127.041 Y236.562 E268.35617
G1 X72.957 Y236.562 E273.27396
G1 X71.768 Y236.390 E273.38326
G1 X70.672 Y235.921 E273.49168
G1 X69.682 Y235.128 E273.60704
G1 X68.989 Y234.170 E273.71451
G1 X68.606 Y233.221 E273.80757
G1 X68.447 Y232.171 E273.90412
G1 X68.438 Y206.562 E276.23271
G1 X62.912 Y206.559 E276.73514
G1 X61.768 Y206.391 E276.84031
G1 X60.671 Y205.920 E276.94888
