; generated by Slic3r Prusa Edition 1.40.1+win64 on 2019-03-14 at 17:10:01

; Unselected the "only retract when crossing perimiters" option on the Infill page to see if I can get Z lift when retracting within a layer. Stop the head catching and also not leave a filament trail when travelling.
; Changed layer height from 0.3 to 0.2 to see better output - "Layers and Perimeters" page
; No Brim

; external perimeters extrusion width = 0.45mm
; perimeters extrusion width = 0.45mm
; infill extrusion width = 0.45mm
; solid infill extrusion width = 0.45mm
; top infill extrusion width = 0.40mm
; first layer extrusion width = 0.70mm

M107
M190 S60 ; set bed temperature and wait for it to be reached
M104 S210 ; set temperature
G28 ; home all axes
G1 Z5 F5000 ; lift nozzle
; Filament gcode
M109 S210 ; set temperature and wait for it to be reached
G21 ; set units to millimeters
G90 ; use absolute coordinates
M82 ; use absolute distances for extrusion
G92 E0
G1 E-4.00000 F2400.00000
G92 E0
G1 Z0.350 F4800.000
G1 Z0.650
G1 X65.372 Y40.696
G1 Z0.350
G1 E4.00000 F2400.00000
G1 F1800
G1 X66.923 Y39.382 E4.18485
G1 X68.045 Y38.681 E4.30516
G1 X69.423 Y38.078 E4.44193
G1 X70.295 Y37.794 E4.52528
G1 X71.924 Y37.514 E4.67563
G1 X72.811 Y37.443 E4.75651
G1 X127.006 Y37.438 E9.68445
G1 X128.757 Y37.604 E9.84432
G1 X129.754 Y37.807 E9.93691
G1 X131.433 Y38.432 E10.09978
G1 X132.390 Y38.917 E10.19730
G1 X133.811 Y39.946 E10.35684
G1 X134.589 Y40.654 E10.45252
G1 X135.711 Y42.049 E10.61531
G1 X136.314 Y43.025 E10.71961
G1 X137.051 Y44.775 E10.89227
G1 X147.082 Y74.864 E13.77632
G1 X147.326 Y75.804 E13.86460
G1 X147.504 Y77.067 E13.98057
G1 X147.559 Y77.968 E14.06268
G1 X147.562 Y202.020 E25.34268
G1 X147.392 Y203.790 E25.50440
G1 X147.186 Y204.795 E25.59761
G1 X137.068 Y235.181 E28.50976
G1 X136.569 Y236.432 E28.63221
G1 X135.850 Y237.755 E28.76912
G1 X134.581 Y239.354 E28.95472
G1 X132.990 Y240.683 E29.14332
G1 X131.805 Y241.400 E29.26917
G1 X130.455 Y241.970 E29.40240
G1 X129.587 Y242.240 E29.48513
G1 X127.967 Y242.500 E29.63430
G1 X127.100 Y242.562 E29.71333
G1 X72.952 Y242.562 E34.63695
G1 X71.196 Y242.390 E34.79744
G1 X70.205 Y242.186 E34.88942
G1 X69.376 Y241.903 E34.96906
G1 X67.901 Y241.249 E35.11578
G1 X67.134 Y240.773 E35.19789
G1 X66.036 Y239.930 E35.32372
G1 X65.236 Y239.156 E35.42494
G1 X64.382 Y238.077 E35.55013
G1 X63.505 Y236.602 E35.70609
G1 X62.945 Y235.212 E35.84235
G1 X52.913 Y205.123 E38.72641
G1 X52.668 Y204.163 E38.81653
G1 X52.482 Y202.812 E38.94053
G1 X52.438 Y77.980 E50.29145
G1 X52.605 Y76.237 E50.45068
G1 X52.811 Y75.233 E50.54389
G1 X62.932 Y44.820 E53.45837
G1 X63.421 Y43.594 E53.57846
G1 X64.127 Y42.279 E53.71414
G1 X65.335 Y40.743 E53.89183
G1 E49.89183 F2400.00000
G92 E0
G1 Z0.650 F4800.000
G1 X64.455 Y42.928
G1 Z0.350
G1 E4.00000 F2400.00000
G1 F1800
G1 X65.642 Y41.328 E4.18117
G1 X66.619 Y40.403 E4.30346
G1 X67.571 Y39.686 E4.41188
G1 X68.338 Y39.233 E4.49288
G1 X69.654 Y38.659 E4.62341
G1 X70.458 Y38.397 E4.70028
G1 X72.835 Y38.068 E4.91847
G1 X127.006 Y38.063 E9.84425
G1 X128.674 Y38.223 E9.99663
G1 X129.592 Y38.410 E10.08177
G1 X131.195 Y39.009 E10.23739
G1 X132.081 Y39.460 E10.32784
G1 X133.432 Y40.443 E10.47969
G1 X134.151 Y41.101 E10.56837
G1 X135.218 Y42.433 E10.72357
G1 X135.781 Y43.354 E10.82169
G1 X136.459 Y44.976 E10.98151
G1 X146.489 Y75.060 E13.86512
G1 X146.715 Y75.936 E13.94730
G1 X146.886 Y77.164 E14.06011
G1 X146.937 Y202.019 E25.41313
G1 X146.771 Y203.714 E25.56798
G1 X146.581 Y204.637 E25.65371
G1 X136.475 Y234.983 E28.56197
G1 X136.002 Y236.167 E28.67791
G1 X135.335 Y237.401 E28.80550
G1 X134.129 Y238.922 E28.98196
G1 X132.614 Y240.184 E29.16129
G1 X131.523 Y240.842 E29.27709
G1 X130.238 Y241.384 E29.40398
G1 X129.437 Y241.634 E29.48026
G1 X127.082 Y241.937 E29.69615
G1 X72.954 Y241.937 E34.61794
G1 X71.279 Y241.771 E34.77102
G1 X70.362 Y241.581 E34.85616
G1 X68.188 Y240.694 E35.06969
G1 X66.432 Y239.446 E35.26555
G1 X65.690 Y238.726 E35.35954
G1 X64.871 Y237.687 E35.47991
G1 X64.062 Y236.317 E35.62455
G1 X63.537 Y235.012 E35.75247
G1 X53.507 Y204.927 E38.63607
G1 X53.280 Y204.032 E38.72003
G1 X53.102 Y202.732 E38.83934
G1 X53.063 Y77.981 E50.18296
G1 X53.225 Y76.313 E50.33532
G1 X53.416 Y75.390 E50.42104
G1 X63.688 Y44.580 E53.37421
G1 X64.430 Y42.982 E53.53433
G1 E49.53433 F2400.00000
G92 E0
G1 Z0.650 F4800.000
G1 X70.616 Y39.002
G1 Z0.350
G1 E4.00000 F2400.00000
G1 F1800
G1 X72.853 Y38.692 E4.20528
G1 X127.006 Y38.688 E9.12940
G1 X128.592 Y38.843 E9.27429
G1 X129.430 Y39.014 E9.35212
G1 X130.956 Y39.587 E9.50033
G1 X131.774 Y40.005 E9.58379
G1 X133.047 Y40.936 E9.72725
G1 X133.710 Y41.544 E9.80902
G1 X134.724 Y42.817 E9.95705
G1 X135.247 Y43.682 E10.04895
G1 X135.870 Y45.183 E10.19676
G1 X145.896 Y75.256 E13.07926
G1 X146.104 Y76.068 E13.15540
G1 X146.268 Y77.254 E13.26427
G1 X146.312 Y202.012 E24.60851
G1 X146.153 Y203.625 E24.75587
G1 X145.977 Y204.475 E24.83483
G1 X135.735 Y235.180 E27.77801
G1 X135.005 Y236.757 E27.93605
G1 X133.861 Y238.290 E28.10996
G1 X133.254 Y238.893 E28.18779
G1 X132.328 Y239.617 E28.29469
G1 X131.251 Y240.279 E28.40963
G1 X129.291 Y241.026 E28.60039
G1 X127.075 Y241.312 E28.80349
G1 X72.963 Y241.312 E33.72392
G1 X71.363 Y241.151 E33.87017
G1 X70.524 Y240.977 E33.94799
G1 X68.480 Y240.141 E34.14885
G1 X66.828 Y238.962 E34.33340
G1 X66.144 Y238.296 E34.42024
G1 X65.360 Y237.298 E34.53560
G1 X64.622 Y236.037 E34.66850
G1 X64.128 Y234.811 E34.78868
G1 X54.102 Y204.738 E37.67118
G1 X53.892 Y203.908 E37.74901
G1 X53.722 Y202.654 E37.86409
G1 X53.688 Y77.988 E49.19992
G1 X53.843 Y76.402 E49.34479
G1 X54.019 Y75.552 E49.42375
G1 X64.258 Y44.838 E52.36759
G1 X64.985 Y43.259 E52.52572
G1 X66.106 Y41.747 E52.69683
G1 X67.005 Y40.894 E52.80953
G1 X67.922 Y40.203 E52.91393
G1 X68.633 Y39.784 E52.98895
G1 X70.561 Y39.024 E53.17740
G1 E49.17740 F2400.00000
G92 E0
G1 Z0.650 F4800.000
G1 X125.405 Y226.793
G1 Z0.350
G1 E4.00000 F2400.00000
G1 F1800
G1 X126.190 Y226.994 E4.07368
G1 X126.900 Y227.385 E4.14736
G1 X127.491 Y227.939 E4.22104
G1 X127.925 Y228.624 E4.29473
G1 X128.177 Y229.398 E4.36879
G1 X128.222 Y230.226 E4.44421
G1 X128.074 Y230.999 E4.51572
G1 X127.729 Y231.732 E4.58940
G1 X127.213 Y232.356 E4.66308
G1 X126.557 Y232.833 E4.73676
G1 X125.804 Y233.131 E4.81044
G1 X125.000 Y233.233 E4.88412
G1 X124.196 Y233.131 E4.95781
G1 X123.443 Y232.833 E5.03149
G1 X122.787 Y232.356 E5.10517
G1 X122.271 Y231.732 E5.17885
G1 X121.926 Y230.999 E5.25253
G1 X121.774 Y230.203 E5.32621
G1 X121.825 Y229.394 E5.39989
G1 X122.075 Y228.624 E5.47358
G1 X122.509 Y227.939 E5.54726
G1 X123.100 Y227.385 E5.62094
G1 X123.810 Y226.994 E5.69462
G1 X124.595 Y226.793 E5.76830
G1 X125.345 Y226.793 E5.83653
G1 X125.326 Y227.418 F4800.000
G1 F1800
G1 X125.958 Y227.580 E5.89585
G1 X126.530 Y227.894 E5.95518
G1 X127.005 Y228.341 E6.01450
G1 X127.355 Y228.892 E6.07383
G1 X127.557 Y229.514 E6.13329
G1 X127.594 Y230.184 E6.19436
G1 X127.475 Y230.804 E6.25175
G1 X127.198 Y231.395 E6.31108
G1 X126.782 Y231.897 E6.37040
G1 X126.254 Y232.281 E6.42972
G1 X125.647 Y232.521 E6.48905
G1 X125.000 Y232.603 E6.54838
G1 X124.353 Y232.521 E6.60770
G1 X123.746 Y232.281 E6.66703
G1 X123.218 Y231.897 E6.72635
G1 X122.802 Y231.395 E6.78568
G1 X122.525 Y230.804 E6.84500
G1 X122.402 Y230.163 E6.90433
G1 X122.443 Y229.512 E6.96365
G1 X122.645 Y228.892 E7.02298
G1 X122.995 Y228.341 E7.08230
G1 X123.470 Y227.894 E7.14163
G1 X124.042 Y227.580 E7.20095
G1 X124.674 Y227.418 E7.26028
G1 X125.266 Y227.418 E7.31415
G1 X125.568 Y227.099 F4800.000
G1 E3.31415 F2400.00000
G92 E0
G1 Z0.650 F4800.000
G1 X125.000 Y222.683
G1 Z0.350
G1 E4.00000 F2400.00000
G1 F1800
G1 X124.333 Y222.598 E4.06115
G1 X123.708 Y222.351 E4.12229
G1 X123.164 Y221.956 E4.18343
G1 X122.735 Y221.437 E4.24458
G1 X122.449 Y220.829 E4.30573
G1 X122.329 Y220.200 E4.36399
G1 X122.363 Y219.504 E4.42733
G1 X122.573 Y218.858 E4.48910
G1 X122.933 Y218.290 E4.55024
G1 X123.423 Y217.830 E4.61139
G1 X123.985 Y217.521 E4.66966
G1 X124.657 Y217.339 E4.73300
G1 X125.336 Y217.339 E4.79476
G1 X125.988 Y217.506 E4.85590
G1 X126.577 Y217.830 E4.91705
G1 X127.067 Y218.290 E4.97820
G1 X127.427 Y218.858 E5.03934
G1 X127.637 Y219.504 E5.10110
G1 X127.671 Y220.200 E5.16445
G1 X127.551 Y220.829 E5.22271
G1 X127.265 Y221.437 E5.28386
G1 X126.836 Y221.956 E5.34501
G1 X126.292 Y222.351 E5.40615
G1 X125.667 Y222.598 E5.46729
G1 X125.060 Y222.675 E5.52298
G1 X125.000 Y222.053 F4800.000
G1 F1800
G1 X124.489 Y221.988 E5.56977
G1 X124.011 Y221.799 E5.61656
G1 X123.595 Y221.496 E5.66335
G1 X123.267 Y221.100 E5.71014
G1 X123.048 Y220.634 E5.75693
G1 X122.956 Y220.156 E5.80123
G1 X122.983 Y219.618 E5.85022
G1 X123.143 Y219.126 E5.89723
G1 X123.418 Y218.692 E5.94402
G1 X123.793 Y218.339 E5.99081
G1 X124.220 Y218.105 E6.03511
G1 X124.740 Y217.963 E6.08410
G1 X125.257 Y217.963 E6.13111
G1 X125.756 Y218.091 E6.17790
G1 X126.207 Y218.339 E6.22469
G1 X126.582 Y218.692 E6.27148
G1 X126.857 Y219.126 E6.31827
G1 X127.017 Y219.618 E6.36528
G1 X127.044 Y220.156 E6.41426
G1 X126.952 Y220.634 E6.45856
G1 X126.733 Y221.100 E6.50535
G1 X126.405 Y221.496 E6.55214
G1 X125.989 Y221.799 E6.59893
G1 X125.511 Y221.988 E6.64572
G1 X125.060 Y222.045 E6.68705
G1 X124.800 Y222.399 F4800.000
G1 E2.68705 F2400.00000
G92 E0
G1 Z0.650 F4800.000
G1 X117.491 Y227.939
G1 Z0.350
G1 E4.00000 F2400.00000
G1 F1800
G1 X117.925 Y228.624 E4.07368
G1 X118.175 Y229.394 E4.14736
G1 X118.226 Y230.203 E4.22104
G1 X118.074 Y230.999 E4.29472
G1 X117.729 Y231.732 E4.36841
G1 X117.213 Y232.356 E4.44209
G1 X116.557 Y232.833 E4.51577
G1 X115.804 Y233.131 E4.58945
G1 X115.000 Y233.233 E4.66313
G1 X114.196 Y233.131 E4.73682
G1 X113.443 Y232.833 E4.81050
G1 X112.787 Y232.356 E4.88418
G1 X112.271 Y231.732 E4.95786
G1 X111.926 Y230.999 E5.03154
G1 X111.774 Y230.203 E5.10522
G1 X111.825 Y229.394 E5.17890
G1 X112.075 Y228.624 E5.25258
G1 X112.509 Y227.939 E5.32627
G1 X113.100 Y227.385 E5.39995
G1 X113.810 Y226.994 E5.47363
G1 X114.595 Y226.793 E5.54731
G1 X115.405 Y226.793 E5.62099
G1 X116.190 Y226.994 E5.69468
G1 X116.900 Y227.385 E5.76836
G1 X117.447 Y227.898 E5.83658
G1 X117.005 Y228.341 F4800.000
G1 F1800
G1 X117.355 Y228.892 E5.89591
G1 X117.557 Y229.512 E5.95523
G1 X117.598 Y230.163 E6.01456
G1 X117.475 Y230.804 E6.07388
G1 X117.198 Y231.395 E6.13321
G1 X116.782 Y231.897 E6.19253
G1 X116.254 Y232.281 E6.25186
G1 X115.647 Y232.521 E6.31118
G1 X115.000 Y232.603 E6.37051
G1 X114.353 Y232.521 E6.42983
G1 X113.746 Y232.281 E6.48916
G1 X113.218 Y231.897 E6.54848
G1 X112.802 Y231.395 E6.60781
G1 X112.525 Y230.804 E6.66714
G1 X112.402 Y230.163 E6.72646
G1 X112.443 Y229.512 E6.78578
G1 X112.645 Y228.892 E6.84511
G1 X112.995 Y228.341 E6.90444
G1 X113.470 Y227.894 E6.96376
G1 X114.042 Y227.580 E7.02309
G1 X114.674 Y227.418 E7.08241
G1 X115.326 Y227.418 E7.14174
G1 X115.958 Y227.580 E7.20106
G1 X116.530 Y227.894 E7.26039
G1 X116.962 Y228.300 E7.31426
G1 X117.400 Y228.274 F4800.000
G1 E3.31426 F2400.00000
G92 E0
G1 Z0.650 F4800.000
G1 X117.510 Y227.923
G1 X120.000 Y225.272
G1 X120.000 Y224.905
G1 X116.954 Y224.033
G1 X113.863 Y223.930
G1 X112.268 Y224.182
G1 X110.000 Y224.905
G1 X110.000 Y228.805
G1 X108.175 Y229.394
G1 Z0.350
G1 E4.00000 F2400.00000
G1 F1800
G1 X108.226 Y230.203 E4.07368
G1 X108.074 Y230.999 E4.14736
G1 X107.729 Y231.732 E4.22104
G1 X107.213 Y232.356 E4.29473
G1 X106.557 Y232.833 E4.36840
G1 X105.804 Y233.131 E4.44209
G1 X105.000 Y233.233 E4.51577
G1 X104.196 Y233.131 E4.58945
G1 X103.443 Y232.833 E4.66313
G1 X102.787 Y232.356 E4.73681
G1 X102.271 Y231.732 E4.81049
G1 X101.926 Y230.999 E4.88418
G1 X101.774 Y230.203 E4.95786
G1 X101.825 Y229.394 E5.03154
G1 X102.075 Y228.624 E5.10522
G1 X102.509 Y227.939 E5.17890
G1 X103.100 Y227.385 E5.25258
G1 X103.810 Y226.994 E5.32626
G1 X104.595 Y226.793 E5.39995
G1 X105.405 Y226.793 E5.47363
G1 X106.190 Y226.994 E5.54731
G1 X106.900 Y227.385 E5.62099
G1 X107.491 Y227.939 E5.69467
G1 X107.925 Y228.624 E5.76836
G1 X108.157 Y229.337 E5.83658
G1 X107.557 Y229.512 F4800.000
G1 F1800
G1 X107.598 Y230.163 E5.89591
G1 X107.475 Y230.804 E5.95523
G1 X107.198 Y231.395 E6.01456
G1 X106.782 Y231.897 E6.07388
G1 X106.254 Y232.281 E6.13321
G1 X105.647 Y232.521 E6.19253
G1 X105.000 Y232.603 E6.25186
G1 X104.353 Y232.521 E6.31118
G1 X103.746 Y232.281 E6.37051
G1 X103.218 Y231.897 E6.42983
G1 X102.802 Y231.395 E6.48916
G1 X102.525 Y230.804 E6.54848
G1 X102.402 Y230.163 E6.60781
G1 X102.443 Y229.512 E6.66713
G1 X102.645 Y228.892 E6.72646
G1 X102.995 Y228.341 E6.78578
G1 X103.470 Y227.894 E6.84511
G1 X104.042 Y227.580 E6.90443
G1 X104.674 Y227.418 E6.96376
G1 X105.326 Y227.418 E7.02308
G1 X105.958 Y227.580 E7.08241
G1 X106.530 Y227.894 E7.14174
G1 X107.005 Y228.341 E7.20106
G1 X107.355 Y228.892 E7.26039
G1 X107.538 Y229.455 E7.31426
G1 X107.934 Y229.644 F4800.000
G1 E3.31426 F2400.00000
G92 E0
G1 Z0.650 F4800.000
G1 X110.000 Y229.276
G1 X110.000 Y231.899
G1 X107.995 Y233.008
G1 X105.863 Y233.576
G1 X104.029 Y233.562
G1 X102.005 Y233.008
G1 X100.000 Y231.899
G1 X100.000 Y230.538
G1 X98.226 Y230.203
G1 Z0.350
G1 E4.00000 F2400.00000
G1 F1800
G1 X98.074 Y230.999 E4.07368
G1 X97.729 Y231.732 E4.14736
G1 X97.213 Y232.356 E4.22104
G1 X96.557 Y232.833 E4.29472
G1 X95.804 Y233.131 E4.36841
G1 X95.000 Y233.233 E4.44209
G1 X94.196 Y233.131 E4.51577
G1 X93.443 Y232.833 E4.58945
G1 X92.787 Y232.356 E4.66313
G1 X92.271 Y231.732 E4.73681
G1 X91.926 Y230.999 E4.81050
G1 X91.774 Y230.203 E4.88418
G1 X91.825 Y229.394 E4.95786
G1 X92.075 Y228.624 E5.03154
G1 X92.509 Y227.939 E5.10522
G1 X93.100 Y227.385 E5.17890
G1 X93.810 Y226.994 E5.25258
G1 X94.595 Y226.793 E5.32627
G1 X95.405 Y226.793 E5.39995
G1 X96.190 Y226.994 E5.47363
G1 X96.900 Y227.385 E5.54731
G1 X97.491 Y227.939 E5.62099
G1 X97.925 Y228.624 E5.69468
G1 X98.175 Y229.394 E5.76836
G1 X98.222 Y230.143 E5.83658
G1 X97.598 Y230.163 F4800.000
G1 F1800
G1 X97.475 Y230.804 E5.89591
G1 X97.198 Y231.395 E5.95523
G1 X96.782 Y231.897 E6.01456
G1 X96.254 Y232.281 E6.07388
G1 X95.647 Y232.521 E6.13321
G1 X95.000 Y232.603 E6.19253
G1 X94.353 Y232.521 E6.25186
G1 X93.746 Y232.281 E6.31118
G1 X93.218 Y231.897 E6.37051
G1 X92.802 Y231.395 E6.42983
G1 X92.525 Y230.804 E6.48916
G1 X92.402 Y230.163 E6.54848
G1 X92.443 Y229.512 E6.60781
G1 X92.645 Y228.892 E6.66713
G1 X92.995 Y228.341 E6.72646
G1 X93.470 Y227.894 E6.78578
G1 X94.042 Y227.580 E6.84511
G1 X94.674 Y227.418 E6.90444
G1 X95.326 Y227.418 E6.96376
G1 X95.958 Y227.580 E7.02309
G1 X96.530 Y227.894 E7.08241
G1 X97.005 Y228.341 E7.14174
G1 X97.355 Y228.892 E7.20106
G1 X97.557 Y229.512 E7.26039
G1 X97.594 Y230.104 E7.31426
G1 X97.931 Y230.385 F4800.000
G1 E3.31426 F2400.00000
G92 E0
G1 Z0.650 F4800.000
G1 X100.000 Y230.538
G1 X100.000 Y231.899
G1 X97.758 Y233.102
G1 X96.788 Y233.407
G1 X95.047 Y233.628
G1 X93.058 Y233.367
G1 X91.188 Y232.623
G1 X90.000 Y231.899
G1 X90.000 Y230.538
G1 X88.222 Y230.226
G1 Z0.350
G1 E4.00000 F2400.00000
G1 F1800
G1 X88.074 Y230.999 E4.07151
G1 X87.729 Y231.732 E4.14519
G1 X87.213 Y232.356 E4.21887
G1 X86.557 Y232.833 E4.29255
G1 X85.804 Y233.131 E4.36623
G1 X85.000 Y233.233 E4.43991
G1 X84.196 Y233.131 E4.51360
G1 X83.443 Y232.833 E4.58728
G1 X82.787 Y232.356 E4.66096
G1 X82.271 Y231.732 E4.73464
G1 X81.926 Y230.999 E4.80832
G1 X81.774 Y230.203 E4.88200
G1 X81.825 Y229.394 E4.95568
G1 X82.075 Y228.624 E5.02937
G1 X82.509 Y227.939 E5.10305
G1 X83.100 Y227.385 E5.17673
G1 X83.810 Y226.994 E5.25041
G1 X84.595 Y226.793 E5.32409
G1 X85.405 Y226.793 E5.39778
G1 X86.190 Y226.994 E5.47146
G1 X86.900 Y227.385 E5.54514
G1 X87.491 Y227.939 E5.61882
G1 X87.925 Y228.624 E5.69250
G1 X88.177 Y229.398 E5.76656
G1 X88.219 Y230.167 E5.83653
G1 X87.594 Y230.184 F4800.000
G1 F1800
G1 X87.475 Y230.804 E5.89392
G1 X87.198 Y231.395 E5.95325
G1 X86.782 Y231.897 E6.01257
G1 X86.254 Y232.281 E6.07190
G1 X85.647 Y232.521 E6.13122
G1 X85.000 Y232.603 E6.19055
G1 X84.353 Y232.521 E6.24987
G1 X83.746 Y232.281 E6.30920
G1 X83.218 Y231.897 E6.36852
G1 X82.802 Y231.395 E6.42785
G1 X82.525 Y230.804 E6.48718
G1 X82.402 Y230.163 E6.54650
G1 X82.443 Y229.512 E6.60582
G1 X82.645 Y228.892 E6.66515
G1 X82.995 Y228.341 E6.72448
