; generated by Slic3r Prusa Edition 1.40.1+win64 on 2019-03-14 at 12:42:27

; Unselected the "only retract when crossing perimiters" option on the Infill page to see if I can get Z lift when retracting within a layer. Stop the head catching and also not leave a filament trail when travelling.
; Changed layer height from 0.3 to 0.2 to see better output - "Layers and Perimeters" page
; No Brim

; external perimeters extrusion width = 0.45mm
; perimeters extrusion width = 0.45mm
; infill extrusion width = 0.45mm
; solid infill extrusion width = 0.45mm
; top infill extrusion width = 0.40mm
; first layer extrusion width = 0.70mm

M107
M190 S60 ; set bed temperature and wait for it to be reached
M104 S210 ; set temperature
G28 ; home all axes
G1 Z5 F5000 ; lift nozzle
; Filament gcode
M109 S210 ; set temperature and wait for it to be reached
G21 ; set units to millimeters
G90 ; use absolute coordinates
M82 ; use absolute distances for extrusion
G92 E0
G1 E-4.00000 F2400.00000
G92 E0
G1 Z0.350 F4800.000
G1 Z0.650
G1 X40.522 Y69.529
G1 Z0.350
G1 E4.00000 F2400.00000
G1 F1800
G1 X42.281 Y68.648 E4.17891
G1 X44.093 Y67.898 E4.35720
G1 X45.966 Y67.275 E4.53672
G1 X47.866 Y66.791 E4.71501
G1 X49.803 Y66.441 E4.89391
G1 X51.759 Y66.231 E5.07282
G1 X53.732 Y66.161 E5.25234
G1 X55.928 Y66.252 E5.45223
G1 X57.641 Y66.441 E5.60890
G1 X59.317 Y66.738 E5.76372
G1 X61.451 Y67.267 E5.96360
G1 X63.376 Y67.907 E6.14806
G1 X65.396 Y68.758 E6.34733
G1 X66.934 Y69.533 E6.50400
G1 X68.418 Y70.409 E6.66067
G1 X70.226 Y71.648 E6.85994
G1 X71.891 Y72.998 E7.05489
G1 X73.209 Y74.230 E7.21897
G1 X165.776 Y166.797 E19.12244
G1 X167.099 Y168.218 E19.29904
G1 X168.285 Y169.685 E19.47053
G1 X169.583 Y171.567 E19.67843
G1 X170.465 Y173.063 E19.83636
G1 X171.241 Y174.602 E19.99301
G1 X172.102 Y176.646 E20.19475
G1 X172.790 Y178.755 E20.39649
G1 X173.209 Y180.420 E20.55254
G1 X173.521 Y182.121 E20.70986
G1 X173.771 Y184.339 E20.91280
G1 X173.839 Y186.251 E21.08677
G1 X173.783 Y187.974 E21.24347
G1 X173.562 Y190.174 E21.44459
G1 X173.154 Y192.369 E21.64753
G1 X172.722 Y194.044 E21.80482
G1 X172.180 Y195.687 E21.96213
G1 X171.347 Y197.728 E22.16263
G1 X170.342 Y199.706 E22.36434
G1 X169.462 Y201.179 E22.52039
G1 X168.480 Y202.603 E22.67771
G1 X167.092 Y204.343 E22.88005
G1 X165.579 Y205.947 E23.08054
G1 X164.314 Y207.117 E23.23720
G1 X162.868 Y208.285 E23.40624
G1 X161.188 Y209.457 E23.59254
G1 X159.466 Y210.478 E23.77455
G1 X157.688 Y211.366 E23.95529
G1 X155.670 Y212.185 E24.15332
G1 X154.040 Y212.723 E24.30938
G1 X152.398 Y213.147 E24.46359
G1 X150.439 Y213.520 E24.64496
G1 X148.282 Y213.766 E24.84235
G1 X146.288 Y213.839 E25.02373
G1 X144.308 Y213.768 E25.20389
G1 X142.318 Y213.553 E25.38589
G1 X140.370 Y213.198 E25.56600
G1 X138.254 Y212.642 E25.76493
G1 X136.643 Y212.100 E25.91949
G1 X135.074 Y211.456 E26.07368
G1 X133.276 Y210.577 E26.25564
G1 X131.408 Y209.484 E26.45243
G1 X129.768 Y208.348 E26.63383
G1 X128.226 Y207.105 E26.81396
G1 X126.787 Y205.766 E26.99269
G1 X34.224 Y113.203 E38.89570
G1 X32.901 Y111.782 E39.07231
G1 X31.715 Y110.315 E39.24379
G1 X30.547 Y108.640 E39.42949
G1 X29.542 Y106.949 E39.60840
G1 X28.657 Y105.184 E39.78792
G1 X27.915 Y103.398 E39.96373
G1 X27.281 Y101.500 E40.14573
G1 X26.799 Y99.620 E40.32217
G1 X26.446 Y97.678 E40.50169
G1 X26.253 Y95.938 E40.66083
G1 X26.161 Y93.776 E40.85763
G1 X26.227 Y91.830 E41.03467
G1 X26.436 Y89.839 E41.21667
G1 X26.738 Y88.129 E41.37457
G1 X27.358 Y85.701 E41.60250
G1 X27.924 Y84.026 E41.76320
G1 X28.764 Y82.039 E41.95938
G1 X29.550 Y80.483 E42.11790
G1 X30.556 Y78.792 E42.29681
G1 X31.664 Y77.199 E42.47324
G1 X32.917 Y75.647 E42.65462
G1 X34.235 Y74.233 E42.83044
G1 X35.680 Y72.888 E43.00996
G1 X37.213 Y71.654 E43.18886
G1 X38.852 Y70.517 E43.37024
G1 X40.470 Y69.559 E43.54122
G1 X40.788 Y70.096 F4800.000
G1 F1800
G1 X42.539 Y69.218 E43.71931
G1 X44.309 Y68.485 E43.89356
G1 X46.140 Y67.875 E44.06901
G1 X47.997 Y67.402 E44.24326
G1 X49.889 Y67.060 E44.41811
G1 X51.801 Y66.855 E44.59296
G1 X53.730 Y66.786 E44.76840
G1 X55.865 Y66.874 E44.96275
G1 X57.557 Y67.060 E45.11749
G1 X59.206 Y67.353 E45.26986
G1 X61.281 Y67.868 E45.46421
G1 X63.155 Y68.491 E45.64379
G1 X65.119 Y69.318 E45.83755
G1 X66.633 Y70.081 E45.99170
G1 X68.093 Y70.942 E46.14584
G1 X69.856 Y72.151 E46.34019
G1 X71.475 Y73.464 E46.52982
G1 X72.766 Y74.671 E46.69047
G1 X165.333 Y167.238 E58.59406
G1 X166.626 Y168.626 E58.76650
G1 X167.782 Y170.056 E58.93367
G1 X169.047 Y171.890 E59.13629
G1 X169.919 Y173.367 E59.29223
G1 X170.681 Y174.880 E59.44635
G1 X171.515 Y176.863 E59.64189
G1 X172.185 Y178.913 E59.83801
G1 X172.598 Y180.550 E59.99157
G1 X172.906 Y182.231 E60.14693
G1 X173.147 Y184.380 E60.34361
G1 X173.210 Y186.524 E60.53862
G1 X173.144 Y188.218 E60.69272
G1 X172.943 Y190.084 E60.86344
G1 X172.548 Y192.218 E61.06072
G1 X172.123 Y193.865 E61.21546
G1 X171.590 Y195.482 E61.37022
G1 X170.780 Y197.467 E61.56515
G1 X169.803 Y199.390 E61.76126
G1 X168.938 Y200.840 E61.91481
G1 X167.971 Y202.240 E62.06957
G1 X166.622 Y203.931 E62.26628
G1 X165.151 Y205.491 E62.46121
G1 X163.907 Y206.643 E62.61535
G1 X162.498 Y207.782 E62.78015
G1 X160.851 Y208.930 E62.96267
G1 X159.169 Y209.928 E63.14050
G1 X157.432 Y210.796 E63.31711
G1 X155.470 Y211.594 E63.50968
G1 X153.866 Y212.123 E63.66324
G1 X152.243 Y212.541 E63.81562
G1 X150.329 Y212.905 E63.99283
G1 X148.231 Y213.143 E64.18479
G1 X146.290 Y213.214 E64.36141
G1 X144.355 Y213.145 E64.53747
G1 X142.411 Y212.935 E64.71528
G1 X140.513 Y212.590 E64.89069
G1 X138.451 Y212.049 E65.08452
G1 X136.863 Y211.516 E65.23685
G1 X135.313 Y210.878 E65.38921
G1 X133.557 Y210.019 E65.56698
G1 X131.741 Y208.955 E65.75837
G1 X130.123 Y207.833 E65.93738
G1 X128.637 Y206.635 E66.11104
G1 X127.229 Y205.324 E66.28591
G1 X34.667 Y112.762 E78.18887
G1 X33.370 Y111.369 E78.36192
G1 X32.218 Y109.944 E78.52848
G1 X31.073 Y108.303 E78.71043
G1 X30.091 Y106.651 E78.88527
G1 X29.223 Y104.920 E79.06130
G1 X28.498 Y103.174 E79.23319
G1 X27.881 Y101.325 E79.41041
G1 X27.409 Y99.481 E79.58349
G1 X27.064 Y97.583 E79.75893
G1 X26.875 Y95.872 E79.91544
G1 X26.786 Y93.763 E80.10743
G1 X26.851 Y91.861 E80.28050
G1 X27.056 Y89.922 E80.45771
G1 X27.353 Y88.240 E80.61304
G1 X27.951 Y85.898 E80.83286
G1 X28.505 Y84.255 E80.99048
G1 X29.321 Y82.322 E81.18128
G1 X30.093 Y80.791 E81.33720
G1 X31.080 Y79.133 E81.51265
G1 X32.163 Y77.576 E81.68513
G1 X33.387 Y76.059 E81.86234
G1 X34.680 Y74.672 E82.03483
G1 X36.088 Y73.362 E82.20968
G1 X37.585 Y72.155 E82.38452
G1 X39.187 Y71.045 E82.56174
G1 X40.737 Y70.127 E82.72552
G1 X41.055 Y70.664 F4800.000
G1 F1800
G1 X42.797 Y69.787 E82.90285
G1 X44.526 Y69.071 E83.07307
G1 X46.314 Y68.476 E83.24443
G1 X48.128 Y68.013 E83.41466
G1 X49.977 Y67.679 E83.58545
G1 X51.844 Y67.478 E83.75625
G1 X53.728 Y67.411 E83.92761
G1 X55.803 Y67.496 E84.11644
G1 X57.466 Y67.679 E84.26861
G1 X59.096 Y67.968 E84.41909
G1 X61.105 Y68.468 E84.60735
G1 X62.934 Y69.076 E84.78266
G1 X64.837 Y69.876 E84.97036
G1 X66.332 Y70.629 E85.12254
G1 X67.773 Y71.479 E85.27471
G1 X69.485 Y72.654 E85.46354
G1 X71.060 Y73.931 E85.64787
G1 X72.329 Y75.118 E85.80586
G1 X164.887 Y167.675 E97.70819
G1 X166.153 Y169.035 E97.87712
G1 X167.276 Y170.423 E98.03945
G1 X168.513 Y172.213 E98.23730
G1 X169.370 Y173.665 E98.39062
G1 X170.120 Y175.154 E98.54221
G1 X170.929 Y177.080 E98.73217
G1 X171.579 Y179.065 E98.92213
G1 X171.987 Y180.682 E99.07374
G1 X172.290 Y182.334 E99.22650
G1 X172.524 Y184.422 E99.41756
G1 X172.585 Y186.502 E99.60674
G1 X172.521 Y188.171 E99.75859
G1 X172.325 Y189.995 E99.92544
G1 X171.941 Y192.067 E100.11707
G1 X171.524 Y193.688 E100.26925
G1 X170.997 Y195.283 E100.42200
G1 X170.212 Y197.206 E100.61082
G1 X169.267 Y199.069 E100.80077
G1 X168.413 Y200.501 E100.95237
G1 X167.458 Y201.883 E101.10513
G1 X166.155 Y203.516 E101.29508
G1 X164.727 Y205.032 E101.48447
G1 X163.500 Y206.169 E101.63664
G1 X162.130 Y207.276 E101.79671
G1 X160.514 Y208.404 E101.97596
G1 X158.877 Y209.376 E102.14902
G1 X157.181 Y210.223 E102.32150
G1 X155.275 Y211.000 E102.50863
G1 X153.691 Y211.523 E102.66025
G1 X152.089 Y211.936 E102.81073
G1 X150.219 Y212.290 E102.98378
G1 X148.180 Y212.520 E103.17033
G1 X146.285 Y212.589 E103.34282
G1 X144.370 Y212.520 E103.51702
G1 X142.337 Y212.290 E103.70304
G1 X140.468 Y211.937 E103.87604
G1 X138.865 Y211.524 E104.02653
G1 X137.294 Y211.005 E104.17702
G1 X135.376 Y210.225 E104.36528
G1 X133.690 Y209.383 E104.53662
G1 X132.053 Y208.413 E104.70967
G1 X130.490 Y207.327 E104.88274
G1 X129.042 Y206.159 E105.05183
G1 X127.671 Y204.882 E105.22222
G1 X35.109 Y112.320 E117.12512
G1 X33.843 Y110.960 E117.29406
G1 X32.724 Y109.577 E117.45582
G1 X31.596 Y107.961 E117.63508
G1 X30.639 Y106.352 E117.80530
G1 X29.792 Y104.661 E117.97722
G1 X29.084 Y102.955 E118.14519
G1 X28.479 Y101.144 E118.31881
G1 X28.018 Y99.343 E118.48791
G1 X27.683 Y97.494 E118.65871
G1 X27.497 Y95.813 E118.81257
G1 X27.411 Y93.775 E118.99802
G1 X27.466 Y92.071 E119.15300
G1 X27.715 Y89.756 E119.36472
G1 X28.019 Y88.102 E119.51768
G1 X28.492 Y86.259 E119.69073
G1 X29.082 Y84.495 E119.85982
G1 X29.879 Y82.604 E120.04640
G1 X30.641 Y81.093 E120.20026
G1 X31.600 Y79.479 E120.37106
G1 X32.662 Y77.951 E120.54016
G1 X33.857 Y76.470 E120.71321
G1 X35.121 Y75.115 E120.88174
G1 X36.496 Y73.835 E121.05254
G1 X37.958 Y72.657 E121.22333
G1 X39.522 Y71.572 E121.39638
G1 X41.003 Y70.695 E121.55292
G1 E117.55292 F2400.00000
G92 E0
G1 Z0.650 F4800.000
G1 X134.255 Y199.748
G1 Z0.350
G1 E4.00000 F2400.00000
G1 F1800
G1 X139.898 Y194.105 E4.72564
G1 X141.452 Y195.063 E4.89166
G1 X142.357 Y195.503 E4.98316
G1 X143.302 Y195.849 E5.07466
G1 X144.277 Y196.099 E5.16616
G1 X145.226 Y196.243 E5.25345
G1 X146.277 Y196.300 E5.34913
G1 X147.327 Y196.243 E5.44481
G1 X148.276 Y196.099 E5.53210
G1 X149.251 Y195.849 E5.62360
G1 X150.196 Y195.503 E5.71510
G1 X151.101 Y195.063 E5.80660
G1 X152.655 Y194.105 E5.97262
G1 X158.298 Y199.748 E6.69825
G1 X156.188 Y201.273 E6.93495
G1 X154.904 Y202.047 E7.07129
G1 X153.560 Y202.711 E7.20762
G1 X152.165 Y203.261 E7.34396
G1 X150.729 Y203.692 E7.48030
G1 X149.262 Y204.003 E7.61663
G1 X147.775 Y204.190 E7.75297
G1 X146.277 Y204.252 E7.88931
G1 X144.779 Y204.190 E8.02565
G1 X143.291 Y204.003 E8.16198
G1 X141.886 Y203.705 E8.29252
G1 X140.390 Y203.261 E8.43448
G1 X138.993 Y202.711 E8.57097
G1 X137.649 Y202.047 E8.70731
G1 X136.365 Y201.273 E8.84365
G1 X134.304 Y199.783 E9.07489
G1 X135.215 Y199.671 F4800.000
G1 F1800
G1 X139.990 Y194.896 E9.68892
G1 X141.151 Y195.612 E9.81288
G1 X142.113 Y196.078 E9.91009
G1 X143.116 Y196.446 E10.00730
G1 X144.152 Y196.712 E10.10451
G1 X145.162 Y196.865 E10.19739
G1 X146.277 Y196.926 E10.29890
G1 X147.391 Y196.865 E10.40042
G1 X148.401 Y196.712 E10.49330
G1 X149.437 Y196.446 E10.59051
G1 X150.440 Y196.078 E10.68772
G1 X151.402 Y195.612 E10.78492
G1 X152.563 Y194.896 E10.90889
G1 X157.338 Y199.671 E11.52292
G1 X155.844 Y200.751 E11.69054
G1 X154.604 Y201.498 E11.82213
G1 X153.307 Y202.139 E11.95373
G1 X151.960 Y202.670 E12.08532
G1 X150.574 Y203.086 E12.21691
G1 X149.158 Y203.386 E12.34851
G1 X147.723 Y203.567 E12.48010
G1 X146.277 Y203.627 E12.61169
G1 X144.831 Y203.567 E12.74328
G1 X143.395 Y203.386 E12.87488
G1 X142.040 Y203.099 E13.00077
G1 X140.594 Y202.670 E13.13799
G1 X139.247 Y202.139 E13.26964
G1 X137.949 Y201.498 E13.40123
G1 X136.710 Y200.751 E13.53282
G1 X135.264 Y199.706 E13.69499
G1 X134.915 Y199.407 F4800.000
G1 E9.69499 F2400.00000
G92 E0
G1 Z0.650 F4800.000
G1 X134.216 Y199.751
G1 X133.550 Y199.004
G1 X146.277 Y186.277
G1 X133.509 Y173.509
G1 X132.805 Y174.255
G1 Z0.350
G1 E4.00000 F2400.00000
G1 F1800
G1 X138.448 Y179.898 E4.72564
G1 X137.490 Y181.452 E4.89166
G1 X137.051 Y182.357 E4.98316
G1 X136.704 Y183.302 E5.07466
G1 X136.454 Y184.277 E5.16616
G1 X136.303 Y185.272 E5.25765
G1 X136.253 Y186.277 E5.34915
G1 X136.303 Y187.282 E5.44065
G1 X136.454 Y188.276 E5.53215
G1 X136.704 Y189.249 E5.62346
G1 X137.071 Y190.237 E5.71933
G1 X137.490 Y191.101 E5.80662
G1 X138.448 Y192.655 E5.97264
G1 X132.805 Y198.298 E6.69828
G1 X131.281 Y196.188 E6.93498
G1 X130.507 Y194.904 E7.07132
G1 X129.843 Y193.560 E7.20765
G1 X129.293 Y192.165 E7.34399
G1 X128.861 Y190.729 E7.48033
G1 X128.551 Y189.262 E7.61666
G1 X128.363 Y187.775 E7.75300
G1 X128.301 Y186.277 E7.88934
G1 X128.363 Y184.779 E8.02567
G1 X128.551 Y183.291 E8.16201
G1 X128.861 Y181.824 E8.29835
G1 X129.293 Y180.388 E8.43468
G1 X129.843 Y178.993 E8.57102
G1 X130.507 Y177.647 E8.70751
G1 X131.318 Y176.313 E8.84947
G1 X132.770 Y174.304 E9.07492
G1 X132.882 Y175.215 F4800.000
G1 F1800
G1 X137.657 Y179.990 E9.68895
G1 X136.942 Y181.151 E9.81291
G1 X136.475 Y182.113 E9.91012
G1 X136.107 Y183.116 E10.00733
G1 X135.841 Y184.152 E10.10454
G1 X135.681 Y185.209 E10.20174
G1 X135.627 Y186.277 E10.29895
G1 X135.681 Y187.344 E10.39616
G1 X135.841 Y188.401 E10.49337
G1 X136.107 Y189.436 E10.59051
G1 X136.496 Y190.483 E10.69209
G1 X136.942 Y191.402 E10.78498
G1 X137.657 Y192.563 E10.90894
G1 X132.882 Y197.338 E11.52297
G1 X131.802 Y195.844 E11.69059
G1 X131.055 Y194.604 E11.82219
G1 X130.414 Y193.307 E11.95378
G1 X129.884 Y191.960 E12.08537
G1 X129.467 Y190.574 E12.21696
G1 X129.167 Y189.158 E12.34856
G1 X128.987 Y187.723 E12.48015
G1 X128.926 Y186.277 E12.61174
G1 X128.987 Y184.831 E12.74334
G1 X129.167 Y183.395 E12.87493
G1 X129.467 Y181.979 E13.00652
G1 X129.884 Y180.593 E13.13812
G1 X130.414 Y179.247 E13.26971
G1 X131.056 Y177.949 E13.40136
G1 X131.839 Y176.659 E13.53857
G1 X132.847 Y175.264 E13.69505
G1 X133.146 Y174.915 F4800.000
G1 E9.69505 F2400.00000
G92 E0
G1 Z0.650 F4800.000
G1 X132.802 Y174.216
G1 X133.509 Y173.509
G1 X146.277 Y186.277
G1 X159.004 Y173.550
G1 X158.298 Y172.805
G1 Z0.350
G1 E4.00000 F2400.00000
G1 F1800
G1 X152.655 Y178.448 E4.72564
G1 X151.101 Y177.490 E4.89166
G1 X150.196 Y177.051 E4.98316
G1 X149.251 Y176.704 E5.07466
G1 X148.276 Y176.454 E5.16616
G1 X147.282 Y176.303 E5.25765
G1 X146.279 Y176.253 E5.34896
G1 X145.226 Y176.310 E5.44483
G1 X144.277 Y176.454 E5.53213
G1 X143.304 Y176.704 E5.62344
G1 X142.316 Y177.071 E5.71931
G1 X141.452 Y177.490 E5.80660
G1 X139.898 Y178.448 E5.97262
G1 X134.255 Y172.805 E6.69826
G1 X136.365 Y171.281 E6.93496
G1 X137.649 Y170.507 E7.07129
G1 X138.993 Y169.843 E7.20763
G1 X140.388 Y169.293 E7.34397
G1 X141.824 Y168.861 E7.48031
G1 X143.291 Y168.551 E7.61664
G1 X144.779 Y168.363 E7.75298
G1 X146.213 Y168.304 E7.88352
G1 X147.773 Y168.363 E8.02548
G1 X149.262 Y168.551 E8.16197
G1 X150.729 Y168.861 E8.29831
G1 X152.165 Y169.293 E8.43464
G1 X153.560 Y169.843 E8.57098
G1 X154.904 Y170.507 E8.70732
G1 X156.188 Y171.281 E8.84365
G1 X158.250 Y172.770 E9.07490
G1 X157.338 Y172.882 F4800.000
G1 F1800
G1 X152.563 Y177.657 E9.68892
G1 X151.402 Y176.942 E9.81289
G1 X150.440 Y176.475 E9.91010
G1 X149.437 Y176.107 E10.00731
G1 X148.401 Y175.841 E10.10451
G1 X147.344 Y175.681 E10.20172
G1 X146.277 Y175.627 E10.29886
G1 X145.162 Y175.688 E10.40045
G1 X144.152 Y175.841 E10.49333
G1 X143.117 Y176.107 E10.59047
G1 X142.070 Y176.496 E10.69205
G1 X141.151 Y176.942 E10.78493
G1 X139.990 Y177.657 E10.90890
G1 X135.215 Y172.882 E11.52293
G1 X136.710 Y171.802 E11.69055
G1 X137.949 Y171.055 E11.82214
G1 X139.247 Y170.414 E11.95374
G1 X140.593 Y169.884 E12.08533
G1 X141.979 Y169.467 E12.21692
G1 X143.395 Y169.167 E12.34852
G1 X144.831 Y168.987 E12.48011
G1 X146.214 Y168.929 E12.60601
G1 X147.722 Y168.987 E12.74322
G1 X149.158 Y169.167 E12.87487
G1 X150.574 Y169.467 E13.00646
G1 X151.960 Y169.884 E13.13806
G1 X153.307 Y170.414 E13.26965
G1 X154.604 Y171.055 E13.40124
G1 X155.844 Y171.802 E13.53284
G1 X157.289 Y172.847 E13.69500
G1 X157.638 Y173.146 F4800.000
G1 E9.69500 F2400.00000
G92 E0
G1 Z0.650 F4800.000
G1 X159.748 Y174.255
G1 Z0.350
G1 E4.00000 F2400.00000
G1 F1800
G1 X161.273 Y176.365 E4.23670
G1 X162.047 Y177.650 E4.37319
G1 X162.734 Y179.053 E4.51515
G1 X163.261 Y180.388 E4.64569
G1 X163.692 Y181.824 E4.78203
G1 X164.003 Y183.291 E4.91836
G1 X164.190 Y184.779 E5.05470
G1 X164.252 Y186.277 E5.19104
G1 X164.190 Y187.775 E5.32737
G1 X164.003 Y189.262 E5.46371
G1 X163.692 Y190.729 E5.60005
