; generated by Slic3r Prusa Edition 1.40.1+win64 on 2018-10-02 at 17:44:59

; 

; external perimeters extrusion width = 0.45mm
; perimeters extrusion width = 0.45mm
; infill extrusion width = 0.45mm
; solid infill extrusion width = 0.45mm
; top infill extrusion width = 0.40mm
; first layer extrusion width = 0.70mm

M107
M190 S60 ; set bed temperature and wait for it to be reached
M104 S210 ; set temperature
G28 ; home all axes
G1 Z5 F5000 ; lift nozzle
; Filament gcode
M109 S210 ; set temperature and wait for it to be reached
G21 ; set units to millimeters
G90 ; use absolute coordinates
M82 ; use absolute distances for extrusion
G92 E0
G1 E-4.00000 F2400.00000
G92 E0
G1 Z0.350 F4800.000
G1 Z0.650
G1 X40.516 Y69.532
G1 Z0.350
G1 E4.00000 F2400.00000
G1 F1800
G1 X42.281 Y68.648 E4.17952
G1 X44.093 Y67.898 E4.35781
G1 X45.966 Y67.275 E4.53733
G1 X47.866 Y66.791 E4.71562
G1 X49.803 Y66.441 E4.89452
G1 X51.759 Y66.231 E5.07343
G1 X53.732 Y66.161 E5.25296
G1 X55.928 Y66.252 E5.45284
G1 X57.641 Y66.441 E5.60951
G1 X59.324 Y66.740 E5.76494
G1 X61.451 Y67.267 E5.96421
G1 X63.376 Y67.907 E6.14868
G1 X65.396 Y68.758 E6.34794
G1 X66.934 Y69.533 E6.50461
G1 X68.418 Y70.409 E6.66128
G1 X70.226 Y71.648 E6.86055
G1 X71.891 Y72.998 E7.05550
G1 X73.209 Y74.230 E7.21958
G1 X165.776 Y166.797 E19.12305
G1 X167.099 Y168.218 E19.29965
G1 X168.285 Y169.685 E19.47115
G1 X169.583 Y171.567 E19.67905
G1 X170.465 Y173.063 E19.83697
G1 X171.241 Y174.602 E19.99363
G1 X172.102 Y176.646 E20.19536
G1 X172.790 Y178.756 E20.39710
G1 X173.209 Y180.420 E20.55315
G1 X173.521 Y182.121 E20.71047
G1 X173.771 Y184.339 E20.91341
G1 X173.839 Y186.251 E21.08738
G1 X173.783 Y187.974 E21.24408
G1 X173.562 Y190.174 E21.44520
G1 X173.154 Y192.369 E21.64814
G1 X172.722 Y194.044 E21.80544
G1 X172.180 Y195.686 E21.96271
G1 X171.347 Y197.728 E22.16324
G1 X170.342 Y199.706 E22.36494
G1 X169.462 Y201.179 E22.52101
G1 X168.480 Y202.603 E22.67830
G1 X167.092 Y204.343 E22.88064
G1 X165.579 Y205.947 E23.08115
G1 X164.314 Y207.117 E23.23782
G1 X162.868 Y208.285 E23.40685
G1 X161.188 Y209.457 E23.59315
G1 X159.466 Y210.478 E23.77514
G1 X157.688 Y211.366 E23.95591
G1 X155.670 Y212.185 E24.15393
G1 X154.040 Y212.723 E24.30999
G1 X152.398 Y213.147 E24.46419
G1 X150.432 Y213.521 E24.64616
G1 X148.282 Y213.766 E24.84296
G1 X146.288 Y213.839 E25.02434
G1 X144.309 Y213.768 E25.20447
G1 X142.319 Y213.553 E25.38647
G1 X140.370 Y213.198 E25.56661
G1 X138.254 Y212.642 E25.76554
G1 X136.643 Y212.100 E25.92007
G1 X135.068 Y211.453 E26.07489
G1 X133.276 Y210.577 E26.25625
G1 X131.408 Y209.484 E26.45304
G1 X129.769 Y208.348 E26.63442
G1 X128.226 Y207.106 E26.81455
G1 X126.791 Y205.770 E26.99285
G1 X34.224 Y113.203 E38.89631
G1 X32.901 Y111.782 E39.07292
G1 X31.715 Y110.315 E39.24441
G1 X30.547 Y108.640 E39.43010
G1 X29.542 Y106.949 E39.60901
G1 X28.657 Y105.184 E39.78853
G1 X27.915 Y103.398 E39.96435
G1 X27.281 Y101.500 E40.14635
G1 X26.799 Y99.620 E40.32278
G1 X26.446 Y97.678 E40.50230
G1 X26.253 Y95.938 E40.66144
G1 X26.161 Y93.776 E40.85824
G1 X26.227 Y91.830 E41.03529
G1 X26.436 Y89.839 E41.21728
G1 X26.738 Y88.129 E41.37519
G1 X27.358 Y85.701 E41.60312
G1 X27.924 Y84.026 E41.76382
G1 X28.764 Y82.039 E41.95999
G1 X29.550 Y80.483 E42.11851
G1 X30.556 Y78.792 E42.29742
G1 X31.664 Y77.199 E42.47386
G1 X32.917 Y75.647 E42.65523
G1 X34.240 Y74.228 E42.83167
G1 X35.680 Y72.888 E43.01057
G1 X37.213 Y71.654 E43.18948
G1 X38.852 Y70.517 E43.37085
G1 X40.464 Y69.562 E43.54122
G1 X40.783 Y70.100 F4800.000
G1 F1800
G1 X42.539 Y69.218 E43.71992
G1 X44.309 Y68.485 E43.89418
G1 X46.140 Y67.875 E44.06962
G1 X47.997 Y67.402 E44.24388
G1 X49.889 Y67.060 E44.41872
G1 X51.801 Y66.855 E44.59358
G1 X53.730 Y66.786 E44.76902
G1 X55.865 Y66.874 E44.96336
G1 X57.557 Y67.060 E45.11811
G1 X59.213 Y67.354 E45.27106
G1 X61.281 Y67.868 E45.46482
G1 X63.155 Y68.491 E45.64441
G1 X65.119 Y69.318 E45.83817
G1 X66.633 Y70.081 E45.99231
G1 X68.093 Y70.942 E46.14645
G1 X69.856 Y72.151 E46.34080
G1 X71.475 Y73.464 E46.53043
G1 X72.771 Y74.676 E46.69171
G1 X165.329 Y167.234 E58.59408
G1 X166.626 Y168.626 E58.76712
G1 X167.778 Y170.051 E58.93369
G1 X169.047 Y171.890 E59.13690
G1 X169.919 Y173.367 E59.29284
G1 X170.681 Y174.880 E59.44697
G1 X171.515 Y176.863 E59.64250
G1 X172.183 Y178.907 E59.83804
G1 X172.598 Y180.550 E59.99218
G1 X172.905 Y182.224 E60.14695
G1 X173.147 Y184.380 E60.34422
G1 X173.210 Y186.524 E60.53923
G1 X173.144 Y188.218 E60.69334
G1 X172.943 Y190.084 E60.86405
G1 X172.548 Y192.218 E61.06133
G1 X172.123 Y193.865 E61.21607
G1 X171.590 Y195.481 E61.37080
G1 X170.780 Y197.467 E61.56576
G1 X169.803 Y199.390 E61.76186
G1 X168.938 Y200.840 E61.91543
G1 X167.971 Y202.240 E62.07016
G1 X166.622 Y203.931 E62.26687
G1 X165.151 Y205.491 E62.46181
G1 X163.907 Y206.643 E62.61596
G1 X162.498 Y207.782 E62.78076
G1 X160.851 Y208.930 E62.96328
G1 X159.170 Y209.928 E63.14109
G1 X157.432 Y210.796 E63.31772
G1 X155.470 Y211.594 E63.51029
G1 X153.866 Y212.123 E63.66385
G1 X152.244 Y212.541 E63.81622
G1 X150.329 Y212.905 E63.99341
G1 X148.231 Y213.143 E64.18540
G1 X146.290 Y213.214 E64.36203
G1 X144.355 Y213.145 E64.53805
G1 X142.411 Y212.935 E64.71586
G1 X140.513 Y212.590 E64.89131
G1 X138.451 Y212.049 E65.08513
G1 X136.863 Y211.516 E65.23743
G1 X135.313 Y210.878 E65.38980
G1 X133.557 Y210.019 E65.56759
G1 X131.741 Y208.955 E65.75898
G1 X130.129 Y207.837 E65.93738
G1 X128.637 Y206.635 E66.11163
G1 X127.229 Y205.324 E66.28652
G1 X34.667 Y112.762 E78.18948
G1 X33.374 Y111.374 E78.36194
G1 X32.218 Y109.944 E78.52909
G1 X31.073 Y108.304 E78.71103
G1 X30.091 Y106.651 E78.88588
G1 X29.223 Y104.920 E79.06191
G1 X28.498 Y103.174 E79.23381
G1 X27.881 Y101.325 E79.41103
G1 X27.409 Y99.482 E79.58410
G1 X27.064 Y97.583 E79.75954
G1 X26.875 Y95.872 E79.91605
G1 X26.786 Y93.763 E80.10804
G1 X26.851 Y91.861 E80.28111
G1 X27.056 Y89.922 E80.45832
G1 X27.353 Y88.240 E80.61366
G1 X27.951 Y85.898 E80.83347
G1 X28.505 Y84.255 E80.99110
G1 X29.321 Y82.322 E81.18190
G1 X30.093 Y80.791 E81.33781
G1 X31.080 Y79.133 E81.51325
G1 X32.163 Y77.576 E81.68574
G1 X33.387 Y76.059 E81.86295
G1 X34.680 Y74.672 E82.03544
G1 X36.088 Y73.362 E82.21029
G1 X37.585 Y72.155 E82.38514
G1 X39.187 Y71.045 E82.56235
G1 X40.731 Y70.130 E82.72552
G1 X41.049 Y70.668 F4800.000
G1 F1800
G1 X42.797 Y69.787 E82.90345
G1 X44.526 Y69.071 E83.07368
G1 X46.314 Y68.476 E83.24504
G1 X48.128 Y68.013 E83.41527
G1 X49.977 Y67.679 E83.58605
G1 X51.844 Y67.478 E83.75685
G1 X53.728 Y67.411 E83.92821
G1 X55.803 Y67.496 E84.11704
G1 X57.466 Y67.679 E84.26922
G1 X59.095 Y67.968 E84.41969
G1 X61.105 Y68.468 E84.60796
G1 X62.934 Y69.076 E84.78327
G1 X64.837 Y69.876 E84.97097
G1 X66.332 Y70.629 E85.12314
G1 X67.773 Y71.479 E85.27531
G1 X69.485 Y72.654 E85.46415
G1 X71.060 Y73.931 E85.64847
G1 X72.329 Y75.118 E85.80646
G1 X164.887 Y167.675 E97.70880
G1 X166.153 Y169.035 E97.87772
G1 X167.276 Y170.423 E98.04006
G1 X168.513 Y172.213 E98.23791
G1 X169.370 Y173.665 E98.39122
G1 X170.120 Y175.154 E98.54282
G1 X170.929 Y177.080 E98.73278
G1 X171.579 Y179.065 E98.92274
G1 X171.987 Y180.682 E99.07435
G1 X172.290 Y182.334 E99.22711
G1 X172.523 Y184.416 E99.41760
G1 X172.585 Y186.502 E99.60734
G1 X172.521 Y188.171 E99.75919
G1 X172.325 Y189.995 E99.92604
G1 X171.943 Y192.061 E100.11711
G1 X171.524 Y193.688 E100.26985
G1 X170.997 Y195.283 E100.42258
G1 X170.212 Y197.206 E100.61143
G1 X169.267 Y199.069 E100.80136
G1 X168.410 Y200.506 E100.95355
G1 X167.458 Y201.883 E101.10572
G1 X166.155 Y203.516 E101.29567
G1 X164.727 Y205.032 E101.48507
G1 X163.500 Y206.169 E101.63724
G1 X162.130 Y207.276 E101.79732
G1 X160.514 Y208.404 E101.97656
G1 X158.872 Y209.378 E102.15018
G1 X157.181 Y210.223 E102.32211
G1 X155.275 Y211.000 E102.50924
G1 X153.691 Y211.523 E102.66085
G1 X152.089 Y211.936 E102.81133
G1 X150.225 Y212.288 E102.98379
G1 X148.187 Y212.520 E103.17037
G1 X146.285 Y212.589 E103.34342
G1 X144.377 Y212.520 E103.51703
G1 X142.338 Y212.290 E103.70361
G1 X140.468 Y211.937 E103.87665
G1 X138.865 Y211.524 E104.02712
G1 X137.294 Y211.005 E104.17760
G1 X135.382 Y210.227 E104.36530
G1 X133.690 Y209.383 E104.53722
G1 X132.053 Y208.413 E104.71027
G1 X130.490 Y207.327 E104.88333
G1 X129.042 Y206.159 E105.05242
G1 X127.671 Y204.882 E105.22283
G1 X35.109 Y112.320 E117.12573
G1 X33.847 Y110.965 E117.29410
G1 X32.724 Y109.577 E117.45642
G1 X31.599 Y107.966 E117.63511
G1 X30.639 Y106.352 E117.80591
G1 X29.792 Y104.661 E117.97782
G1 X29.084 Y102.955 E118.14580
G1 X28.479 Y101.144 E118.31942
G1 X28.018 Y99.343 E118.48851
G1 X27.683 Y97.494 E118.65931
G1 X27.497 Y95.813 E118.81317
G1 X27.411 Y93.762 E118.99975
G1 X27.475 Y91.898 E119.16941
G1 X27.675 Y90.005 E119.34246
G1 X27.968 Y88.351 E119.49520
G1 X28.544 Y86.095 E119.70691
G1 X29.089 Y84.478 E119.86213
G1 X29.882 Y82.598 E120.04757
G1 X30.641 Y81.093 E120.20087
G1 X31.600 Y79.479 E120.37166
G1 X32.662 Y77.951 E120.54076
G1 X33.857 Y76.470 E120.71381
G1 X35.121 Y75.115 E120.88235
G1 X36.496 Y73.835 E121.05314
G1 X37.958 Y72.657 E121.22394
G1 X39.517 Y71.576 E121.39642
G1 X40.998 Y70.698 E121.55292
G1 X41.875 Y72.071 F4800.000
G1 F1800
G1 X43.557 Y71.228 E121.72400
G1 X45.187 Y70.560 E121.88424
G1 X46.862 Y70.010 E122.04448
G1 X48.571 Y69.581 E122.20472
G1 X50.306 Y69.275 E122.36496
G1 X52.059 Y69.093 E122.52520
G1 X53.820 Y69.037 E122.68543
G1 X55.578 Y69.107 E122.84537
G1 X57.236 Y69.288 E122.99706
G1 X58.880 Y69.581 E123.14885
G1 X60.678 Y70.037 E123.31755
G1 X62.435 Y70.625 E123.48606
G1 X63.936 Y71.248 E123.63379
G1 X65.401 Y71.976 E123.78258
G1 X66.980 Y72.899 E123.94886
G1 X68.517 Y73.960 E124.11871
G1 X69.959 Y75.126 E124.28731
G1 X71.152 Y76.240 E124.43574
G1 X163.761 Y168.849 E136.34464
G1 X164.935 Y170.112 E136.50145
G1 X166.012 Y171.447 E136.65741
G1 X167.043 Y172.929 E136.82159
G1 X167.966 Y174.487 E136.98627
G1 X168.771 Y176.107 E137.15072
G1 X169.422 Y177.692 E137.30659
G1 X169.970 Y179.344 E137.46485
G1 X170.419 Y181.120 E137.63137
G1 X170.712 Y182.764 E137.78324
G1 X170.895 Y184.446 E137.93708
G1 X170.963 Y186.322 E138.10774
G1 X170.902 Y188.017 E138.26202
G1 X170.721 Y189.723 E138.41797
G1 X170.399 Y191.522 E138.58420
G1 X169.950 Y193.277 E138.74889
G1 X169.374 Y194.991 E138.91333
G1 X168.714 Y196.573 E139.06918
G1 X167.932 Y198.128 E139.22746
G1 X166.994 Y199.701 E139.39399
G1 X166.039 Y201.071 E139.54585
G1 X164.979 Y202.390 E139.69972
G1 X163.701 Y203.765 E139.87040
G1 X162.458 Y204.920 E140.02466
G1 X161.125 Y205.998 E140.18059
G1 X159.645 Y207.030 E140.34463
G1 X158.111 Y207.942 E140.50693
G1 X156.513 Y208.741 E140.66937
G1 X154.855 Y209.425 E140.83244
G1 X153.152 Y209.984 E140.99543
G1 X151.434 Y210.418 E141.15659
G1 X149.791 Y210.712 E141.30834
G1 X148.131 Y210.893 E141.46013
G1 X146.257 Y210.963 E141.63073
G1 X144.469 Y210.897 E141.79343
G1 X142.672 Y210.699 E141.95782
G1 X141.030 Y210.399 E142.10959
G1 X139.412 Y209.989 E142.26131
G1 X137.740 Y209.440 E142.42134
G1 X136.066 Y208.753 E142.58589
G1 X134.446 Y207.944 E142.75052
G1 X132.890 Y207.018 E142.91520
G1 X131.407 Y205.983 E143.07962
G1 X130.092 Y204.918 E143.23349
G1 X128.848 Y203.760 E143.38798
G1 X36.239 Y111.151 E155.29695
G1 X35.064 Y109.887 E155.45392
G1 X33.972 Y108.533 E155.61209
G1 X32.966 Y107.086 E155.77230
G1 X32.066 Y105.571 E155.93254
G1 X31.276 Y103.996 E156.09278
G1 X30.600 Y102.368 E156.25302
G1 X30.042 Y100.697 E156.41326
G1 X29.605 Y98.990 E156.57350
G1 X29.291 Y97.256 E156.73374
G1 X29.101 Y95.504 E156.89397
G1 X29.037 Y93.743 E157.05421
G1 X29.098 Y91.981 E157.21445
G1 X29.285 Y90.229 E157.37469
G1 X29.597 Y88.495 E157.53493
G1 X30.031 Y86.787 E157.69517
G1 X30.587 Y85.114 E157.85541
G1 X31.260 Y83.486 E158.01565
G1 X32.047 Y81.909 E158.17589
G1 X32.945 Y80.393 E158.33613
G1 X33.949 Y78.945 E158.49637
G1 X35.054 Y77.572 E158.65661
G1 X36.254 Y76.281 E158.81688
G1 X37.630 Y75.003 E158.98760
G1 X39.007 Y73.903 E159.14788
G1 X40.459 Y72.904 E159.30812
G1 X41.823 Y72.101 E159.45203
G1 X42.191 Y72.609 F4800.000
G1 F1800
G1 X43.804 Y71.802 E159.61604
G1 X45.393 Y71.150 E159.77222
G1 X47.025 Y70.613 E159.92840
G1 X48.691 Y70.194 E160.08459
G1 X50.382 Y69.895 E160.24077
G1 X52.090 Y69.717 E160.39695
G1 X53.807 Y69.662 E160.55313
G1 X55.521 Y69.729 E160.70910
G1 X57.137 Y69.905 E160.85690
G1 X58.759 Y70.195 E161.00670
G1 X60.491 Y70.633 E161.16918
G1 X62.206 Y71.206 E161.33361
G1 X63.686 Y71.821 E161.47936
G1 X65.113 Y72.531 E161.62429
G1 X66.655 Y73.432 E161.78662
G1 X68.133 Y74.454 E161.95006
G1 X69.541 Y75.591 E162.11458
G1 X70.714 Y76.686 E162.26051
G1 X163.315 Y169.286 E174.16840
G1 X164.455 Y170.513 E174.32070
G1 X165.519 Y171.830 E174.47463
G1 X166.524 Y173.276 E174.63472
G1 X167.412 Y174.776 E174.79320
G1 X168.197 Y176.355 E174.95358
G1 X168.833 Y177.899 E175.10546
G1 X169.367 Y179.509 E175.25964
G1 X169.805 Y181.241 E175.42209
G1 X170.095 Y182.863 E175.57196
G1 X170.273 Y184.502 E175.72185
G1 X170.338 Y186.310 E175.88638
G1 X170.278 Y187.984 E176.03863
G1 X170.101 Y189.646 E176.19060
G1 X169.791 Y191.379 E176.35068
G1 X169.354 Y193.089 E176.51122
G1 X168.793 Y194.761 E176.67157
G1 X168.150 Y196.302 E176.82343
G1 X167.390 Y197.818 E176.97763
G1 X166.475 Y199.353 E177.14009
G1 X165.532 Y200.705 E177.28995
G1 X164.499 Y201.990 E177.43988
G1 X163.267 Y203.315 E177.60442
G1 X162.041 Y204.455 E177.75665
G1 X160.741 Y205.505 E177.90862
G1 X159.316 Y206.499 E178.06657
G1 X157.821 Y207.388 E178.22477
G1 X156.264 Y208.168 E178.38309
G1 X154.649 Y208.835 E178.54197
G1 X152.988 Y209.381 E178.70096
G1 X151.313 Y209.805 E178.85809
G1 X149.712 Y210.092 E179.00593
G1 X148.075 Y210.271 E179.15573
G1 X146.268 Y210.338 E179.32014
G1 X144.525 Y210.274 E179.47868
G1 X142.772 Y210.082 E179.63903
G1 X141.173 Y209.791 E179.78690
G1 X139.576 Y209.386 E179.93665
G1 X137.946 Y208.850 E180.09267
G1 X136.314 Y208.179 E180.25310
G1 X134.756 Y207.401 E180.41154
G1 X133.238 Y206.499 E180.57206
G1 X131.792 Y205.490 E180.73242
G1 X130.510 Y204.453 E180.88234
G1 X129.286 Y203.315 E181.03431
G1 X36.685 Y110.713 E192.94223
G1 X35.529 Y109.469 E193.09662
G1 X34.466 Y108.149 E193.25079
G1 X33.486 Y106.739 E193.40696
G1 X32.609 Y105.262 E193.56314
G1 X31.839 Y103.726 E193.71932
G1 X31.182 Y102.140 E193.87551
G1 X30.639 Y100.510 E194.03169
G1 X30.213 Y98.846 E194.18787
G1 X29.908 Y97.156 E194.34406
G1 X29.724 Y95.448 E194.50024
G1 X29.662 Y93.731 E194.65642
G1 X29.723 Y92.015 E194.81261
G1 X29.906 Y90.307 E194.96879
G1 X30.210 Y88.616 E195.12497
G1 X30.634 Y86.952 E195.28116
G1 X31.176 Y85.322 E195.43734
G1 X31.833 Y83.735 E195.59352
G1 X32.601 Y82.199 E195.74971
G1 X33.477 Y80.721 E195.90589
G1 X34.456 Y79.310 E196.06207
G1 X35.534 Y77.972 E196.21826
G1 X36.704 Y76.715 E196.37445
G1 X38.030 Y75.484 E196.53894
G1 X39.371 Y74.411 E196.69514
G1 X40.785 Y73.436 E196.85132
G1 X42.139 Y72.639 E196.99421
G1 X42.508 Y73.147 F4800.000
G1 F1800
G1 X44.052 Y72.375 E197.15114
G1 X45.600 Y71.740 E197.30326
G1 X47.189 Y71.216 E197.45539
G1 X48.811 Y70.807 E197.60752
G1 X50.458 Y70.515 E197.75964
G1 X52.122 Y70.341 E197.91177
G1 X53.794 Y70.287 E198.06390
G1 X55.464 Y70.351 E198.21587
G1 X57.058 Y70.525 E198.36169
G1 X58.638 Y70.808 E198.50755
G1 X60.326 Y71.236 E198.66594
G1 X61.977 Y71.788 E198.82421
G1 X63.418 Y72.386 E198.96605
G1 X64.826 Y73.086 E199.10903
G1 X66.329 Y73.965 E199.26739
G1 X67.768 Y74.961 E199.42655
G1 X69.123 Y76.056 E199.58489
G1 X70.276 Y77.131 E199.72832
G1 X162.869 Y169.724 E211.63520
G1 X163.990 Y170.930 E211.78493
G1 X165.025 Y172.214 E211.93486
G1 X165.992 Y173.604 E212.08885
G1 X166.857 Y175.065 E212.24320
G1 X167.624 Y176.603 E212.39951
G1 X168.243 Y178.107 E212.54739
G1 X168.764 Y179.674 E212.69750
G1 X169.192 Y181.362 E212.85587
G1 X169.475 Y182.941 E213.00178
G1 X169.650 Y184.558 E213.14967
G1 X169.713 Y186.299 E213.30805
G1 X169.653 Y187.950 E213.45827
G1 X169.481 Y189.568 E213.60625
G1 X169.178 Y191.257 E213.76226
G1 X168.758 Y192.901 E213.91660
G1 X168.212 Y194.531 E214.07288
G1 X167.586 Y196.032 E214.22074
G1 X166.847 Y197.508 E214.37087
G1 X165.956 Y199.005 E214.52925
G1 X165.039 Y200.322 E214.67516
G1 X164.019 Y201.589 E214.82308
G1 X162.833 Y202.865 E214.98147
