; generated by Slic3r Prusa Edition 1.40.1+win64 on 2018-10-03 at 10:02:07

; 

; external perimeters extrusion width = 0.45mm
; perimeters extrusion width = 0.45mm
; infill extrusion width = 0.45mm
; solid infill extrusion width = 0.45mm
; top infill extrusion width = 0.40mm
; first layer extrusion width = 0.70mm

M107
M190 S60 ; set bed temperature and wait for it to be reached
M104 S210 ; set temperature
G28 ; home all axes
G1 Z5 F5000 ; lift nozzle
; Filament gcode
M109 S210 ; set temperature and wait for it to be reached
G21 ; set units to millimeters
G90 ; use absolute coordinates
M82 ; use absolute distances for extrusion
G92 E0
G1 E-4.00000 F2400.00000
G92 E0
G1 Z0.350 F4800.000
G1 Z0.650
G1 X86.712 Y110.289
G1 Z0.350
G1 E4.00000 F2400.00000
G1 F1800
G1 X90.320 Y108.913 E4.35114
G1 X93.103 Y108.177 E4.61288
G1 X96.237 Y107.657 E4.90179
G1 X103.001 Y107.618 E5.51684
G1 X104.125 Y107.703 E5.61930
G1 X107.253 Y108.261 E5.90821
G1 X110.048 Y109.028 E6.17179
G1 X112.606 Y109.979 E6.41996
G1 X113.466 Y110.385 E6.50639
G1 X118.855 Y113.495 E7.07213
G1 X119.705 Y114.080 E7.16596
G1 X122.165 Y116.154 E7.45857
G1 X124.089 Y118.090 E7.70673
G1 X125.868 Y120.230 E7.95984
G1 X126.501 Y121.138 E8.06044
G1 X129.714 Y126.718 E8.64594
G1 X131.107 Y130.392 E9.00323
G1 X131.828 Y133.123 E9.26003
G1 X132.350 Y136.312 E9.55389
G1 X132.341 Y143.781 E10.23306
G1 X131.824 Y146.896 E10.52016
G1 X131.089 Y149.672 E10.78130
G1 X130.028 Y152.587 E11.06339
G1 X129.552 Y153.579 E11.16337
G1 X126.502 Y158.861 E11.71800
G1 X125.899 Y159.732 E11.81429
G1 X124.059 Y161.942 E12.07578
G1 X122.101 Y163.904 E12.32787
G1 X119.602 Y165.998 E12.62437
G1 X118.727 Y166.595 E12.72066
G1 X113.145 Y169.775 E13.30483
G1 X109.513 Y171.137 E13.65749
G1 X106.829 Y171.838 E13.90975
G1 X103.676 Y172.351 E14.20026
G1 X96.219 Y172.341 E14.87832
G1 X93.104 Y171.824 E15.16541
G1 X90.328 Y171.089 E15.42656
G1 X87.419 Y170.031 E15.70802
G1 X86.433 Y169.559 E15.80740
G1 X81.139 Y166.502 E16.36326
G1 X80.279 Y165.908 E16.45832
G1 X78.096 Y164.094 E16.71640
G1 X76.160 Y162.170 E16.96457
G1 X74.072 Y159.696 E17.25898
G1 X73.489 Y158.845 E17.35281
G1 X70.280 Y153.270 E17.93769
G1 X68.889 Y149.595 E18.29499
G1 X68.172 Y146.877 E18.55055
G1 X67.650 Y143.688 E18.84438
G1 X67.659 Y136.219 E19.52358
G1 X68.176 Y133.104 E19.81067
G1 X68.909 Y130.334 E20.07119
G1 X69.967 Y127.425 E20.35267
G1 X70.434 Y126.445 E20.45142
G1 X73.498 Y121.139 E21.00852
G1 X74.084 Y120.290 E21.10235
G1 X76.154 Y117.835 E21.39434
G1 X78.090 Y115.911 E21.64250
G1 X80.241 Y114.123 E21.89684
G1 X81.144 Y113.495 E21.99683
G1 X86.660 Y110.319 E22.57564
G1 X86.972 Y110.860 F4800.000
G1 F1800
G1 X90.496 Y109.512 E22.91873
G1 X93.236 Y108.787 E23.17645
G1 X96.301 Y108.278 E23.45901
G1 X103.001 Y108.243 E24.06822
G1 X104.038 Y108.322 E24.16280
G1 X107.101 Y108.868 E24.44570
G1 X109.841 Y109.618 E24.70401
G1 X112.370 Y110.558 E24.94932
G1 X113.176 Y110.938 E25.03033
G1 X118.534 Y114.031 E25.59289
G1 X119.316 Y114.569 E25.67921
G1 X121.725 Y116.598 E25.96566
G1 X123.627 Y118.512 E26.21097
G1 X125.389 Y120.631 E26.46160
G1 X125.968 Y121.464 E26.55382
G1 X129.159 Y127.006 E27.13531
G1 X130.507 Y130.565 E27.48135
G1 X131.215 Y133.249 E27.73375
G1 X131.728 Y136.366 E28.02105
G1 X131.718 Y143.729 E28.69048
G1 X131.212 Y146.766 E28.97047
G1 X130.489 Y149.500 E29.22762
G1 X129.450 Y152.352 E29.50364
G1 X129.008 Y153.272 E29.59645
G1 X125.966 Y158.539 E30.14955
G1 X125.415 Y159.336 E30.23764
G1 X123.597 Y161.522 E30.49618
G1 X121.660 Y163.461 E30.74535
G1 X119.210 Y165.511 E31.03588
G1 X118.409 Y166.057 E31.12397
G1 X112.859 Y169.219 E31.70476
G1 X109.342 Y170.535 E32.04624
G1 X106.704 Y171.226 E32.29418
G1 X103.622 Y171.729 E32.57817
G1 X96.271 Y171.718 E33.24656
G1 X93.234 Y171.212 E33.52654
G1 X90.507 Y170.491 E33.78310
G1 X87.654 Y169.452 E34.05912
G1 X86.739 Y169.014 E34.15134
G1 X81.461 Y165.966 E34.70563
G1 X80.674 Y165.423 E34.79254
G1 X78.515 Y163.630 E35.04769
G1 X76.602 Y161.728 E35.29301
G1 X74.558 Y159.303 E35.58143
G1 X74.025 Y158.525 E35.66715
G1 X70.835 Y152.982 E36.24865
G1 X69.491 Y149.429 E36.59410
G1 X68.785 Y146.751 E36.84590
G1 X68.272 Y143.627 E37.13377
G1 X68.282 Y136.271 E37.80264
G1 X68.788 Y133.234 E38.08262
G1 X69.509 Y130.507 E38.33917
G1 X70.548 Y127.654 E38.61520
G1 X70.983 Y126.745 E38.70684
G1 X74.034 Y121.461 E39.26171
G1 X74.573 Y120.679 E39.34803
G1 X76.598 Y118.275 E39.63389
G1 X78.512 Y116.373 E39.87919
G1 X80.641 Y114.603 E40.13101
G1 X81.464 Y114.032 E40.22205
G1 X86.920 Y110.890 E40.79451
G1 X87.231 Y111.431 F4800.000
G1 F1800
G1 X90.678 Y110.110 E41.13017
G1 X93.363 Y109.399 E41.38273
G1 X96.372 Y108.899 E41.66010
G1 X103.001 Y108.868 E42.26282
G1 X103.953 Y108.941 E42.34966
G1 X106.944 Y109.473 E42.62591
G1 X109.635 Y110.208 E42.87958
G1 X112.134 Y111.136 E43.12199
G1 X112.880 Y111.489 E43.19701
G1 X118.208 Y114.564 E43.75636
G1 X118.924 Y115.055 E43.83532
G1 X121.282 Y117.039 E44.11551
G1 X123.162 Y118.929 E44.35792
G1 X124.909 Y121.032 E44.60653
G1 X125.432 Y121.786 E44.68999
G1 X128.604 Y127.294 E45.26796
G1 X129.905 Y130.732 E45.60218
G1 X130.604 Y133.375 E45.85079
G1 X131.106 Y136.428 E46.13212
G1 X131.096 Y143.670 E46.79060
G1 X130.600 Y146.642 E47.06463
G1 X129.890 Y149.321 E47.31664
G1 X128.870 Y152.117 E47.58722
G1 X128.465 Y152.961 E47.67236
G1 X125.430 Y158.219 E48.22438
G1 X124.929 Y158.943 E48.30446
G1 X123.137 Y161.098 E48.55930
G1 X121.219 Y163.018 E48.80608
G1 X118.823 Y165.021 E49.09004
G1 X118.090 Y165.520 E49.17069
G1 X112.574 Y168.663 E49.74797
G1 X109.177 Y169.933 E50.07770
G1 X106.579 Y170.613 E50.32193
G1 X103.567 Y171.106 E50.59944
G1 X96.330 Y171.096 E51.25750
G1 X93.358 Y170.600 E51.53153
G1 X90.679 Y169.890 E51.78354
G1 X87.889 Y168.873 E52.05355
G1 X87.050 Y168.472 E52.13813
G1 X81.787 Y165.433 E52.69072
G1 X81.066 Y164.937 E52.77023
G1 X78.934 Y163.167 E53.02227
G1 X77.044 Y161.287 E53.26468
G1 X75.048 Y158.915 E53.54652
G1 X74.561 Y158.203 E53.62491
G1 X71.393 Y152.700 E54.20232
G1 X70.094 Y149.262 E54.53655
G1 X69.396 Y146.625 E54.78459
G1 X68.894 Y143.572 E55.06590
G1 X68.904 Y136.330 E55.72440
G1 X69.400 Y133.358 E55.99843
G1 X70.110 Y130.679 E56.25042
G1 X71.127 Y127.889 E56.52045
G1 X71.525 Y127.055 E56.60447
G1 X74.567 Y121.787 E57.15762
G1 X75.059 Y121.071 E57.23657
G1 X77.039 Y118.718 E57.51621
G1 X78.933 Y116.834 E57.75917
G1 X81.037 Y115.087 E58.00778
G1 X81.791 Y114.564 E58.09124
G1 X87.179 Y111.461 E58.65662
G1 E54.65662 F2400.00000
G92 E0
G1 Z0.650 F4800.000
G1 X100.000 Y111.563
G1 Z0.350
G1 E4.00000 F2400.00000
G1 F1800
G1 X100.907 Y110.939 E4.10003
G1 X101.584 Y110.650 E4.16699
G1 X102.403 Y110.473 E4.24319
G1 X103.177 Y110.462 E4.31356
G1 X106.235 Y110.976 E4.59557
G1 X109.001 Y111.711 E4.85577
G1 X112.042 Y112.842 E5.15077
G1 X112.718 Y113.255 E5.22284
G1 X113.322 Y113.811 E5.29747
G1 X113.758 Y114.402 E5.36427
G1 X114.212 Y115.373 E5.46178
G1 X115.297 Y115.286 E5.56070
G1 X116.029 Y115.370 E5.62773
G1 X116.781 Y115.602 E5.69926
G1 X117.520 Y116.009 E5.77604
G1 X119.911 Y117.981 E6.05779
G1 X121.896 Y119.954 E6.31235
G1 X124.078 Y122.607 E6.62467
G1 X124.410 Y123.251 E6.69055
G1 X124.614 Y123.900 E6.75242
G1 X124.709 Y124.534 E6.81071
G1 X124.625 Y125.782 E6.92441
G1 X125.687 Y126.296 E7.03175
G1 X126.223 Y126.708 E7.09319
G1 X126.735 Y127.266 E7.16207
G1 X127.115 Y127.871 E7.22705
G1 X128.280 Y130.971 E7.52814
G1 X129.018 Y133.736 E7.78838
G1 X129.535 Y136.777 E8.06882
G1 X129.523 Y137.629 E8.14632
G1 X129.341 Y138.446 E8.22241
G1 X129.079 Y139.059 E8.28303
G1 X128.434 Y140.006 E8.38726
G1 X129.047 Y140.884 E8.48459
G1 X129.359 Y141.611 E8.55652
G1 X129.524 Y142.376 E8.62766
G1 X129.534 Y143.225 E8.70485
G1 X128.999 Y146.352 E8.99336
G1 X128.253 Y149.114 E9.25347
G1 X127.171 Y152.012 E9.53482
G1 X126.781 Y152.673 E9.60456
G1 X126.215 Y153.298 E9.68129
G1 X125.621 Y153.745 E9.74886
G1 X124.626 Y154.219 E9.84905
G1 X124.712 Y155.394 E9.95621
G1 X124.625 Y156.051 E10.01641
G1 X124.407 Y156.756 E10.08351
G1 X124.040 Y157.451 E10.15500
G1 X122.013 Y159.918 E10.44536
G1 X120.003 Y161.935 E10.70424
G1 X117.285 Y164.156 E11.02343
G1 X116.639 Y164.486 E11.08937
G1 X115.989 Y164.688 E11.15127
G1 X115.354 Y164.780 E11.20958
G1 X114.106 Y164.690 E11.32340
G1 X113.552 Y165.804 E11.43649
G1 X113.137 Y166.319 E11.49662
G1 X112.565 Y166.827 E11.56621
G1 X111.946 Y167.199 E11.63184
G1 X108.827 Y168.341 E11.93392
G1 X106.162 Y169.040 E12.18442
G1 X103.161 Y169.539 E12.46102
G1 X102.368 Y169.523 E12.53316
G1 X101.553 Y169.340 E12.60914
G1 X100.888 Y169.050 E12.67506
G1 X100.000 Y168.437 E12.77318
G1 X99.094 Y169.061 E12.87324
G1 X98.417 Y169.350 E12.94015
G1 X97.598 Y169.527 E13.01634
G1 X96.824 Y169.538 E13.08674
G1 X93.766 Y169.024 E13.36870
G1 X91.029 Y168.299 E13.62611
G1 X87.941 Y167.151 E13.92573
G1 X87.244 Y166.721 E14.00018
G1 X86.665 Y166.182 E14.07212
G1 X86.221 Y165.577 E14.14036
G1 X85.794 Y164.626 E14.23511
G1 X84.700 Y164.714 E14.33495
G1 X83.968 Y164.630 E14.40190
G1 X83.218 Y164.397 E14.47335
G1 X82.479 Y163.991 E14.55004
G1 X80.089 Y162.019 E14.83171
G1 X78.104 Y160.046 E15.08628
G1 X75.909 Y157.375 E15.40063
G1 X75.571 Y156.711 E15.46831
G1 X75.354 Y155.971 E15.53848
G1 X75.279 Y155.218 E15.60728
G1 X75.387 Y154.223 E15.69825
G1 X74.312 Y153.704 E15.80680
G1 X73.787 Y153.301 E15.86693
G1 X73.283 Y152.756 E15.93448
G1 X72.866 Y152.089 E16.00600
G1 X71.729 Y149.058 E16.30032
G1 X70.989 Y146.294 E16.56053
G1 X70.467 Y143.234 E16.84285
G1 X70.473 Y142.398 E16.91884
G1 X70.673 Y141.513 E17.00134
G1 X70.948 Y140.891 E17.06313
G1 X71.567 Y139.995 E17.16219
G1 X70.953 Y139.116 E17.25964
G1 X70.641 Y138.389 E17.33157
G1 X70.476 Y137.624 E17.40271
G1 X70.466 Y136.775 E17.47990
G1 X71.001 Y133.648 E17.76841
G1 X71.747 Y130.886 E18.02852
G1 X72.829 Y127.988 E18.30982
G1 X73.218 Y127.328 E18.37951
G1 X73.784 Y126.703 E18.45618
G1 X74.377 Y126.256 E18.52372
G1 X75.387 Y125.775 E18.62537
G1 X75.279 Y124.782 E18.71621
G1 X75.354 Y124.028 E18.78510
G1 X75.574 Y123.283 E18.85572
G1 X75.949 Y122.564 E18.92951
G1 X78.125 Y119.931 E19.24011
G1 X80.114 Y117.959 E19.49478
G1 X82.497 Y115.996 E19.77555
G1 X83.188 Y115.617 E19.84720
G1 X83.950 Y115.375 E19.91986
G1 X84.604 Y115.288 E19.97987
G1 X85.797 Y115.376 E20.08861
G1 X86.195 Y114.468 E20.17880
G1 X86.647 Y113.839 E20.24917
G1 X87.227 Y113.290 E20.32181
G1 X87.789 Y112.924 E20.38278
G1 X90.884 Y111.748 E20.68382
G1 X93.679 Y110.994 E20.94704
G1 X96.772 Y110.466 E21.23232
G1 X97.474 Y110.460 E21.29624
G1 X98.306 Y110.617 E21.37315
G1 X98.974 Y110.876 E21.43834
G1 X99.950 Y111.529 E21.54517
G1 E17.54517 F2400.00000
G92 E0
G1 Z0.650 F4800.000
G1 X100.000 Y112.600
G1 X101.535 Y112.036
G1 X108.620 Y112.755
G1 X113.189 Y113.574
G1 X112.354 Y115.818
G1 X113.690 Y116.288
G1 X113.830 Y116.031
G1 Z0.350
G1 E4.00000 F2400.00000
G1 F1800
G1 X115.316 Y115.911 E4.13560
G1 X115.872 Y115.975 E4.18646
G1 X116.563 Y116.189 E4.25226
G1 X117.189 Y116.539 E4.31749
G1 X119.501 Y118.453 E4.59035
G1 X121.444 Y120.386 E4.83961
G1 X123.572 Y122.976 E5.14440
G1 X123.840 Y123.508 E5.19856
G1 X124.001 Y124.023 E5.24766
G1 X124.083 Y124.529 E5.29427
G1 X123.973 Y126.160 E5.44292
G1 X125.383 Y126.843 E5.58541
G1 X125.814 Y127.182 E5.63523
G1 X126.252 Y127.664 E5.69446
G1 X126.567 Y128.173 E5.74887
G1 X127.689 Y131.175 E6.04033
G1 X128.410 Y133.883 E6.29514
G1 X128.913 Y136.851 E6.56888
G1 X128.899 Y137.582 E6.63537
G1 X128.739 Y138.275 E6.70003
G1 X128.520 Y138.780 E6.75010
G1 X127.673 Y140.008 E6.88570
G1 X128.516 Y141.215 E7.01964
G1 X128.756 Y141.776 E7.07509
G1 X128.900 Y142.421 E7.13520
G1 X128.913 Y143.149 E7.20143
G1 X128.392 Y146.204 E7.48318
G1 X127.662 Y148.909 E7.73795
G1 X126.595 Y151.769 E8.01550
G1 X126.294 Y152.280 E8.06949
G1 X125.810 Y152.822 E8.13551
G1 X125.321 Y153.196 E8.19146
G1 X123.972 Y153.839 E8.32739
G1 X124.086 Y155.405 E8.47020
G1 X124.011 Y155.935 E8.51889
G1 X123.821 Y156.538 E8.57638
G1 X123.505 Y157.127 E8.63717
G1 X121.540 Y159.509 E8.91789
G1 X119.572 Y161.482 E9.17132
G1 X116.918 Y163.649 E9.48287
G1 X116.384 Y163.915 E9.53707
G1 X115.868 Y164.074 E9.58620
G1 X115.362 Y164.154 E9.63282
G1 X113.728 Y164.037 E9.78172
G1 X113.040 Y165.443 E9.92411
G1 X112.699 Y165.874 E9.97405
G1 X112.213 Y166.310 E10.03345
G1 X111.701 Y166.623 E10.08801
G1 X108.653 Y167.741 E10.38315
G1 X106.044 Y168.426 E10.62849
G1 X103.144 Y168.914 E10.89584
G1 X102.414 Y168.898 E10.96224
G1 X101.722 Y168.738 E11.02683
G1 X101.218 Y168.519 E11.07683
G1 X100.001 Y167.678 E11.21136
G1 X98.767 Y168.527 E11.34750
G1 X98.205 Y168.761 E11.40285
G1 X97.500 Y168.910 E11.46837
G1 X96.900 Y168.917 E11.52298
G1 X93.884 Y168.411 E11.80107
G1 X91.205 Y167.699 E12.05313
G1 X88.190 Y166.577 E12.34563
G1 X87.604 Y166.210 E12.40849
G1 X87.117 Y165.749 E12.46946
G1 X86.748 Y165.240 E12.52666
G1 X86.190 Y163.968 E12.65296
G1 X84.681 Y164.088 E12.79064
G1 X84.126 Y164.024 E12.84143
G1 X83.435 Y163.810 E12.90714
G1 X82.810 Y163.460 E12.97230
G1 X80.499 Y161.547 E13.24510
G1 X78.556 Y159.614 E13.49436
G1 X76.415 Y157.007 E13.80107
G1 X76.144 Y156.459 E13.85664
G1 X75.972 Y155.875 E13.91206
G1 X75.904 Y155.250 E13.96917
G1 X76.055 Y153.852 E14.09701
G1 X74.616 Y153.156 E14.24242
G1 X74.195 Y152.827 E14.29103
G1 X73.765 Y152.357 E14.34893
G1 X73.414 Y151.788 E14.40968
G1 X72.320 Y148.854 E14.69442
G1 X71.596 Y146.147 E14.94926
G1 X71.088 Y143.158 E15.22496
G1 X71.097 Y142.440 E15.29024
G1 X71.258 Y141.734 E15.35608
G1 X71.480 Y141.220 E15.40698
G1 X72.327 Y139.992 E15.54260
G1 X71.484 Y138.785 E15.67654
G1 X71.244 Y138.224 E15.73199
G1 X71.100 Y137.579 E15.79209
G1 X71.087 Y136.851 E15.85833
G1 X71.608 Y133.796 E16.14008
G1 X72.338 Y131.091 E16.39485
G1 X73.405 Y128.232 E16.67235
G1 X73.706 Y127.720 E16.72630
G1 X74.189 Y127.179 E16.79227
G1 X74.677 Y126.806 E16.84817
G1 X76.056 Y126.149 E16.98703
G1 X75.904 Y124.750 E17.11497
G1 X75.972 Y124.127 E17.17197
G1 X76.163 Y123.495 E17.23198
G1 X76.485 Y122.885 E17.29468
G1 X78.576 Y120.364 E17.59255
G1 X80.522 Y118.432 E17.84191
G1 X82.870 Y116.498 E18.11849
G1 X83.458 Y116.181 E18.17917
G1 X84.064 Y115.989 E18.23704
G1 X84.593 Y115.914 E18.28562
G1 X86.192 Y116.031 E18.43133
G1 X86.753 Y114.751 E18.55843
G1 X87.132 Y114.234 E18.61676
G1 X87.632 Y113.768 E18.67888
G1 X88.098 Y113.469 E18.72924
G1 X91.090 Y112.338 E19.02009
G1 X93.827 Y111.602 E19.27781
G1 X96.850 Y111.087 E19.55666
G1 X97.444 Y111.085 E19.61067
G1 X98.156 Y111.224 E19.67660
G1 X98.710 Y111.443 E19.73084
G1 X100.001 Y112.321 E19.87275
G1 X101.233 Y111.473 E20.00873
G1 X101.795 Y111.239 E20.06411
G1 X102.501 Y111.090 E20.12965
G1 X103.101 Y111.083 E20.18422
G1 X106.117 Y111.590 E20.46237
G1 X108.825 Y112.311 E20.71719
G1 X111.793 Y113.416 E21.00517
G1 X112.363 Y113.769 E21.06610
G1 X112.840 Y114.209 E21.12515
G1 X113.206 Y114.697 E21.18058
G1 X113.804 Y115.977 E21.30902
G1 E17.30902 F2400.00000
G92 E0
G1 Z0.650 F4800.000
G1 X113.690 Y116.288
G1 X112.354 Y115.818
G1 X113.189 Y113.574
G1 X108.620 Y112.755
G1 X101.535 Y112.036
G1 X100.000 Y112.600
G1 X100.000 Y113.284
G1 Z0.350
G1 E4.00000 F2400.00000
G1 F1800
G1 X100.570 Y112.688 E4.07496
G1 X101.558 Y112.008 E4.18398
G1 X102.000 Y111.830 E4.22737
G1 X102.592 Y111.709 E4.28232
G1 X103.074 Y111.708 E4.32614
G1 X105.998 Y112.203 E4.59582
G1 X108.650 Y112.911 E4.84533
G1 X111.543 Y113.990 E5.12615
G1 X112.001 Y114.280 E5.17546
G1 X112.391 Y114.644 E5.22395
G1 X112.684 Y115.041 E5.26878
G1 X113.187 Y116.131 E5.37793
G1 X113.353 Y116.865 E5.44635
G1 X114.147 Y116.632 E5.52154
G1 X115.333 Y116.537 E5.62971
G1 X115.763 Y116.591 E5.66917
G1 X116.343 Y116.774 E5.72445
G1 X116.812 Y117.038 E5.77341
G1 X119.091 Y118.925 E6.04244
G1 X120.993 Y120.818 E6.28642
G1 X123.032 Y123.293 E6.57799
G1 X123.252 Y123.721 E6.62179
G1 X123.398 Y124.187 E6.66615
G1 X123.460 Y124.588 E6.70311
G1 X123.368 Y125.851 E6.81827
G1 X123.137 Y126.642 E6.89314
G1 X123.937 Y126.837 E6.96800
G1 X125.077 Y127.389 E7.08317
G1 X125.400 Y127.650 E7.12090
G1 X125.769 Y128.060 E7.17110
G1 X125.993 Y128.421 E7.20970
G1 X127.089 Y131.351 E7.49418
G1 X127.797 Y134.002 E7.74364
G1 X128.292 Y136.924 E8.01318
