; generated by Slic3r Prusa Edition 1.40.1+win64 on 2019-03-11 at 13:28:29

; Unselected the "only retract when crossing perimiters" option on the Infill page to see if I can get Z lift when retracting within a layer. Stop the head catching and also not leave a filament trail when travelling.
; Changed layer height from 0.3 to 0.2 to see better output - "Layers and Perimeters" page
; No Brim

; external perimeters extrusion width = 0.45mm
; perimeters extrusion width = 0.45mm
; infill extrusion width = 0.45mm
; solid infill extrusion width = 0.45mm
; top infill extrusion width = 0.40mm
; first layer extrusion width = 0.70mm

M107
M190 S60 ; set bed temperature and wait for it to be reached
M104 S210 ; set temperature
G28 ; home all axes
G1 Z5 F5000 ; lift nozzle
; Filament gcode
M109 S210 ; set temperature and wait for it to be reached
G21 ; set units to millimeters
G90 ; use absolute coordinates
M82 ; use absolute distances for extrusion
G92 E0
G1 E-4.00000 F2400.00000
G92 E0
G1 Z0.350 F4800.000
G1 Z0.650
G1 X86.712 Y110.289
G1 Z0.350
G1 E4.00000 F2400.00000
G1 F1800
G1 X90.320 Y108.913 E4.35114
G1 X93.103 Y108.177 E4.61288
G1 X96.237 Y107.657 E4.90179
G1 X103.001 Y107.618 E5.51684
G1 X104.125 Y107.703 E5.61930
G1 X107.253 Y108.261 E5.90821
G1 X110.048 Y109.028 E6.17179
G1 X112.606 Y109.979 E6.41996
G1 X113.466 Y110.385 E6.50639
G1 X118.855 Y113.495 E7.07213
G1 X119.705 Y114.080 E7.16596
G1 X122.165 Y116.154 E7.45857
G1 X124.089 Y118.090 E7.70673
G1 X125.868 Y120.230 E7.95984
G1 X126.501 Y121.138 E8.06044
G1 X129.714 Y126.718 E8.64594
G1 X131.107 Y130.392 E9.00323
G1 X131.828 Y133.123 E9.26003
G1 X132.350 Y136.312 E9.55389
G1 X132.341 Y143.781 E10.23306
G1 X131.824 Y146.896 E10.52016
G1 X131.089 Y149.672 E10.78130
G1 X130.028 Y152.587 E11.06339
G1 X129.552 Y153.579 E11.16337
G1 X126.502 Y158.861 E11.71800
G1 X125.899 Y159.732 E11.81429
G1 X124.059 Y161.942 E12.07578
G1 X122.101 Y163.904 E12.32787
G1 X119.602 Y165.998 E12.62437
G1 X118.727 Y166.595 E12.72066
G1 X113.145 Y169.775 E13.30483
G1 X109.513 Y171.137 E13.65749
G1 X106.829 Y171.838 E13.90975
G1 X103.676 Y172.351 E14.20026
G1 X96.219 Y172.341 E14.87832
G1 X93.104 Y171.824 E15.16541
G1 X90.328 Y171.089 E15.42656
G1 X87.419 Y170.031 E15.70802
G1 X86.433 Y169.559 E15.80740
G1 X81.139 Y166.502 E16.36326
G1 X80.279 Y165.908 E16.45832
G1 X78.096 Y164.094 E16.71640
G1 X76.160 Y162.170 E16.96457
G1 X74.072 Y159.696 E17.25898
G1 X73.489 Y158.845 E17.35281
G1 X70.280 Y153.270 E17.93769
G1 X68.889 Y149.595 E18.29499
G1 X68.172 Y146.877 E18.55055
G1 X67.650 Y143.688 E18.84438
G1 X67.659 Y136.219 E19.52358
G1 X68.176 Y133.104 E19.81067
G1 X68.909 Y130.334 E20.07119
G1 X69.967 Y127.425 E20.35267
G1 X70.434 Y126.445 E20.45142
G1 X73.498 Y121.139 E21.00852
G1 X74.084 Y120.290 E21.10235
G1 X76.154 Y117.835 E21.39434
G1 X78.090 Y115.911 E21.64250
G1 X80.241 Y114.123 E21.89684
G1 X81.144 Y113.495 E21.99683
G1 X86.660 Y110.319 E22.57564
G1 X86.972 Y110.860 F4800.000
G1 F1800
G1 X90.496 Y109.512 E22.91873
G1 X93.236 Y108.787 E23.17645
G1 X96.301 Y108.278 E23.45901
G1 X103.001 Y108.243 E24.06822
G1 X104.038 Y108.322 E24.16280
G1 X107.101 Y108.868 E24.44570
G1 X109.841 Y109.618 E24.70401
G1 X112.370 Y110.558 E24.94932
G1 X113.176 Y110.938 E25.03033
G1 X118.534 Y114.031 E25.59289
G1 X119.316 Y114.569 E25.67921
G1 X121.725 Y116.598 E25.96566
G1 X123.627 Y118.512 E26.21097
G1 X125.389 Y120.631 E26.46160
G1 X125.968 Y121.464 E26.55382
G1 X129.159 Y127.006 E27.13531
G1 X130.507 Y130.565 E27.48135
G1 X131.215 Y133.249 E27.73375
G1 X131.728 Y136.366 E28.02105
G1 X131.718 Y143.729 E28.69048
G1 X131.212 Y146.766 E28.97047
G1 X130.489 Y149.500 E29.22762
G1 X129.450 Y152.352 E29.50364
G1 X129.008 Y153.272 E29.59645
G1 X125.966 Y158.539 E30.14955
G1 X125.415 Y159.336 E30.23764
G1 X123.597 Y161.522 E30.49618
G1 X121.660 Y163.461 E30.74535
G1 X119.210 Y165.511 E31.03588
G1 X118.409 Y166.057 E31.12397
G1 X112.859 Y169.219 E31.70476
G1 X109.342 Y170.535 E32.04624
G1 X106.704 Y171.226 E32.29418
G1 X103.622 Y171.729 E32.57817
G1 X96.271 Y171.718 E33.24656
G1 X93.234 Y171.212 E33.52654
G1 X90.507 Y170.491 E33.78310
G1 X87.654 Y169.452 E34.05912
G1 X86.739 Y169.014 E34.15134
G1 X81.461 Y165.966 E34.70563
G1 X80.674 Y165.423 E34.79254
G1 X78.515 Y163.630 E35.04769
G1 X76.602 Y161.728 E35.29301
G1 X74.558 Y159.303 E35.58143
G1 X74.025 Y158.525 E35.66715
G1 X70.835 Y152.982 E36.24865
G1 X69.491 Y149.429 E36.59410
G1 X68.785 Y146.751 E36.84590
G1 X68.272 Y143.627 E37.13377
G1 X68.282 Y136.271 E37.80264
G1 X68.788 Y133.234 E38.08262
G1 X69.509 Y130.507 E38.33917
G1 X70.548 Y127.654 E38.61520
G1 X70.983 Y126.745 E38.70684
G1 X74.034 Y121.461 E39.26171
G1 X74.573 Y120.679 E39.34803
G1 X76.598 Y118.275 E39.63389
G1 X78.512 Y116.373 E39.87919
G1 X80.641 Y114.603 E40.13101
G1 X81.464 Y114.032 E40.22205
G1 X86.920 Y110.890 E40.79451
G1 X87.231 Y111.431 F4800.000
G1 F1800
G1 X90.678 Y110.110 E41.13017
G1 X93.363 Y109.399 E41.38273
G1 X96.372 Y108.899 E41.66010
G1 X103.001 Y108.868 E42.26282
G1 X103.953 Y108.941 E42.34966
G1 X106.944 Y109.473 E42.62591
G1 X109.635 Y110.208 E42.87958
G1 X112.134 Y111.136 E43.12199
G1 X112.880 Y111.489 E43.19701
G1 X118.208 Y114.564 E43.75636
G1 X118.924 Y115.055 E43.83532
G1 X121.282 Y117.039 E44.11551
G1 X123.162 Y118.929 E44.35792
G1 X124.909 Y121.032 E44.60653
G1 X125.432 Y121.786 E44.68999
G1 X128.604 Y127.294 E45.26796
G1 X129.905 Y130.732 E45.60218
G1 X130.604 Y133.375 E45.85079
G1 X131.106 Y136.428 E46.13212
G1 X131.096 Y143.670 E46.79060
G1 X130.600 Y146.642 E47.06463
G1 X129.890 Y149.321 E47.31664
G1 X128.870 Y152.117 E47.58722
G1 X128.465 Y152.961 E47.67236
G1 X125.430 Y158.219 E48.22438
G1 X124.929 Y158.943 E48.30446
G1 X123.137 Y161.098 E48.55930
G1 X121.219 Y163.018 E48.80608
G1 X118.823 Y165.021 E49.09004
G1 X118.090 Y165.520 E49.17069
G1 X112.574 Y168.663 E49.74797
G1 X109.177 Y169.933 E50.07770
G1 X106.579 Y170.613 E50.32193
G1 X103.567 Y171.106 E50.59944
G1 X96.330 Y171.096 E51.25750
G1 X93.358 Y170.600 E51.53153
G1 X90.679 Y169.890 E51.78354
G1 X87.889 Y168.873 E52.05355
G1 X87.050 Y168.472 E52.13813
G1 X81.787 Y165.433 E52.69072
G1 X81.066 Y164.937 E52.77023
G1 X78.934 Y163.167 E53.02227
G1 X77.044 Y161.287 E53.26468
G1 X75.048 Y158.915 E53.54652
G1 X74.561 Y158.203 E53.62491
G1 X71.393 Y152.700 E54.20232
G1 X70.094 Y149.262 E54.53655
G1 X69.396 Y146.625 E54.78459
G1 X68.894 Y143.572 E55.06590
G1 X68.904 Y136.330 E55.72440
G1 X69.400 Y133.358 E55.99843
G1 X70.110 Y130.679 E56.25042
G1 X71.127 Y127.889 E56.52045
G1 X71.525 Y127.055 E56.60447
G1 X74.567 Y121.787 E57.15762
G1 X75.059 Y121.071 E57.23657
G1 X77.039 Y118.718 E57.51621
G1 X78.933 Y116.834 E57.75917
G1 X81.037 Y115.087 E58.00778
G1 X81.791 Y114.564 E58.09124
G1 X87.179 Y111.461 E58.65662
G1 E54.65662 F2400.00000
G92 E0
G1 Z0.650 F4800.000
G1 X106.474 Y149.622
G1 Z0.350
G1 E4.00000 F2400.00000
G1 F1800
G1 X105.500 Y150.215 E4.10371
G1 X104.560 Y150.668 E4.19864
G1 X103.585 Y151.034 E4.29330
G1 X102.582 Y151.311 E4.38796
G1 X101.557 Y151.496 E4.48262
G1 X100.520 Y151.590 E4.57727
G1 X99.480 Y151.590 E4.67193
G1 X98.443 Y151.496 E4.76658
G1 X97.418 Y151.311 E4.86124
G1 X96.412 Y151.033 E4.95617
G1 X95.402 Y150.649 E5.05439
G1 X94.502 Y150.216 E5.14520
G1 X93.609 Y149.682 E5.23985
G1 X92.767 Y149.070 E5.33451
G1 X91.983 Y148.385 E5.42917
G1 X91.261 Y147.631 E5.52410
G1 X90.591 Y146.784 E5.62231
G1 X90.041 Y145.950 E5.71312
G1 X89.548 Y145.034 E5.80778
G1 X89.138 Y144.076 E5.90244
G1 X88.817 Y143.086 E5.99709
G1 X88.585 Y142.072 E6.09175
G1 X88.445 Y141.040 E6.18641
G1 X88.399 Y140.000 E6.28106
G1 X88.445 Y138.960 E6.37572
G1 X88.585 Y137.928 E6.47038
G1 X88.817 Y136.911 E6.56531
G1 X89.155 Y135.885 E6.66352
G1 X89.548 Y134.966 E6.75433
G1 X90.041 Y134.050 E6.84899
G1 X90.614 Y133.181 E6.94365
G1 X91.263 Y132.367 E7.03830
G1 X91.983 Y131.615 E7.13296
G1 X92.767 Y130.930 E7.22762
G1 X93.609 Y130.318 E7.32227
G1 X94.502 Y129.784 E7.41693
G1 X95.440 Y129.332 E7.51159
G1 X96.415 Y128.966 E7.60624
G1 X97.418 Y128.689 E7.70090
G1 X98.443 Y128.504 E7.79556
G1 X99.480 Y128.410 E7.89021
G1 X100.520 Y128.410 E7.98487
G1 X101.557 Y128.504 E8.07953
G1 X102.582 Y128.689 E8.17418
G1 X103.585 Y128.966 E8.26884
G1 X104.560 Y129.332 E8.36350
G1 X105.498 Y129.784 E8.45815
G1 X106.391 Y130.318 E8.55281
G1 X107.233 Y130.930 E8.64747
G1 X108.017 Y131.615 E8.74212
G1 X108.737 Y132.367 E8.83678
G1 X109.386 Y133.181 E8.93144
G1 X109.959 Y134.050 E9.02609
G1 X110.452 Y134.966 E9.12075
G1 X110.862 Y135.924 E9.21541
G1 X111.183 Y136.914 E9.31006
G1 X111.415 Y137.928 E9.40472
G1 X111.555 Y138.960 E9.49938
G1 X111.599 Y139.958 E9.59019
G1 X111.555 Y141.037 E9.68840
G1 X111.415 Y142.072 E9.78333
G1 X111.183 Y143.086 E9.87799
G1 X110.862 Y144.076 E9.97265
G1 X110.452 Y145.034 E10.06730
G1 X109.959 Y145.950 E10.16196
G1 X109.386 Y146.819 E10.25662
G1 X108.737 Y147.633 E10.35127
G1 X108.017 Y148.385 E10.44593
G1 X107.233 Y149.070 E10.54059
G1 X106.523 Y149.586 E10.62042
G1 X106.107 Y149.116 F4800.000
G1 F1800
G1 X105.203 Y149.665 E10.71660
G1 X104.314 Y150.093 E10.80632
G1 X103.392 Y150.439 E10.89587
G1 X102.442 Y150.701 E10.98542
G1 X101.473 Y150.877 E11.07498
G1 X100.492 Y150.965 E11.16453
G1 X99.508 Y150.965 E11.25408
G1 X98.527 Y150.877 E11.34363
G1 X97.558 Y150.701 E11.43319
G1 X96.607 Y150.438 E11.52291
G1 X95.649 Y150.075 E11.61602
G1 X94.799 Y149.665 E11.70183
G1 X93.953 Y149.160 E11.79139
G1 X93.157 Y148.581 E11.88094
G1 X92.415 Y147.933 E11.97049
G1 X91.733 Y147.220 E12.06021
G1 X91.098 Y146.417 E12.15332
G1 X90.578 Y145.630 E12.23914
G1 X90.111 Y144.762 E12.32869
G1 X89.724 Y143.857 E12.41824
G1 X89.420 Y142.920 E12.50780
G1 X89.201 Y141.960 E12.59735
G1 X89.068 Y140.984 E12.68690
G1 X89.024 Y140.000 E12.77646
G1 X89.068 Y139.016 E12.86601
G1 X89.201 Y138.040 E12.95556
G1 X89.420 Y137.078 E13.04528
G1 X89.740 Y136.106 E13.13839
G1 X90.111 Y135.238 E13.22421
G1 X90.578 Y134.370 E13.31376
G1 X91.120 Y133.549 E13.40331
G1 X91.734 Y132.779 E13.49287
G1 X92.415 Y132.067 E13.58242
G1 X93.157 Y131.419 E13.67197
G1 X93.953 Y130.840 E13.76153
G1 X94.799 Y130.335 E13.85108
G1 X95.686 Y129.907 E13.94063
G1 X96.608 Y129.561 E14.03018
G1 X97.558 Y129.299 E14.11974
G1 X98.527 Y129.123 E14.20929
G1 X99.508 Y129.035 E14.29884
G1 X100.492 Y129.035 E14.38840
G1 X101.473 Y129.123 E14.47795
G1 X102.442 Y129.299 E14.56750
G1 X103.392 Y129.561 E14.65706
G1 X104.314 Y129.907 E14.74661
G1 X105.201 Y130.335 E14.83616
G1 X106.047 Y130.840 E14.92571
G1 X106.843 Y131.419 E15.01527
G1 X107.585 Y132.067 E15.10482
G1 X108.266 Y132.779 E15.19437
G1 X108.880 Y133.549 E15.28393
G1 X109.422 Y134.370 E15.37348
G1 X109.889 Y135.238 E15.46303
G1 X110.276 Y136.143 E15.55259
G1 X110.580 Y137.080 E15.64214
G1 X110.799 Y138.040 E15.73169
G1 X110.932 Y139.016 E15.82124
G1 X110.974 Y139.959 E15.90706
G1 X110.932 Y140.982 E16.00017
G1 X110.799 Y141.960 E16.08989
G1 X110.580 Y142.920 E16.17944
G1 X110.276 Y143.857 E16.26900
G1 X109.889 Y144.762 E16.35855
G1 X109.422 Y145.630 E16.44810
G1 X108.880 Y146.451 E16.53765
G1 X108.266 Y147.221 E16.62721
G1 X107.585 Y147.933 E16.71676
G1 X106.843 Y148.581 E16.80631
G1 X106.156 Y149.081 E16.88360
G1 X105.740 Y148.611 F4800.000
G1 F1800
G1 X104.905 Y149.114 E16.97223
G1 X104.068 Y149.517 E17.05674
G1 X103.198 Y149.844 E17.14119
G1 X102.303 Y150.091 E17.22564
G1 X101.389 Y150.257 E17.31009
G1 X100.464 Y150.340 E17.39454
G1 X99.536 Y150.340 E17.47899
G1 X98.611 Y150.257 E17.56344
G1 X97.697 Y150.091 E17.64789
G1 X96.801 Y149.844 E17.73240
G1 X95.896 Y149.500 E17.82040
G1 X95.095 Y149.114 E17.90122
G1 X94.298 Y148.638 E17.98567
G1 X93.547 Y148.092 E18.07012
G1 X92.847 Y147.481 E18.15457
G1 X92.205 Y146.809 E18.23908
G1 X91.604 Y146.050 E18.32708
G1 X91.115 Y145.309 E18.40790
G1 X90.675 Y144.491 E18.49235
G1 X90.310 Y143.637 E18.57680
G1 X90.023 Y142.754 E18.66125
G1 X89.816 Y141.848 E18.74570
G1 X89.691 Y140.928 E18.83015
G1 X89.650 Y140.000 E18.91460
G1 X89.691 Y139.072 E18.99905
G1 X89.816 Y138.152 E19.08350
G1 X90.023 Y137.246 E19.16801
G1 X90.325 Y136.326 E19.25601
G1 X90.675 Y135.509 E19.33683
G1 X91.115 Y134.691 E19.42128
G1 X91.626 Y133.916 E19.50573
G1 X92.205 Y133.190 E19.59018
G1 X92.847 Y132.519 E19.67463
G1 X93.547 Y131.908 E19.75908
G1 X94.298 Y131.362 E19.84353
G1 X95.095 Y130.886 E19.92798
G1 X95.932 Y130.483 E20.01243
G1 X96.802 Y130.156 E20.09688
G1 X97.697 Y129.909 E20.18133
G1 X98.611 Y129.743 E20.26578
G1 X99.536 Y129.660 E20.35023
G1 X100.464 Y129.660 E20.43467
G1 X101.389 Y129.743 E20.51912
G1 X102.303 Y129.909 E20.60357
G1 X103.198 Y130.156 E20.68802
G1 X104.068 Y130.483 E20.77247
G1 X104.905 Y130.886 E20.85692
G1 X105.702 Y131.362 E20.94137
G1 X106.453 Y131.908 E21.02582
G1 X107.153 Y132.519 E21.11027
G1 X107.795 Y133.190 E21.19472
G1 X108.374 Y133.916 E21.27917
G1 X108.885 Y134.691 E21.36362
G1 X109.325 Y135.509 E21.44807
G1 X109.690 Y136.363 E21.53252
G1 X109.977 Y137.246 E21.61697
G1 X110.184 Y138.152 E21.70142
G1 X110.309 Y139.072 E21.78586
G1 X110.349 Y139.960 E21.86668
G1 X110.309 Y140.927 E21.95469
G1 X110.184 Y141.848 E22.03920
G1 X109.977 Y142.754 E22.12365
G1 X109.690 Y143.637 E22.20810
G1 X109.325 Y144.491 E22.29255
G1 X108.885 Y145.309 E22.37700
G1 X108.374 Y146.084 E22.46145
G1 X107.795 Y146.810 E22.54589
G1 X107.153 Y147.481 E22.63034
G1 X106.453 Y148.092 E22.71479
G1 X105.788 Y148.575 E22.78953
G1 X105.765 Y149.010 F4800.000
G1 E18.78953 F2400.00000
G92 E0
G1 Z0.650 F4800.000
G1 X114.988 Y157.934
G1 Z0.350
G1 E4.00000 F2400.00000
G1 F1800
G1 X114.577 Y157.644 E4.04575
G1 X113.484 Y157.224 E4.15224
G1 X112.329 Y157.096 E4.25788
G1 X111.182 Y157.259 E4.36321
G1 X110.112 Y157.703 E4.46853
G1 X109.186 Y158.399 E4.57386
G1 X108.463 Y159.304 E4.67919
G1 X107.989 Y160.361 E4.78452
G1 X107.792 Y161.502 E4.88984
G1 X107.834 Y162.023 E4.93731
G1 X107.048 Y162.312 E5.01351
G1 X104.947 Y162.870 E5.21119
G1 X104.120 Y163.009 E5.28738
G1 X103.899 Y162.536 E5.33485
G1 X103.162 Y161.642 E5.44018
G1 X102.226 Y160.960 E5.54551
G1 X101.149 Y160.533 E5.65083
G1 X100.000 Y160.387 E5.75616
G1 X98.851 Y160.533 E5.86149
G1 X97.774 Y160.960 E5.96682
G1 X96.838 Y161.642 E6.07214
G1 X96.101 Y162.536 E6.17747
G1 X95.880 Y163.008 E6.22483
G1 X95.018 Y162.862 E6.30432
G1 X92.883 Y162.290 E6.50528
G1 X92.078 Y161.990 E6.58340
G1 X92.108 Y161.610 E6.61809
G1 X91.963 Y160.483 E6.72136
G1 X91.522 Y159.392 E6.82836
G1 X90.820 Y158.448 E6.93536
G1 X89.902 Y157.712 E7.04236
G1 X88.827 Y157.233 E7.14937
G1 X87.666 Y157.041 E7.25637
G1 X86.494 Y157.149 E7.36337
G1 X85.388 Y157.550 E7.47037
G1 X84.929 Y157.866 E7.52104
G1 X84.255 Y157.308 E7.60063
G1 X82.692 Y155.745 E7.80158
G1 X82.144 Y155.083 E7.87972
G1 X82.405 Y154.682 E7.92322
G1 X82.707 Y153.988 E7.99204
G1 X82.892 Y153.254 E8.06086
G1 X82.958 Y152.464 E8.13297
G1 X82.814 Y151.340 E8.23604
G1 X82.378 Y150.254 E8.34241
G1 X81.684 Y149.313 E8.44879
G1 X80.788 Y148.587 E8.55363
G1 X79.713 Y148.093 E8.66118
G1 X78.557 Y147.892 E8.76787
G1 X78.015 Y147.936 E8.81730
G1 X77.710 Y147.117 E8.89685
G1 X77.138 Y144.982 E9.09780
G1 X76.992 Y144.120 E9.17729
G1 X77.464 Y143.899 E9.22466
G1 X78.358 Y143.162 E9.32999
G1 X79.040 Y142.226 E9.43531
G1 X79.461 Y141.165 E9.53912
G1 X79.613 Y140.003 E9.64561
G1 X79.467 Y138.851 E9.75126
G1 X79.040 Y137.774 E9.85659
G1 X78.358 Y136.838 E9.96191
G1 X77.464 Y136.101 E10.06724
G1 X76.992 Y135.880 E10.11460
G1 X77.138 Y135.018 E10.19409
G1 X77.710 Y132.883 E10.39505
G1 X78.015 Y132.064 E10.47460
G1 X78.557 Y132.108 E10.52403
G1 X79.710 Y131.908 E10.63040
G1 X80.775 Y131.424 E10.73678
G1 X81.684 Y130.687 E10.84315
G1 X82.378 Y129.746 E10.94953
G1 X82.814 Y128.660 E11.05590
G1 X82.958 Y127.536 E11.15897
G1 X82.892 Y126.746 E11.23108
G1 X82.707 Y126.012 E11.29990
G1 X82.405 Y125.318 E11.36871
G1 X82.144 Y124.917 E11.41222
G1 X82.692 Y124.255 E11.49035
G1 X84.255 Y122.692 E11.69131
G1 X84.929 Y122.134 E11.77089
G1 X85.388 Y122.450 E11.82156
G1 X86.494 Y122.851 E11.92857
G1 X87.666 Y122.959 E12.03557
G1 X88.827 Y122.767 E12.14257
G1 X89.902 Y122.288 E12.24957
G1 X90.820 Y121.552 E12.35658
G1 X91.522 Y120.608 E12.46358
