; generated by Slic3r Prusa Edition 1.40.1+win64 on 2018-10-02 at 17:10:54

; 

; external perimeters extrusion width = 0.45mm
; perimeters extrusion width = 0.45mm
; infill extrusion width = 0.45mm
; solid infill extrusion width = 0.45mm
; top infill extrusion width = 0.40mm
; first layer extrusion width = 0.70mm

M107
M190 S60 ; set bed temperature and wait for it to be reached
M104 S210 ; set temperature
G28 ; home all axes
G1 Z5 F5000 ; lift nozzle
; Filament gcode
M109 S210 ; set temperature and wait for it to be reached
G21 ; set units to millimeters
G90 ; use absolute coordinates
M82 ; use absolute distances for extrusion
G92 E0
G1 E-4.00000 F2400.00000
G92 E0
G1 Z0.350 F4800.000
G1 Z0.650
G1 X77.936 Y58.036
G1 Z0.350
G1 E4.00000 F2400.00000
G1 F1800
G1 X79.014 Y56.692 E4.15667
G1 X80.512 Y55.064 E4.35779
G1 X82.158 Y53.552 E4.56105
G1 X83.500 Y52.477 E4.71743
G1 X85.072 Y51.386 E4.89140
G1 X86.997 Y50.256 E5.09437
G1 X88.546 Y49.486 E5.25165
G1 X90.117 Y48.829 E5.40647
G1 X92.230 Y48.111 E5.60944
G1 X94.369 Y47.577 E5.80994
G1 X96.073 Y47.274 E5.96724
G1 X97.792 Y47.084 E6.12452
G1 X100.009 Y46.993 E6.32626
G1 X102.205 Y47.084 E6.52614
G1 X103.918 Y47.273 E6.68281
G1 X105.594 Y47.570 E6.83763
G1 X107.721 Y48.096 E7.03689
G1 X109.627 Y48.729 E7.21951
G1 X111.488 Y49.501 E7.40273
G1 X113.435 Y50.493 E7.60138
G1 X114.903 Y51.369 E7.75681
G1 X116.321 Y52.348 E7.91348
G1 X118.025 Y53.704 E8.11152
G1 X119.515 Y55.091 E8.29659
G1 X120.997 Y56.705 E8.49586
G1 X122.066 Y58.039 E8.65131
G1 X123.052 Y59.452 E8.80797
G1 X124.175 Y61.318 E9.00600
G1 X125.086 Y63.138 E9.19108
G1 X125.905 Y65.149 E9.38849
G1 X126.444 Y66.785 E9.54518
G1 X126.870 Y68.433 E9.69998
G1 X127.247 Y70.413 E9.88319
G1 X127.489 Y72.550 E10.07877
G1 X127.562 Y74.537 E10.25953
G1 X127.562 Y205.445 E22.16298
G1 X127.468 Y207.680 E22.36640
G1 X127.278 Y209.389 E22.52278
G1 X126.940 Y211.266 E22.69614
G1 X126.377 Y213.433 E22.89972
G1 X125.826 Y215.072 E23.05700
G1 X125.179 Y216.647 E23.21182
G1 X124.193 Y218.650 E23.41479
G1 X123.058 Y220.540 E23.61532
G1 X122.064 Y221.964 E23.77320
G1 X120.986 Y223.308 E23.92987
G1 X119.488 Y224.936 E24.13102
G1 X117.850 Y226.442 E24.33336
G1 X116.499 Y227.523 E24.49071
G1 X114.933 Y228.611 E24.66405
G1 X113.003 Y229.744 E24.86757
G1 X111.454 Y230.514 E25.02485
G1 X109.883 Y231.171 E25.17967
G1 X107.770 Y231.889 E25.38263
G1 X105.631 Y232.423 E25.58314
G1 X103.921 Y232.727 E25.74105
G1 X102.208 Y232.916 E25.89771
G1 X99.998 Y233.007 E26.09884
G1 X97.991 Y232.934 E26.28144
G1 X95.811 Y232.684 E26.48098
G1 X94.139 Y232.377 E26.63553
G1 X92.462 Y231.954 E26.79282
G1 X90.373 Y231.271 E26.99271
G1 X88.512 Y230.499 E27.17593
G1 X86.556 Y229.502 E27.37548
G1 X85.097 Y228.631 E27.53001
G1 X83.679 Y227.652 E27.68669
G1 X81.975 Y226.296 E27.88471
G1 X80.485 Y224.909 E28.06980
G1 X79.003 Y223.295 E28.26906
G1 X77.934 Y221.961 E28.42450
G1 X76.948 Y220.548 E28.58117
G1 X75.828 Y218.688 E28.77858
G1 X74.917 Y216.868 E28.96366
G1 X74.098 Y214.858 E29.16107
G1 X73.556 Y213.215 E29.31837
G1 X73.130 Y211.567 E29.47318
G1 X72.753 Y209.587 E29.65639
G1 X72.511 Y207.450 E29.85196
G1 X72.438 Y205.464 E30.03271
G1 X72.438 Y74.555 E41.93618
G1 X72.531 Y72.330 E42.13869
G1 X72.722 Y70.611 E42.29598
G1 X73.059 Y68.734 E42.46933
G1 X73.623 Y66.568 E42.67291
G1 X74.174 Y64.928 E42.83020
G1 X74.821 Y63.353 E42.98502
G1 X75.807 Y61.350 E43.18799
G1 X76.942 Y59.460 E43.38849
G1 X77.902 Y58.085 E43.54094
G1 X78.414 Y58.441 F4800.000
G1 F1800
G1 X79.487 Y57.100 E43.69714
G1 X80.952 Y55.508 E43.89386
G1 X82.550 Y54.038 E44.09123
G1 X83.872 Y52.979 E44.24531
G1 X85.414 Y51.908 E44.41602
G1 X87.280 Y50.813 E44.61274
G1 X88.804 Y50.055 E44.76747
G1 X90.356 Y49.407 E44.92043
G1 X92.404 Y48.711 E45.11715
G1 X94.484 Y48.191 E45.31209
G1 X96.166 Y47.892 E45.46742
G1 X97.858 Y47.706 E45.62215
G1 X100.006 Y47.618 E45.81769
G1 X102.142 Y47.706 E46.01204
G1 X103.833 Y47.892 E46.16678
G1 X105.483 Y48.185 E46.31914
G1 X107.551 Y48.698 E46.51291
G1 X109.413 Y49.316 E46.69130
G1 X111.225 Y50.068 E46.86970
G1 X113.125 Y51.035 E47.06353
G1 X114.563 Y51.894 E47.21583
G1 X115.963 Y52.861 E47.37056
G1 X117.625 Y54.184 E47.56373
G1 X119.070 Y55.530 E47.74331
G1 X120.512 Y57.099 E47.93707
G1 X121.564 Y58.412 E48.09004
G1 X122.538 Y59.807 E48.24477
G1 X123.630 Y61.622 E48.43735
G1 X124.516 Y63.394 E48.61752
G1 X125.313 Y65.349 E48.80950
G1 X125.846 Y66.966 E48.96425
G1 X126.265 Y68.588 E49.11661
G1 X126.635 Y70.541 E49.29736
G1 X126.866 Y72.601 E49.48581
G1 X126.937 Y74.535 E49.66184
G1 X126.937 Y205.445 E61.56541
G1 X126.849 Y207.587 E61.76032
G1 X126.663 Y209.278 E61.91506
G1 X126.364 Y210.960 E62.07040
G1 X125.844 Y213.040 E62.26533
G1 X125.148 Y215.089 E62.46211
G1 X124.501 Y216.641 E62.61500
G1 X123.742 Y218.164 E62.76975
G1 X122.644 Y220.036 E62.96708
G1 X121.576 Y221.572 E63.13717
G1 X120.513 Y222.900 E63.29190
G1 X119.048 Y224.493 E63.48865
G1 X117.471 Y225.945 E63.68358
G1 X116.143 Y227.010 E63.83837
G1 X114.742 Y227.987 E63.99369
G1 X112.904 Y229.090 E64.18857
G1 X110.963 Y230.047 E64.38535
G1 X109.414 Y230.684 E64.53765
G1 X107.795 Y231.227 E64.69298
G1 X105.694 Y231.773 E64.89029
G1 X103.853 Y232.105 E65.06041
G1 X102.162 Y232.292 E65.21514
G1 X100.000 Y232.382 E65.41186
G1 X98.033 Y232.310 E65.59084
G1 X95.861 Y232.057 E65.78973
G1 X94.268 Y231.765 E65.93696
G1 X92.618 Y231.349 E66.09170
G1 X90.587 Y230.684 E66.28606
G1 X88.775 Y229.932 E66.46445
G1 X86.875 Y228.965 E66.65827
G1 X85.437 Y228.106 E66.81057
G1 X84.037 Y227.139 E66.96532
G1 X82.375 Y225.816 E67.15848
G1 X80.930 Y224.470 E67.33807
G1 X79.488 Y222.901 E67.53182
G1 X78.436 Y221.588 E67.68478
G1 X77.462 Y220.193 E67.83952
G1 X76.370 Y218.378 E68.03210
G1 X75.486 Y216.612 E68.21168
G1 X74.687 Y214.651 E68.40425
G1 X74.154 Y213.034 E68.55899
G1 X73.734 Y211.406 E68.71195
G1 X73.365 Y209.459 E68.89211
G1 X73.133 Y207.393 E69.08114
G1 X73.063 Y205.458 E69.25717
G1 X73.063 Y74.555 E81.16017
G1 X73.151 Y72.413 E81.35507
G1 X73.337 Y70.722 E81.50981
G1 X73.636 Y69.040 E81.66514
G1 X74.156 Y66.960 E81.86008
G1 X74.852 Y64.911 E82.05687
G1 X75.497 Y63.365 E82.20917
G1 X76.258 Y61.836 E82.36449
G1 X77.356 Y59.965 E82.56180
G1 X78.380 Y58.491 E82.72500
G1 X78.893 Y58.847 F4800.000
G1 F1800
G1 X79.970 Y57.497 E82.88200
G1 X81.393 Y55.951 E83.07309
G1 X82.939 Y54.527 E83.26417
G1 X84.245 Y53.481 E83.41635
G1 X85.752 Y52.434 E83.58319
G1 X87.564 Y51.370 E83.77428
G1 X89.068 Y50.621 E83.92701
G1 X90.595 Y49.984 E84.07749
G1 X92.579 Y49.311 E84.26802
G1 X94.600 Y48.805 E84.45741
G1 X96.254 Y48.511 E84.61015
G1 X97.923 Y48.327 E84.76288
G1 X100.004 Y48.243 E84.95228
G1 X102.079 Y48.327 E85.14111
G1 X103.743 Y48.510 E85.29329
G1 X105.372 Y48.800 E85.44376
G1 X107.381 Y49.299 E85.63203
G1 X109.194 Y49.901 E85.80565
G1 X110.957 Y50.633 E85.97926
G1 X112.803 Y51.571 E86.16753
G1 X114.229 Y52.422 E86.31857
G1 X115.601 Y53.370 E86.47017
G1 X117.215 Y54.656 E86.65788
G1 X118.626 Y55.970 E86.83318
G1 X120.028 Y57.494 E87.02145
G1 X121.063 Y58.785 E87.17194
G1 X122.021 Y60.157 E87.32410
G1 X123.084 Y61.927 E87.51181
G1 X123.944 Y63.645 E87.68655
G1 X124.721 Y65.551 E87.87369
G1 X125.246 Y67.140 E88.02587
G1 X125.661 Y68.749 E88.17690
G1 X126.022 Y70.667 E88.35445
G1 X126.244 Y72.658 E88.53653
G1 X126.312 Y74.541 E88.70789
G1 X126.312 Y205.445 E100.61095
G1 X126.228 Y207.524 E100.80017
G1 X126.045 Y209.188 E100.95235
G1 X125.749 Y210.848 E101.10566
G1 X125.245 Y212.862 E101.29448
G1 X124.571 Y214.850 E101.48535
G1 X123.935 Y216.374 E101.63548
G1 X123.187 Y217.878 E101.78822
G1 X122.123 Y219.690 E101.97933
G1 X121.076 Y221.197 E102.14615
G1 X120.030 Y222.503 E102.29832
G1 X118.607 Y224.050 E102.48944
G1 X117.075 Y225.461 E102.67883
G1 X115.769 Y226.508 E102.83104
G1 X114.392 Y227.470 E102.98377
G1 X112.606 Y228.541 E103.17311
G1 X110.724 Y229.470 E103.36398
G1 X109.197 Y230.098 E103.51411
G1 X107.605 Y230.632 E103.66684
G1 X105.571 Y231.161 E103.85794
G1 X103.765 Y231.487 E104.02478
G1 X102.102 Y231.670 E104.17695
G1 X100.002 Y231.757 E104.36804
G1 X98.094 Y231.688 E104.54165
G1 X96.033 Y231.454 E104.73024
G1 X94.403 Y231.155 E104.88096
G1 X92.780 Y230.745 E105.03313
G1 X90.806 Y230.099 E105.22197
G1 X89.043 Y229.367 E105.39558
G1 X87.197 Y228.429 E105.58385
G1 X85.776 Y227.581 E105.73432
G1 X84.399 Y226.630 E105.88650
G1 X82.785 Y225.344 E106.07419
G1 X81.374 Y224.030 E106.24951
G1 X79.972 Y222.506 E106.43777
G1 X78.937 Y221.215 E106.58825
G1 X77.979 Y219.843 E106.74042
G1 X76.916 Y218.073 E106.92813
G1 X76.053 Y216.349 E107.10343
G1 X75.277 Y214.443 E107.29057
G1 X74.754 Y212.860 E107.44218
G1 X74.339 Y211.251 E107.59322
G1 X73.978 Y209.333 E107.77077
G1 X73.756 Y207.343 E107.95284
G1 X73.688 Y205.459 E108.12420
G1 X73.688 Y74.555 E120.02727
G1 X73.772 Y72.476 E120.21649
G1 X73.955 Y70.812 E120.36867
G1 X74.249 Y69.158 E120.52140
G1 X74.755 Y67.138 E120.71080
G1 X75.429 Y65.150 E120.90166
G1 X76.067 Y63.620 E121.05236
G1 X76.813 Y62.122 E121.20454
G1 X77.877 Y60.310 E121.39562
G1 X78.859 Y58.896 E121.55217
G1 X80.227 Y59.776 F4800.000
G1 F1800
G1 X81.283 Y58.459 E121.70574
G1 X82.608 Y57.035 E121.88254
G1 X83.798 Y55.929 E122.03033
G1 X85.070 Y54.898 E122.17922
G1 X86.710 Y53.751 E122.36122
G1 X88.251 Y52.844 E122.52376
G1 X89.744 Y52.100 E122.67549
G1 X91.285 Y51.458 E122.82729
G1 X93.045 Y50.869 E122.99599
G1 X94.843 Y50.413 E123.16468
G1 X96.486 Y50.120 E123.31646
G1 X98.147 Y49.938 E123.46834
G1 X100.095 Y49.869 E123.64563
G1 X101.854 Y49.938 E123.80572
G1 X103.513 Y50.120 E123.95741
G1 X105.156 Y50.413 E124.10920
G1 X106.955 Y50.868 E124.27792
G1 X108.714 Y51.458 E124.44660
G1 X110.255 Y52.099 E124.59838
G1 X111.748 Y52.843 E124.75011
G1 X113.266 Y53.736 E124.91016
G1 X114.775 Y54.778 E125.07698
G1 X116.187 Y55.916 E125.24182
G1 X117.522 Y57.165 E125.40811
G1 X118.657 Y58.388 E125.55981
G1 X119.706 Y59.686 E125.71160
G1 X120.742 Y61.169 E125.87604
G1 X121.668 Y62.727 E126.04087
G1 X122.494 Y64.385 E126.20932
G1 X123.130 Y65.928 E126.36105
G1 X123.660 Y67.511 E126.51283
G1 X124.112 Y69.262 E126.67725
G1 X124.432 Y71.021 E126.83985
G1 X124.620 Y72.750 E126.99797
G1 X124.687 Y74.516 E127.15866
G1 X124.687 Y205.485 E139.06768
G1 X124.617 Y207.299 E139.23273
G1 X124.435 Y208.958 E139.38445
G1 X124.142 Y210.602 E139.53633
G1 X123.661 Y212.488 E139.71334
G1 X123.130 Y214.072 E139.86518
G1 X122.494 Y215.615 E140.01699
G1 X121.678 Y217.255 E140.18352
G1 X120.731 Y218.849 E140.35213
G1 X119.763 Y220.238 E140.50609
G1 X118.702 Y221.559 E140.66013
G1 X117.439 Y222.918 E140.82885
G1 X116.096 Y224.162 E140.99530
G1 X114.795 Y225.207 E141.14705
G1 X113.424 Y226.162 E141.29895
G1 X111.750 Y227.156 E141.47595
G1 X110.256 Y227.900 E141.62776
G1 X108.715 Y228.542 E141.77957
G1 X106.955 Y229.131 E141.94830
G1 X105.157 Y229.587 E142.11701
G1 X103.513 Y229.880 E142.26880
G1 X101.854 Y230.062 E142.42056
G1 X99.997 Y230.131 E142.58954
G1 X98.179 Y230.062 E142.75497
G1 X96.395 Y229.867 E142.91815
G1 X94.754 Y229.568 E143.06985
G1 X93.135 Y229.158 E143.22167
G1 X91.392 Y228.582 E143.38859
G1 X89.691 Y227.873 E143.55619
G1 X88.088 Y227.067 E143.71933
G1 X86.636 Y226.202 E143.87302
G1 X85.262 Y225.249 E144.02509
G1 X83.835 Y224.103 E144.19153
G1 X82.578 Y222.934 E144.34758
G1 X81.406 Y221.683 E144.50346
G1 X80.295 Y220.316 E144.66363
G1 X79.258 Y218.831 E144.82831
G1 X78.333 Y217.275 E144.99290
G1 X77.564 Y215.743 E145.14884
G1 X76.903 Y214.161 E145.30466
G1 X76.341 Y212.492 E145.46481
G1 X75.893 Y210.762 E145.62730
G1 X75.571 Y209.004 E145.78984
G1 X75.380 Y207.253 E145.95003
G1 X75.313 Y205.485 E146.11091
G1 X75.313 Y74.515 E158.01996
G1 X75.383 Y72.701 E158.18499
G1 X75.565 Y71.043 E158.33669
G1 X75.863 Y69.376 E158.49066
G1 X76.339 Y67.512 E158.66562
G1 X76.870 Y65.928 E158.81746
G1 X77.506 Y64.385 E158.96926
G1 X78.333 Y62.724 E159.13798
G1 X79.283 Y61.130 E159.30667
G1 X80.192 Y59.826 E159.45129
G1 X80.739 Y60.134 F4800.000
G1 F1800
G1 X81.763 Y58.859 E159.59995
G1 X83.041 Y57.485 E159.77057
G1 X84.216 Y56.394 E159.91636
G1 X85.455 Y55.390 E160.06136
G1 X87.038 Y54.283 E160.23706
G1 X88.540 Y53.398 E160.39552
G1 X89.995 Y52.672 E160.54336
G1 X91.515 Y52.039 E160.69316
G1 X93.210 Y51.471 E160.85564
G1 X94.964 Y51.026 E161.02024
G1 X96.565 Y50.740 E161.16810
G1 X98.203 Y50.560 E161.31796
G1 X100.083 Y50.493 E161.48895
G1 X101.797 Y50.561 E161.64500
G1 X103.434 Y50.740 E161.79471
G1 X105.035 Y51.026 E161.94261
G1 X106.768 Y51.465 E162.10512
G1 X108.484 Y52.039 E162.26971
G1 X109.986 Y52.663 E162.41756
G1 X111.460 Y53.398 E162.56732
G1 X112.939 Y54.268 E162.72336
G1 X114.410 Y55.286 E162.88603
G1 X115.785 Y56.395 E163.04668
G1 X117.072 Y57.598 E163.20686
G1 X118.177 Y58.790 E163.35466
G1 X119.214 Y60.071 E163.50446
G1 X120.223 Y61.517 E163.66483
G1 X121.125 Y63.036 E163.82549
G1 X121.921 Y64.633 E163.98777
G1 X122.548 Y66.156 E164.13751
G1 X123.064 Y67.698 E164.28539
G1 X123.504 Y69.406 E164.44577
G1 X123.815 Y71.121 E164.60425
G1 X123.998 Y72.806 E164.75833
G1 X124.062 Y74.521 E164.91442
G1 X124.062 Y205.479 E176.82237
G1 X123.994 Y207.242 E176.98278
G1 X123.815 Y208.879 E177.13252
G1 X123.529 Y210.481 E177.28047
G1 X123.064 Y212.301 E177.45128
G1 X122.548 Y213.844 E177.59919
G1 X121.921 Y215.367 E177.74901
G1 X121.124 Y216.966 E177.91143
G1 X120.211 Y218.501 E178.07383
G1 X119.257 Y219.872 E178.22578
G1 X118.222 Y221.158 E178.37586
G1 X117.005 Y222.468 E178.53839
G1 X115.696 Y223.682 E178.70077
G1 X114.429 Y224.701 E178.84861
G1 X113.076 Y225.643 E178.99849
G1 X111.461 Y226.602 E179.16928
G1 X110.006 Y227.327 E179.31715
G1 X108.485 Y227.961 E179.46698
G1 X106.790 Y228.529 E179.62948
G1 X105.036 Y228.974 E179.79407
G1 X103.414 Y229.263 E179.94386
G1 X101.798 Y229.439 E180.09171
G1 X100.009 Y229.507 E180.25447
G1 X98.236 Y229.439 E180.41583
G1 X96.496 Y229.250 E180.57495
G1 X94.897 Y228.959 E180.72274
G1 X93.300 Y228.555 E180.87258
G1 X91.622 Y228.001 E181.03324
G1 X89.942 Y227.301 E181.19875
G1 X88.398 Y226.525 E181.35583
G1 X86.983 Y225.682 E181.50558
G1 X85.627 Y224.742 E181.65565
G1 X84.235 Y223.623 E181.81802
G1 X83.011 Y222.484 E181.97002
G1 X81.870 Y221.264 E182.12194
G1 X80.788 Y219.931 E182.27808
G1 X79.777 Y218.483 E182.43863
G1 X78.876 Y216.966 E182.59908
G1 X78.127 Y215.472 E182.75100
G1 X77.484 Y213.931 E182.90286
G1 X76.937 Y212.304 E183.05898
G1 X76.501 Y210.617 E183.21739
G1 X76.188 Y208.903 E183.37583
G1 X76.004 Y207.218 E183.52995
G1 X75.938 Y205.479 E183.68821
G1 X75.938 Y74.521 E195.59618
G1 X76.006 Y72.758 E195.75659
G1 X76.182 Y71.142 E195.90440
G1 X76.471 Y69.519 E196.05428
G1 X76.936 Y67.699 E196.22509
G1 X77.452 Y66.157 E196.37299
G1 X78.079 Y64.633 E196.52281
G1 X78.876 Y63.034 E196.68531
G1 X79.802 Y61.478 E196.84988
G1 X80.705 Y60.183 E196.99346
G1 X81.238 Y60.510 F4800.000
G1 F1800
G1 X82.243 Y59.259 E197.13937
G1 X83.475 Y57.935 E197.30383
G1 X84.618 Y56.873 E197.44569
G1 X85.840 Y55.883 E197.58871
G1 X87.366 Y54.815 E197.75812
G1 X88.828 Y53.952 E197.91248
G1 X90.264 Y53.236 E198.05833
G1 X91.745 Y52.620 E198.20420
G1 X93.397 Y52.068 E198.36258
G1 X95.085 Y51.639 E198.52098
G1 X96.664 Y51.357 E198.66685
G1 X98.260 Y51.183 E198.81276
G1 X100.070 Y51.118 E198.97749
G1 X101.741 Y51.183 E199.12951
G1 X103.335 Y51.357 E199.27531
G1 X104.914 Y51.639 E199.42120
G1 X106.603 Y52.068 E199.57962
G1 X108.255 Y52.620 E199.73800
G1 X109.736 Y53.236 E199.88386
G1 X111.171 Y53.952 E200.02971
G1 X112.611 Y54.801 E200.18173
G1 X114.045 Y55.793 E200.34024
G1 X115.384 Y56.874 E200.49672
G1 X116.621 Y58.032 E200.65080
G1 X117.712 Y59.207 E200.79662
G1 X118.721 Y60.455 E200.94250
G1 X119.704 Y61.865 E201.09880
G1 X120.582 Y63.345 E201.25530
G1 X121.347 Y64.882 E201.41144
G1 X121.959 Y66.365 E201.55726
G1 X122.468 Y67.886 E201.70315
G1 X122.896 Y69.551 E201.85946
G1 X123.198 Y71.221 E202.01382
G1 X123.375 Y72.862 E202.16385
G1 X123.437 Y74.527 E202.31538
G1 X123.437 Y205.473 E214.22227
G1 X123.372 Y207.185 E214.37806
G1 X123.198 Y208.780 E214.52388
G1 X122.916 Y210.360 E214.66981
G1 X122.468 Y212.114 E214.83442
G1 X121.959 Y213.635 E214.98031
G1 X121.347 Y215.118 E215.12620
G1 X120.581 Y216.657 E215.28248
