; generated by Slic3r Prusa Edition 1.40.1+win64 on 2018-10-03 at 09:50:08

; 

; external perimeters extrusion width = 0.45mm
; perimeters extrusion width = 0.45mm
; infill extrusion width = 0.45mm
; solid infill extrusion width = 0.45mm
; top infill extrusion width = 0.40mm
; first layer extrusion width = 0.70mm

M107
M190 S60 ; set bed temperature and wait for it to be reached
M104 S210 ; set temperature
G28 ; home all axes
G1 Z5 F5000 ; lift nozzle
; Filament gcode
M109 S210 ; set temperature and wait for it to be reached
G21 ; set units to millimeters
G90 ; use absolute coordinates
M82 ; use absolute distances for extrusion
G92 E0
G1 E-4.00000 F2400.00000
G92 E0
G1 Z0.350 F4800.000
G1 Z0.650
G1 X100.511 Y100.511
G1 Z0.350
G1 E4.00000 F2400.00000
G1 F1800
G1 X126.782 Y74.239 E7.37840
G1 X128.111 Y72.996 E7.54377
G1 X129.772 Y71.649 E7.73822
G1 X131.585 Y70.407 E7.93809
G1 X133.069 Y69.532 E8.09478
G1 X134.608 Y68.756 E8.25144
G1 X136.627 Y67.905 E8.45071
G1 X138.552 Y67.266 E8.63517
G1 X140.683 Y66.738 E8.83472
G1 X142.356 Y66.441 E8.98926
G1 X144.075 Y66.252 E9.14654
G1 X146.285 Y66.161 E9.34766
G1 X148.245 Y66.232 E9.52595
G1 X150.201 Y66.442 E9.70485
G1 X152.137 Y66.791 E9.88376
G1 X154.037 Y67.276 E10.06205
G1 X155.904 Y67.897 E10.24095
G1 X157.722 Y68.650 E10.41987
G1 X159.481 Y69.530 E10.59876
G1 X161.151 Y70.519 E10.77520
G1 X162.790 Y71.656 E10.95657
G1 X164.317 Y72.886 E11.13488
G1 X165.763 Y74.231 E11.31440
G1 X167.081 Y75.645 E11.49021
G1 X168.334 Y77.197 E11.67157
G1 X169.442 Y78.789 E11.84801
G1 X170.452 Y80.486 E12.02754
G1 X171.238 Y82.042 E12.18606
G1 X172.075 Y84.023 E12.38162
G1 X172.642 Y85.701 E12.54261
G1 X173.262 Y88.129 E12.77054
G1 X173.564 Y89.843 E12.92877
G1 X173.773 Y91.827 E13.11015
G1 X173.839 Y93.773 E13.28719
G1 X173.747 Y95.935 E13.48400
G1 X173.554 Y97.675 E13.64317
G1 X173.201 Y99.617 E13.82267
G1 X172.720 Y101.497 E13.99908
G1 X172.086 Y103.396 E14.18111
G1 X171.345 Y105.181 E14.35691
G1 X170.460 Y106.946 E14.53644
G1 X169.455 Y108.638 E14.71534
G1 X168.287 Y110.313 E14.90102
G1 X167.101 Y111.779 E15.07252
G1 X165.779 Y113.200 E15.24896
G1 X73.213 Y205.766 E27.15242
G1 X71.771 Y207.108 E27.33151
G1 X70.234 Y208.346 E27.51102
G1 X68.595 Y209.483 E27.69239
G1 X66.720 Y210.579 E27.88981
G1 X64.926 Y211.456 E28.07145
G1 X63.354 Y212.102 E28.22597
G1 X61.740 Y212.644 E28.38079
G1 X59.627 Y213.199 E28.57944
G1 X57.684 Y213.553 E28.75898
G1 X55.695 Y213.768 E28.94095
G1 X53.708 Y213.839 E29.12171
G1 X51.721 Y213.766 E29.30250
G1 X49.564 Y213.520 E29.49992
G1 X47.602 Y213.147 E29.68154
G1 X45.956 Y212.722 E29.83607
G1 X44.333 Y212.186 E29.99152
G1 X42.315 Y211.367 E30.18953
G1 X40.536 Y210.479 E30.37029
G1 X38.815 Y209.459 E30.55227
G1 X37.134 Y208.287 E30.73859
G1 X35.688 Y207.119 E30.90761
G1 X34.423 Y205.949 E31.06428
G1 X32.905 Y204.340 E31.26540
G1 X31.518 Y202.600 E31.46775
G1 X30.539 Y201.182 E31.62442
G1 X29.659 Y199.709 E31.78048
G1 X28.654 Y197.731 E31.98221
G1 X27.821 Y195.689 E32.18271
G1 X27.277 Y194.040 E32.34062
G1 X26.845 Y192.365 E32.49791
G1 X26.439 Y190.177 E32.70027
G1 X26.217 Y187.973 E32.90167
G1 X26.161 Y186.254 E33.05805
G1 X26.229 Y184.343 E33.23201
G1 X26.478 Y182.124 E33.43498
G1 X26.790 Y180.423 E33.59228
G1 X27.210 Y178.759 E33.74833
G1 X27.897 Y176.649 E33.95006
G1 X28.758 Y174.604 E34.15180
G1 X29.533 Y173.066 E34.30846
G1 X30.416 Y171.570 E34.46637
G1 X31.713 Y169.687 E34.67430
G1 X32.899 Y168.221 E34.84580
G1 X34.226 Y166.795 E35.02287
G1 X100.468 Y100.553 E43.54122
G1 X100.910 Y100.995 F4800.000
G1 F1800
G1 X127.224 Y74.681 E46.92508
G1 X128.523 Y73.466 E47.08679
G1 X130.144 Y72.151 E47.27653
G1 X131.901 Y70.946 E47.47028
G1 X133.367 Y70.081 E47.62504
G1 X134.881 Y69.318 E47.77917
G1 X136.844 Y68.491 E47.97293
G1 X138.718 Y67.868 E48.15250
G1 X140.794 Y67.353 E48.34693
G1 X142.443 Y67.060 E48.49923
G1 X144.134 Y66.874 E48.65396
G1 X146.283 Y66.786 E48.84950
G1 X148.198 Y66.855 E49.02376
G1 X150.110 Y67.060 E49.19860
G1 X152.002 Y67.402 E49.37346
G1 X153.865 Y67.877 E49.54830
G1 X155.690 Y68.484 E49.72315
G1 X157.467 Y69.220 E49.89801
G1 X159.180 Y70.078 E50.07226
G1 X160.818 Y71.048 E50.24533
G1 X162.414 Y72.155 E50.42196
G1 X163.912 Y73.361 E50.59683
G1 X165.319 Y74.671 E50.77168
G1 X166.613 Y76.058 E50.94414
G1 X167.837 Y77.575 E51.12135
G1 X168.920 Y79.132 E51.29384
G1 X169.903 Y80.785 E51.46869
G1 X170.679 Y82.322 E51.62520
G1 X171.495 Y84.255 E51.81600
G1 X172.049 Y85.898 E51.97369
G1 X172.647 Y88.240 E52.19351
G1 X172.944 Y89.922 E52.34877
G1 X173.149 Y91.860 E52.52599
G1 X173.214 Y93.762 E52.69905
G1 X173.125 Y95.872 E52.89105
G1 X172.936 Y97.583 E53.04759
G1 X172.591 Y99.481 E53.22301
G1 X172.121 Y101.318 E53.39547
G1 X171.502 Y103.173 E53.57331
G1 X170.777 Y104.919 E53.74518
G1 X169.910 Y106.650 E53.92122
G1 X168.927 Y108.303 E54.09606
G1 X167.778 Y109.949 E54.27859
G1 X166.626 Y111.373 E54.44516
G1 X165.334 Y112.761 E54.61765
G1 X72.771 Y205.324 E66.52064
G1 X71.364 Y206.634 E66.69548
G1 X69.877 Y207.833 E66.86912
G1 X68.287 Y208.938 E67.04515
G1 X66.605 Y209.934 E67.22296
G1 X64.878 Y210.796 E67.39840
G1 X62.903 Y211.598 E67.59223
G1 X61.313 Y212.123 E67.74453
G1 X59.690 Y212.541 E67.89690
G1 X57.769 Y212.906 E68.07470
G1 X55.678 Y213.143 E68.26608
G1 X53.711 Y213.214 E68.44507
G1 X51.769 Y213.143 E68.62171
G1 X49.671 Y212.905 E68.81371
G1 X47.756 Y212.541 E68.99095
G1 X46.135 Y212.123 E69.14325
G1 X44.531 Y211.594 E69.29682
G1 X42.569 Y210.796 E69.48938
G1 X40.831 Y209.928 E69.66600
G1 X39.149 Y208.931 E69.84380
G1 X37.498 Y207.778 E70.02693
G1 X36.093 Y206.643 E70.19113
G1 X34.849 Y205.492 E70.34527
G1 X33.374 Y203.927 E70.54080
G1 X32.029 Y202.241 E70.73693
G1 X31.063 Y200.840 E70.89167
G1 X30.197 Y199.390 E71.04522
G1 X29.220 Y197.467 E71.24135
G1 X28.411 Y195.482 E71.43628
G1 X27.877 Y193.866 E71.59102
G1 X27.452 Y192.218 E71.74576
G1 X27.057 Y190.085 E71.94307
G1 X26.841 Y187.951 E72.13807
G1 X26.786 Y186.257 E72.29215
G1 X26.853 Y184.381 E72.46286
G1 X27.095 Y182.225 E72.66016
G1 X27.402 Y180.551 E72.81491
G1 X27.815 Y178.914 E72.96846
G1 X28.484 Y176.863 E73.16458
G1 X29.318 Y174.881 E73.36011
G1 X30.081 Y173.367 E73.51426
G1 X30.952 Y171.890 E73.67018
G1 X32.218 Y170.056 E73.87282
G1 X33.374 Y168.627 E74.03999
G1 X34.667 Y167.238 E74.21249
G1 X100.868 Y101.037 E82.72553
G1 X101.309 Y101.479 F4800.000
G1 F1800
G1 X127.666 Y75.122 E86.11484
G1 X128.937 Y73.934 E86.27300
G1 X130.517 Y72.653 E86.45799
G1 X132.224 Y71.481 E86.64625
G1 X133.665 Y70.630 E86.79844
G1 X135.160 Y69.878 E86.95060
G1 X137.068 Y69.075 E87.13887
G1 X138.892 Y68.469 E87.31361
G1 X140.905 Y67.968 E87.50222
G1 X142.536 Y67.678 E87.65292
G1 X144.200 Y67.495 E87.80509
G1 X146.281 Y67.411 E87.99449
G1 X148.152 Y67.478 E88.16472
G1 X150.019 Y67.679 E88.33551
G1 X151.868 Y68.012 E88.50631
G1 X153.688 Y68.476 E88.67710
G1 X155.470 Y69.069 E88.84789
G1 X157.206 Y69.788 E89.01869
G1 X158.885 Y70.629 E89.18948
G1 X160.480 Y71.574 E89.35801
G1 X162.044 Y72.658 E89.53106
G1 X163.502 Y73.833 E89.70131
G1 X164.881 Y75.117 E89.87267
G1 X166.145 Y76.472 E90.04119
G1 X167.336 Y77.948 E90.21367
G1 X168.398 Y79.475 E90.38277
G1 X169.361 Y81.095 E90.55413
G1 X170.120 Y82.601 E90.70743
G1 X170.912 Y84.480 E90.89287
G1 X171.456 Y86.095 E91.04787
G1 X172.032 Y88.351 E91.25958
G1 X172.325 Y90.008 E91.41254
G1 X172.525 Y91.894 E91.58503
G1 X172.589 Y93.759 E91.75468
G1 X172.504 Y95.809 E91.94127
G1 X172.318 Y97.491 E92.09515
G1 X171.983 Y99.339 E92.26593
G1 X171.522 Y101.141 E92.43501
G1 X170.918 Y102.952 E92.60865
G1 X170.209 Y104.658 E92.77661
G1 X169.362 Y106.348 E92.94854
G1 X168.403 Y107.963 E93.11933
G1 X167.278 Y109.574 E93.29801
G1 X166.155 Y110.962 E93.46034
G1 X164.892 Y112.319 E93.62888
G1 X72.329 Y204.882 E105.53195
G1 X70.956 Y206.161 E105.70259
G1 X69.513 Y207.325 E105.87111
G1 X67.951 Y208.411 E106.04416
G1 X66.313 Y209.381 E106.21721
G1 X64.622 Y210.226 E106.38913
G1 X62.710 Y211.004 E106.57683
G1 X61.138 Y211.523 E106.72731
G1 X59.536 Y211.936 E106.87779
G1 X57.666 Y212.290 E107.05084
G1 X55.627 Y212.520 E107.23739
G1 X53.713 Y212.589 E107.41157
G1 X51.817 Y212.520 E107.58408
G1 X49.778 Y212.289 E107.77066
G1 X47.911 Y211.936 E107.94345
G1 X46.312 Y211.524 E108.09359
G1 X44.729 Y211.001 E108.24521
G1 X42.823 Y210.225 E108.43234
G1 X41.126 Y209.377 E108.60482
G1 X39.489 Y208.406 E108.77786
G1 X37.872 Y207.278 E108.95712
G1 X36.499 Y206.168 E109.11775
G1 X35.271 Y205.030 E109.26992
G1 X33.847 Y203.518 E109.45875
G1 X32.540 Y201.881 E109.64928
G1 X31.589 Y200.504 E109.80145
G1 X30.735 Y199.072 E109.95306
G1 X29.790 Y197.209 E110.14302
G1 X29.002 Y195.281 E110.33241
G1 X28.477 Y193.692 E110.48458
G1 X28.058 Y192.065 E110.63732
G1 X27.676 Y189.999 E110.82842
G1 X27.479 Y188.174 E110.99526
G1 X27.415 Y186.502 E111.14743
G1 X27.477 Y184.420 E111.33682
G1 X27.711 Y182.332 E111.52790
G1 X28.012 Y180.685 E111.68008
G1 X28.420 Y179.069 E111.83169
G1 X29.069 Y177.083 E112.02165
G1 X29.879 Y175.157 E112.21161
G1 X30.632 Y173.663 E112.36377
G1 X31.489 Y172.211 E112.51708
G1 X32.722 Y170.426 E112.71438
G1 X33.845 Y169.038 E112.87672
G1 X35.112 Y167.676 E113.04583
G1 X101.267 Y101.522 E121.55294
G1 X102.459 Y102.629 F4800.000
G1 F1800
G1 X128.839 Y76.248 E124.94529
G1 X130.058 Y75.112 E125.09685
G1 X131.406 Y74.018 E125.25469
G1 X132.849 Y73.008 E125.41478
G1 X134.361 Y72.103 E125.57508
G1 X135.999 Y71.278 E125.74184
G1 X137.692 Y70.578 E125.90842
G1 X139.299 Y70.044 E126.06235
G1 X140.937 Y69.621 E126.21617
G1 X142.668 Y69.302 E126.37628
G1 X144.515 Y69.100 E126.54524
G1 X146.371 Y69.037 E126.71408
G1 X148.108 Y69.105 E126.87217
G1 X149.860 Y69.298 E127.03240
G1 X151.572 Y69.611 E127.19063
G1 X153.278 Y70.050 E127.35082
G1 X154.890 Y70.591 E127.50545
G1 X156.593 Y71.296 E127.67305
G1 X158.130 Y72.069 E127.82950
G1 X159.625 Y72.957 E127.98760
G1 X161.071 Y73.961 E128.14771
G1 X162.443 Y75.067 E128.30790
G1 X163.717 Y76.252 E128.46610
G1 X164.919 Y77.540 E128.62634
G1 X166.026 Y78.911 E128.78654
G1 X167.019 Y80.337 E128.94456
G1 X167.920 Y81.850 E129.10470
G1 X168.704 Y83.407 E129.26320
G1 X169.409 Y85.110 E129.43079
G1 X169.943 Y86.701 E129.58340
G1 X170.384 Y88.407 E129.74356
G1 X170.702 Y90.140 E129.90382
G1 X170.895 Y91.892 E130.06410
G1 X170.963 Y93.653 E130.22430
G1 X170.899 Y95.505 E130.39280
G1 X170.712 Y97.234 E130.55096
G1 X170.400 Y98.968 E130.71117
G1 X169.964 Y100.675 E130.87139
G1 X169.408 Y102.348 E131.03166
G1 X168.733 Y103.976 E131.19192
G1 X167.945 Y105.552 E131.35215
G1 X167.047 Y107.066 E131.51225
G1 X166.042 Y108.513 E131.67241
G1 X164.951 Y109.870 E131.83071
G1 X163.752 Y111.160 E131.99085
G1 X71.152 Y203.760 E143.89870
G1 X69.908 Y204.918 E144.05319
G1 X68.593 Y205.983 E144.20707
G1 X67.111 Y207.018 E144.37145
G1 X65.596 Y207.921 E144.53178
G1 X63.981 Y208.731 E144.69607
G1 X62.331 Y209.414 E144.85844
G1 X60.660 Y209.969 E145.01855
G1 X59.042 Y210.383 E145.17044
G1 X57.408 Y210.684 E145.32149
G1 X55.591 Y210.892 E145.48780
G1 X53.775 Y210.963 E145.65310
G1 X51.989 Y210.902 E145.81555
G1 X50.190 Y210.709 E145.98008
G1 X48.431 Y210.389 E146.14266
G1 X46.699 Y209.943 E146.30526
G1 X45.011 Y209.375 E146.46725
G1 X43.511 Y208.752 E146.61492
G1 X42.046 Y208.024 E146.76370
G1 X40.447 Y207.089 E146.93208
G1 X38.933 Y206.042 E147.09949
G1 X37.540 Y204.918 E147.26224
G1 X36.202 Y203.667 E147.42877
G1 X35.067 Y202.444 E147.58052
G1 X34.017 Y201.145 E147.73236
G1 X32.931 Y199.584 E147.90535
G1 X32.012 Y198.025 E148.06984
G1 X31.249 Y196.491 E148.22562
G1 X30.594 Y194.905 E148.38171
G1 X30.018 Y193.167 E148.54817
G1 X29.597 Y191.505 E148.70410
G1 X29.289 Y189.795 E148.86210
G1 X29.100 Y188.039 E149.02265
G1 X29.037 Y186.185 E149.19136
G1 X29.100 Y184.517 E149.34316
G1 X29.275 Y182.856 E149.49499
G1 X29.611 Y180.983 E149.66798
G1 X30.063 Y179.232 E149.83247
G1 X30.609 Y177.608 E149.98825
G1 X31.267 Y176.023 E150.14434
G1 X32.089 Y174.387 E150.31080
G1 X32.967 Y172.913 E150.46674
G1 X33.958 Y171.486 E150.62473
G1 X35.049 Y170.131 E150.78294
G1 X36.239 Y168.849 E150.94200
G1 X102.417 Y102.671 E159.45204
G1 X102.901 Y103.071 F4800.000
G1 F1800
G1 X129.277 Y76.694 E162.84390
G1 X130.477 Y75.576 E162.99298
G1 X131.791 Y74.511 E163.14686
G1 X133.198 Y73.527 E163.30291
G1 X134.672 Y72.645 E163.45913
G1 X136.270 Y71.841 E163.62173
G1 X137.920 Y71.159 E163.78414
G1 X139.485 Y70.640 E163.93405
G1 X141.082 Y70.229 E164.08396
G1 X142.770 Y69.919 E164.24006
G1 X144.549 Y69.724 E164.40275
G1 X146.358 Y69.662 E164.56742
G1 X148.051 Y69.727 E164.72146
G1 X149.758 Y69.915 E164.87763
G1 X151.448 Y70.224 E165.03382
G1 X153.111 Y70.653 E165.18996
G1 X154.661 Y71.173 E165.33865
G1 X156.323 Y71.859 E165.50212
G1 X157.840 Y72.622 E165.65650
G1 X159.296 Y73.488 E165.81059
G1 X160.705 Y74.468 E165.96666
G1 X162.042 Y75.546 E166.12281
G1 X163.283 Y76.701 E166.27697
G1 X164.454 Y77.958 E166.43318
G1 X165.532 Y79.295 E166.58933
G1 X166.499 Y80.685 E166.74332
G1 X167.378 Y82.160 E166.89944
G1 X168.141 Y83.677 E167.05386
G1 X168.827 Y85.339 E167.21732
G1 X169.347 Y86.889 E167.36601
G1 X169.776 Y88.552 E167.52212
G1 X170.085 Y90.241 E167.67832
G1 X170.273 Y91.949 E167.83454
G1 X170.338 Y93.665 E167.99068
G1 X170.276 Y95.449 E168.15301
G1 X170.095 Y97.134 E168.30713
G1 X169.791 Y98.825 E168.46328
G1 X169.367 Y100.489 E168.61945
G1 X168.826 Y102.119 E168.77567
G1 X168.169 Y103.707 E168.93187
G1 X167.401 Y105.243 E169.08804
G1 X166.527 Y106.719 E169.24408
G1 X165.548 Y108.130 E169.40019
G1 X164.471 Y109.469 E169.55645
G1 X163.306 Y110.722 E169.71200
G1 X70.714 Y203.315 E181.61882
G1 X69.490 Y204.453 E181.77078
G1 X68.208 Y205.490 E181.92072
G1 X66.762 Y206.499 E182.08104
G1 X65.286 Y207.378 E182.23727
G1 X63.732 Y208.158 E182.39543
G1 X62.123 Y208.824 E182.55372
G1 X60.494 Y209.366 E182.70985
G1 X58.918 Y209.771 E182.85780
G1 X57.306 Y210.068 E183.00687
G1 X55.532 Y210.270 E183.16919
G1 X53.762 Y210.338 E183.33025
G1 X52.022 Y210.278 E183.48857
G1 X50.290 Y210.092 E183.64694
G1 X48.576 Y209.781 E183.80541
G1 X46.887 Y209.347 E183.96391
G1 X45.240 Y208.793 E184.12190
G1 X43.761 Y208.179 E184.26760
G1 X42.333 Y207.469 E184.41253
G1 X40.793 Y206.568 E184.57483
G1 X39.316 Y205.548 E184.73803
G1 X37.958 Y204.454 E184.89661
G1 X36.653 Y203.234 E185.05908
G1 X35.546 Y202.042 E185.20692
G1 X34.510 Y200.761 E185.35675
G1 X33.463 Y199.256 E185.52349
G1 X32.566 Y197.737 E185.68388
G1 X31.823 Y196.242 E185.83569
G1 X31.183 Y194.697 E185.98773
G1 X30.621 Y193.002 E186.15011
G1 X30.210 Y191.383 E186.30204
G1 X29.909 Y189.716 E186.45601
G1 X29.724 Y188.006 E186.61243
G1 X29.662 Y186.197 E186.77705
G1 X29.722 Y184.571 E186.92494
G1 X29.895 Y182.933 E187.07477
G1 X30.219 Y181.128 E187.24150
G1 X30.659 Y179.420 E187.40189
G1 X31.190 Y177.837 E187.55370
G1 X31.831 Y176.293 E187.70574
G1 X32.632 Y174.696 E187.86812
G1 X33.486 Y173.261 E188.02005
G1 X34.452 Y171.869 E188.17403
G1 X35.529 Y170.531 E188.33022
G1 X36.685 Y169.287 E188.48468
G1 X102.858 Y103.113 E196.99421
G1 X103.343 Y103.512 F4800.000
G1 F1800
G1 X129.715 Y77.140 E200.38556
G1 X130.895 Y76.041 E200.53215
G1 X132.176 Y75.003 E200.68206
G1 X133.546 Y74.046 E200.83408
G1 X134.983 Y73.187 E200.98624
G1 X136.519 Y72.414 E201.14262
G1 X138.128 Y71.749 E201.30094
G1 X139.651 Y71.243 E201.44689
G1 X141.227 Y70.837 E201.59481
G1 X142.871 Y70.535 E201.74687
G1 X144.605 Y70.346 E201.90540
G1 X146.346 Y70.287 E202.06383
G1 X147.994 Y70.350 E202.21383
G1 X149.657 Y70.532 E202.36595
G1 X151.303 Y70.832 E202.51808
G1 X152.923 Y71.249 E202.67017
G1 X154.433 Y71.754 E202.81495
G1 X156.053 Y72.423 E202.97428
G1 X157.530 Y73.165 E203.12461
G1 X158.949 Y74.008 E203.27467
G1 X160.322 Y74.962 E203.42670
G1 X161.625 Y76.011 E203.57881
G1 X162.834 Y77.136 E203.72895
G1 X163.975 Y78.360 E203.88111
G1 X165.026 Y79.661 E204.03322
G1 X165.968 Y81.015 E204.18318
G1 X166.824 Y82.451 E204.33524
G1 X167.577 Y83.948 E204.48757
G1 X168.246 Y85.567 E204.64688
G1 X168.751 Y87.077 E204.79165
G1 X169.168 Y88.696 E204.94371
G1 X169.468 Y90.342 E205.09585
G1 X169.650 Y92.006 E205.24802
G1 X169.713 Y93.677 E205.40009
G1 X169.654 Y95.394 E205.55629
G1 X169.478 Y97.035 E205.70638
