; generated by Slic3r Prusa Edition 1.40.1+win64 on 2018-10-06 at 11:04:13

; 

; external perimeters extrusion width = 0.45mm
; perimeters extrusion width = 0.45mm
; infill extrusion width = 0.45mm
; solid infill extrusion width = 0.45mm
; top infill extrusion width = 0.40mm
; first layer extrusion width = 0.70mm

M107
M190 S60 ; set bed temperature and wait for it to be reached
M104 S210 ; set temperature
G28 ; home all axes
G1 Z5 F5000 ; lift nozzle
; Filament gcode
M109 S210 ; set temperature and wait for it to be reached
G21 ; set units to millimeters
G90 ; use absolute coordinates
M82 ; use absolute distances for extrusion
G92 E0
G1 E-4.00000 F2400.00000
G92 E0
G1 Z0.350 F4800.000
G1 Z0.650
G1 X78.693 Y95.617
G1 Z0.350
G1 E4.00000 F2400.00000
G1 F1800
G1 X79.593 Y94.917 E4.10369
G1 X80.589 Y94.360 E4.20737
G1 X81.656 Y93.960 E4.31106
G1 X82.772 Y93.724 E4.41474
G1 X83.720 Y93.658 E4.50117
G1 X93.386 Y93.658 E5.38007
G1 X119.895 Y93.728 E7.79057
G1 X121.052 Y93.823 E7.89611
G1 X122.077 Y94.062 E7.99178
G1 X123.059 Y94.440 E8.08746
G1 X123.973 Y94.948 E8.18252
G1 X124.813 Y95.580 E8.27819
G1 X125.558 Y96.324 E8.37387
G1 X126.192 Y97.164 E8.46954
G1 X126.700 Y98.077 E8.56460
G1 X127.080 Y99.058 E8.66028
G1 X127.332 Y100.157 E8.76273
G1 X127.417 Y101.280 E8.86518
G1 X127.417 Y136.311 E12.05050
G1 X127.203 Y179.230 E15.95318
G1 X127.050 Y180.360 E16.05687
G1 X126.726 Y181.460 E16.16117
G1 X126.242 Y182.493 E16.26485
G1 X125.605 Y183.447 E16.36915
G1 X124.836 Y184.288 E16.47284
G1 X123.943 Y185.009 E16.57714
G1 X122.952 Y185.586 E16.68144
G1 X121.884 Y186.006 E16.78574
G1 X120.806 Y186.254 E16.88635
G1 X119.697 Y186.342 E16.98757
G1 X82.812 Y186.228 E20.34148
G1 X81.731 Y186.028 E20.44146
G1 X80.696 Y185.676 E20.54084
G1 X79.723 Y185.178 E20.64021
G1 X78.827 Y184.541 E20.74020
G1 X78.037 Y183.785 E20.83957
G1 X77.361 Y182.918 E20.93956
G1 X76.820 Y181.969 E21.03893
G1 X76.420 Y180.944 E21.13892
G1 X72.838 Y168.159 E22.34625
G1 X72.593 Y166.605 E22.48931
G1 X72.709 Y113.684 E27.30143
G1 X72.848 Y112.280 E27.42974
G1 X76.636 Y98.714 E28.71041
G1 X77.001 Y97.851 E28.79561
G1 X77.470 Y97.040 E28.88080
G1 X78.035 Y96.293 E28.96600
G1 X78.651 Y95.660 E29.04636
G1 X79.099 Y96.093 F4800.000
G1 F1800
G1 X79.936 Y95.439 E29.14293
G1 X80.861 Y94.923 E29.23928
G1 X81.860 Y94.551 E29.33622
G1 X82.898 Y94.338 E29.43258
G1 X83.735 Y94.283 E29.50886
G1 X93.386 Y94.283 E30.38637
G1 X119.893 Y94.353 E32.79667
G1 X120.878 Y94.429 E32.88653
G1 X121.824 Y94.638 E32.97462
G1 X122.737 Y94.980 E33.06330
G1 X123.588 Y95.443 E33.15139
G1 X124.371 Y96.025 E33.24007
G1 X125.061 Y96.705 E33.32815
G1 X125.649 Y97.475 E33.41624
G1 X126.124 Y98.319 E33.50433
G1 X126.479 Y99.228 E33.59301
G1 X126.712 Y100.241 E33.68759
G1 X126.792 Y101.278 E33.78218
G1 X126.792 Y136.310 E36.96756
G1 X126.581 Y179.164 E40.86433
G1 X126.444 Y180.202 E40.95950
G1 X126.151 Y181.213 E41.05526
G1 X125.708 Y182.169 E41.15102
G1 X125.125 Y183.046 E41.24679
G1 X124.421 Y183.820 E41.34196
G1 X123.603 Y184.484 E41.43772
G1 X122.695 Y185.016 E41.53348
G1 X121.716 Y185.404 E41.62924
G1 X120.715 Y185.636 E41.72264
G1 X119.691 Y185.717 E41.81604
G1 X82.932 Y185.613 E45.15852
G1 X81.940 Y185.436 E45.25015
G1 X80.984 Y185.119 E45.34178
G1 X80.078 Y184.662 E45.43400
G1 X79.254 Y184.082 E45.52563
G1 X78.522 Y183.390 E45.61726
G1 X77.895 Y182.593 E45.70948
G1 X77.393 Y181.719 E45.80111
G1 X77.022 Y180.775 E45.89333
G1 X73.444 Y168.007 E47.09901
G1 X73.217 Y166.577 E47.23072
G1 X73.334 Y113.693 E52.03944
G1 X73.455 Y112.431 E52.15466
G1 X77.215 Y98.952 E53.42714
G1 X77.549 Y98.154 E53.50578
G1 X77.978 Y97.403 E53.58443
G1 X78.498 Y96.712 E53.66307
G1 X79.057 Y96.136 E53.73603
G1 X78.487 Y97.767 F4800.000
G1 F1800
G1 X79.509 Y96.564 E53.87958
G1 X80.281 Y95.960 E53.96866
G1 X81.137 Y95.483 E54.05775
G1 X82.057 Y95.145 E54.14684
G1 X83.023 Y94.952 E54.23649
G1 X93.385 Y94.907 E55.17869
G1 X119.884 Y94.978 E57.58822
G1 X120.719 Y95.037 E57.66436
G1 X121.593 Y95.222 E57.74557
G1 X122.426 Y95.525 E57.82621
G1 X123.209 Y95.943 E57.90686
G1 X123.930 Y96.470 E57.98806
G1 X124.570 Y97.093 E58.06927
G1 X125.115 Y97.800 E58.15048
G1 X125.552 Y98.572 E58.23112
G1 X125.879 Y99.403 E58.31233
G1 X126.094 Y100.333 E58.39917
G1 X126.167 Y101.286 E58.48600
G1 X126.167 Y136.309 E61.67065
G1 X125.959 Y179.102 E65.56182
G1 X125.837 Y180.055 E65.64921
G1 X125.574 Y180.973 E65.73605
G1 X125.175 Y181.841 E65.82289
G1 X124.646 Y182.644 E65.91028
G1 X124.007 Y183.352 E65.99712
G1 X123.262 Y183.960 E66.08452
G1 X122.434 Y184.448 E66.17192
G1 X121.541 Y184.804 E66.25932
G1 X120.623 Y185.018 E66.34503
G1 X119.683 Y185.093 E66.43074
G1 X83.046 Y184.996 E69.76214
G1 X82.135 Y184.841 E69.84616
G1 X81.257 Y184.555 E69.93018
G1 X80.429 Y184.144 E70.01420
G1 X79.671 Y183.616 E70.09823
G1 X78.997 Y182.983 E70.18225
G1 X78.424 Y182.259 E70.26627
G1 X77.962 Y181.459 E70.35029
G1 X77.622 Y180.600 E70.43431
G1 X74.050 Y167.854 E71.63789
G1 X73.841 Y166.545 E71.75845
G1 X73.959 Y113.695 E76.56408
G1 X74.063 Y112.578 E76.66611
G1 X77.796 Y99.186 E77.93023
G1 X78.461 Y97.821 E78.06832
G1 E74.06832 F2400.00000
G92 E0
G1 Z0.650 F4800.000
G1 X94.566 Y117.839
G1 Z0.350
G1 E4.00000 F2400.00000
G1 F1800
G1 X94.566 Y119.631 E4.16295
G1 X94.934 Y119.735 E4.19777
G1 X95.601 Y120.026 E4.26392
G1 X96.210 Y120.437 E4.33070
G1 X97.184 Y121.416 E4.45628
G1 X97.658 Y122.166 E4.53697
G1 X97.948 Y122.933 E4.61155
G1 X98.058 Y123.573 E4.67059
G1 X98.058 Y136.867 E5.87935
G1 X97.948 Y137.505 E5.93830
G1 X97.637 Y138.316 E6.01723
G1 X97.241 Y138.954 E6.08554
G1 X96.195 Y140.026 E6.22169
G1 X97.163 Y141.041 E6.34923
G1 X97.500 Y141.593 E6.40808
G1 X97.775 Y142.271 E6.47456
G1 X97.918 Y142.932 E6.53607
G1 X97.933 Y156.341 E7.75535
G1 X97.742 Y157.256 E7.84038
G1 X97.427 Y157.970 E7.91127
G1 X97.013 Y158.570 E7.97756
G1 X96.088 Y159.492 E8.09634
G1 X95.479 Y159.904 E8.16320
G1 X94.439 Y160.333 E8.26547
G1 X94.439 Y162.124 E8.42830
G1 X94.806 Y162.226 E8.46292
G1 X95.421 Y162.489 E8.52370
G1 X96.081 Y162.927 E8.59580
G1 X97.101 Y163.963 E8.72792
G1 X97.532 Y164.659 E8.80244
G1 X97.854 Y165.551 E8.88865
G1 X97.939 Y166.161 E8.94462
G1 X97.925 Y179.426 E10.15077
G1 X97.800 Y180.072 E10.21067
G1 X97.532 Y180.764 E10.27815
G1 X97.071 Y181.500 E10.35715
G1 X96.085 Y182.493 E10.48437
G1 X95.414 Y182.938 E10.55756
G1 X94.706 Y183.230 E10.62721
G1 X94.042 Y183.376 E10.68901
G1 X82.932 Y183.385 E11.69923
G1 X82.285 Y183.260 E11.75922
G1 X81.592 Y182.991 E11.82682
G1 X80.964 Y182.615 E11.89334
G1 X79.897 Y181.585 E12.02818
G1 X79.383 Y180.803 E12.11327
G1 X79.106 Y180.097 E12.18222
G1 X78.972 Y179.425 E12.24453
G1 X78.961 Y170.801 E13.02871
G1 X78.590 Y170.697 E13.06377
G1 X77.919 Y170.404 E13.13034
G1 X77.266 Y169.955 E13.20234
G1 X76.384 Y169.069 E13.31601
G1 X75.902 Y168.339 E13.39558
G1 X75.600 Y167.579 E13.46999
G1 X75.472 Y166.926 E13.53048
G1 X75.458 Y155.661 E14.55478
G1 X75.544 Y155.051 E14.61076
G1 X75.865 Y154.159 E14.69696
G1 X76.297 Y153.463 E14.77149
G1 X77.317 Y152.427 E14.90360
G1 X77.977 Y151.989 E14.97570
G1 X78.592 Y151.726 E15.03648
G1 X78.959 Y151.624 E15.07118
G1 X78.978 Y142.954 E15.85948
G1 X79.141 Y142.216 E15.92828
G1 X79.527 Y141.353 E16.01420
G1 X79.907 Y140.827 E16.07321
G1 X80.841 Y139.897 E16.19305
G1 X79.979 Y139.039 E16.30365
G1 X79.535 Y138.362 E16.37726
G1 X79.263 Y137.706 E16.44183
G1 X79.114 Y137.067 E16.50151
G1 X79.087 Y128.308 E17.29789
G1 X78.718 Y128.206 E17.33273
G1 X78.103 Y127.943 E17.39351
G1 X77.443 Y127.504 E17.46561
G1 X76.423 Y126.469 E17.59772
G1 X75.992 Y125.772 E17.67225
G1 X75.670 Y124.881 E17.75845
G1 X75.585 Y124.271 E17.81443
G1 X75.599 Y113.006 E18.83873
G1 X75.726 Y112.353 E18.89922
G1 X76.028 Y111.593 E18.97363
G1 X76.510 Y110.862 E19.05320
G1 X77.393 Y109.977 E19.16687
G1 X78.045 Y109.528 E19.23886
G1 X78.716 Y109.235 E19.30544
G1 X79.086 Y109.131 E19.34042
G1 X79.114 Y100.378 E20.13632
G1 X79.293 Y99.646 E20.20482
G1 X79.697 Y98.787 E20.29116
G1 X80.068 Y98.296 E20.34711
G1 X80.858 Y97.505 E20.44878
G1 X81.503 Y97.053 E20.52039
G1 X82.235 Y96.728 E20.59323
G1 X83.205 Y96.533 E20.68321
G1 X94.017 Y96.539 E21.66631
G1 X94.744 Y96.675 E21.73356
G1 X95.471 Y96.958 E21.80445
G1 X96.309 Y97.520 E21.89625
G1 X97.246 Y98.492 E22.01897
G1 X97.601 Y99.051 E22.07919
G1 X97.901 Y99.780 E22.15093
G1 X98.052 Y100.506 E22.21829
G1 X98.066 Y113.785 E23.42578
G1 X97.930 Y114.565 E23.49776
G1 X97.616 Y115.360 E23.57550
G1 X97.224 Y115.975 E23.64177
G1 X96.162 Y117.042 E23.77869
G1 X95.547 Y117.443 E23.84545
G1 X94.621 Y117.817 E23.93620
G1 X93.941 Y117.302 F4800.000
G1 F1800
G1 X93.941 Y120.123 E24.19269
G1 X94.711 Y120.319 E24.26498
G1 X95.323 Y120.586 E24.32570
G1 X95.831 Y120.934 E24.38164
G1 X96.715 Y121.830 E24.49613
G1 X97.085 Y122.416 E24.55909
G1 X97.352 Y123.123 E24.62786
G1 X97.437 Y123.648 E24.67617
G1 X97.437 Y136.792 E25.87137
G1 X97.352 Y137.316 E25.91967
G1 X97.087 Y138.018 E25.98790
G1 X96.767 Y138.544 E26.04385
G1 X95.827 Y139.508 E26.16627
G1 X95.097 Y140.002 E26.24642
G1 X95.753 Y140.468 E26.31955
G1 X96.685 Y141.445 E26.44239
G1 X96.951 Y141.891 E26.48953
G1 X97.172 Y142.436 E26.54302
G1 X97.293 Y142.969 E26.59275
G1 X97.308 Y156.309 E27.80576
G1 X97.156 Y157.038 E27.87344
G1 X96.893 Y157.645 E27.93359
G1 X96.549 Y158.151 E27.98921
G1 X95.708 Y158.994 E28.09751
G1 X95.202 Y159.343 E28.15341
G1 X94.525 Y159.632 E28.22037
G1 X93.814 Y159.794 E28.28661
G1 X93.814 Y162.615 E28.54310
G1 X94.586 Y162.812 E28.61550
G1 X95.147 Y163.051 E28.67101
G1 X95.704 Y163.427 E28.73209
G1 X96.629 Y164.374 E28.85245
G1 X96.957 Y164.905 E28.90924
G1 X97.240 Y165.675 E28.98384
G1 X97.314 Y166.184 E29.03059
G1 X97.306 Y179.341 E30.22694
G1 X97.207 Y179.875 E30.27632
G1 X96.960 Y180.511 E30.33840
G1 X96.601 Y181.087 E30.40011
G1 X95.709 Y181.993 E30.51574
G1 X95.143 Y182.374 E30.57779
G1 X94.537 Y182.628 E30.63750
G1 X94.004 Y182.752 E30.68721
G1 X83.017 Y182.765 E31.68632
G1 X82.482 Y182.666 E31.73575
G1 X81.844 Y182.419 E31.79798
G1 X81.321 Y182.100 E31.85367
G1 X80.359 Y181.162 E31.97591
G1 X79.951 Y180.542 E32.04339
G1 X79.711 Y179.941 E32.10217
G1 X79.597 Y179.391 E32.15326
G1 X79.585 Y170.310 E32.97903
G1 X78.813 Y170.112 E33.05146
G1 X78.198 Y169.844 E33.11248
G1 X77.649 Y169.460 E33.17344
G1 X76.850 Y168.652 E33.27672
G1 X76.471 Y168.078 E33.33929
G1 X76.192 Y167.377 E33.40788
G1 X76.092 Y166.841 E33.45751
G1 X76.083 Y155.684 E34.47199
G1 X76.157 Y155.175 E34.51874
G1 X76.441 Y154.405 E34.59334
G1 X76.769 Y153.874 E34.65013
G1 X77.693 Y152.927 E34.77049
G1 X78.251 Y152.551 E34.83157
G1 X78.812 Y152.312 E34.88707
G1 X79.584 Y152.115 E34.95951
G1 X79.596 Y143.051 E35.78366
G1 X79.726 Y142.436 E35.84085
G1 X80.055 Y141.688 E35.91510
G1 X80.368 Y141.251 E35.96399
G1 X81.202 Y140.419 E36.07110
G1 X81.929 Y139.928 E36.15090
G1 X81.399 Y139.571 E36.20905
G1 X80.445 Y138.621 E36.33149
G1 X80.078 Y138.050 E36.39321
G1 X79.852 Y137.496 E36.44761
G1 X79.731 Y136.963 E36.49732
G1 X79.711 Y127.817 E37.32890
G1 X78.938 Y127.620 E37.40143
G1 X78.377 Y127.380 E37.45693
G1 X77.820 Y127.005 E37.51802
G1 X76.895 Y126.058 E37.63837
G1 X76.567 Y125.527 E37.69517
G1 X76.284 Y124.757 E37.76976
G1 X76.210 Y124.248 E37.81652
G1 X76.218 Y113.091 E38.83100
G1 X76.318 Y112.555 E38.88063
G1 X76.597 Y111.854 E38.94922
G1 X76.976 Y111.280 E39.01178
G1 X77.775 Y110.472 E39.11506
G1 X78.325 Y110.088 E39.17602
G1 X78.940 Y109.819 E39.23704
G1 X79.710 Y109.622 E39.30938
G1 X79.731 Y100.486 E40.14018
G1 X79.875 Y99.878 E40.19698
G1 X80.219 Y99.133 E40.27157
G1 X80.526 Y98.721 E40.31832
G1 X81.280 Y97.967 E40.41525
G1 X81.832 Y97.584 E40.47636
G1 X82.453 Y97.314 E40.53791
G1 X83.236 Y97.158 E40.61051
G1 X93.986 Y97.164 E41.58799
G1 X94.594 Y97.282 E41.64438
G1 X95.208 Y97.526 E41.70444
G1 X95.882 Y97.978 E41.77822
G1 X96.772 Y98.901 E41.89478
G1 X97.056 Y99.358 E41.94371
G1 X97.297 Y99.942 E42.00114
G1 X97.427 Y100.541 E42.05692
G1 X97.441 Y113.757 E43.25862
G1 X97.321 Y114.420 E43.31994
G1 X97.047 Y115.100 E43.38653
G1 X96.755 Y115.561 E43.43615
G1 X95.789 Y116.540 E43.56127
G1 X95.276 Y116.879 E43.61718
G1 X94.652 Y117.140 E43.67863
G1 X93.999 Y117.289 E43.73953
G1 X93.316 Y116.658 F4800.000
G1 F1800
G1 X93.316 Y120.784 E44.11475
G1 X94.088 Y120.805 E44.18497
G1 X94.491 Y120.905 E44.22273
G1 X95.001 Y121.123 E44.27319
G1 X95.409 Y121.397 E44.31784
G1 X96.246 Y122.245 E44.42625
G1 X96.511 Y122.665 E44.47143
G1 X96.755 Y123.311 E44.53419
G1 X96.816 Y123.716 E44.57144
G1 X96.816 Y136.723 E45.75416
G1 X96.755 Y137.128 E45.79141
G1 X96.513 Y137.768 E45.85359
G1 X96.256 Y138.183 E45.89801
G1 X95.408 Y139.043 E46.00782
G1 X94.945 Y139.347 E46.05820
G1 X94.445 Y139.550 E46.10720
G1 X94.022 Y139.643 E46.14664
G1 X86.511 Y139.653 E46.82964
G1 X86.511 Y140.277 E46.88641
G1 X93.826 Y140.281 E47.55158
G1 X94.311 Y140.380 E47.59659
G1 X94.868 Y140.612 E47.65150
G1 X95.328 Y140.927 E47.70213
G1 X96.170 Y141.800 E47.81243
G1 X96.381 Y142.150 E47.84962
G1 X96.583 Y142.646 E47.89826
G1 X96.676 Y143.069 E47.93770
G1 X96.684 Y156.277 E49.13869
G1 X96.570 Y156.818 E49.18897
G1 X96.331 Y157.369 E49.24358
G1 X96.086 Y157.730 E49.28326
G1 X95.288 Y158.531 E49.38605
G1 X94.880 Y158.807 E49.43083
G1 X94.313 Y159.044 E49.48673
G1 X93.884 Y159.137 E49.52663
G1 X93.190 Y159.150 E49.58978
G1 X93.190 Y163.276 E49.96501
G1 X93.961 Y163.297 E50.03522
G1 X94.364 Y163.397 E50.07298
G1 X94.875 Y163.615 E50.12344
G1 X95.282 Y163.889 E50.16809
G1 X96.120 Y164.737 E50.27650
G1 X96.385 Y165.158 E50.32168
G1 X96.628 Y165.803 E50.38445
G1 X96.690 Y166.208 E50.42169
G1 X96.686 Y179.261 E51.60859
G1 X96.612 Y179.679 E51.64716
G1 X96.388 Y180.259 E51.70371
G1 X96.129 Y180.676 E51.74834
G1 X95.329 Y181.497 E51.85256
G1 X94.867 Y181.813 E51.90341
G1 X94.360 Y182.029 E51.95356
G1 X93.963 Y182.127 E51.99070
G1 X83.096 Y182.145 E52.97888
G1 X82.678 Y182.072 E53.01747
G1 X82.098 Y181.847 E53.07402
G1 X81.682 Y181.589 E53.11857
G1 X80.822 Y180.741 E53.22838
G1 X80.518 Y180.278 E53.27876
G1 X80.315 Y179.778 E53.32777
G1 X80.222 Y179.355 E53.36720
G1 X80.209 Y169.648 E54.24986
G1 X79.436 Y169.627 E54.32015
G1 X79.033 Y169.527 E54.35791
G1 X78.524 Y169.310 E54.40822
G1 X78.071 Y168.999 E54.45820
G1 X77.316 Y168.234 E54.55593
G1 X77.039 Y167.817 E54.60143
G1 X76.785 Y167.178 E54.66399
G1 X76.712 Y166.761 E54.70244
G1 X76.708 Y155.708 E55.70749
G1 X76.770 Y155.303 E55.74473
G1 X77.013 Y154.658 E55.80749
G1 X77.278 Y154.237 E55.85267
G1 X78.115 Y153.389 E55.96108
G1 X78.523 Y153.115 E56.00573
G1 X79.033 Y152.897 E56.05619
G1 X79.436 Y152.797 E56.09395
G1 X80.208 Y152.776 E56.16419
G1 X80.214 Y143.143 E57.04016
G1 X80.314 Y142.651 E57.08579
G1 X80.586 Y142.019 E57.14835
G1 X80.829 Y141.673 E57.18677
G1 X81.619 Y140.886 E57.28816
G1 X82.080 Y140.584 E57.33831
G1 X82.540 Y140.394 E57.38354
G1 X83.087 Y140.280 E57.43436
G1 X83.473 Y140.262 E57.46947
G1 X83.509 Y139.703 E57.52037
G1 X82.804 Y139.580 E57.58538
G1 X82.224 Y139.355 E57.64194
G1 X81.808 Y139.097 E57.68649
G1 X80.948 Y138.249 E57.79630
G1 X80.645 Y137.785 E57.84668
G1 X80.442 Y137.286 E57.89569
G1 X80.348 Y136.863 E57.93512
G1 X80.335 Y127.156 E58.81778
G1 X79.563 Y127.135 E58.88807
G1 X79.160 Y127.035 E58.92583
G1 X78.649 Y126.817 E58.97629
G1 X78.242 Y126.543 E59.02094
G1 X77.404 Y125.695 E59.12934
G1 X77.140 Y125.274 E59.17452
G1 X76.896 Y124.628 E59.23729
G1 X76.835 Y124.223 E59.27453
G1 X76.839 Y113.170 E60.27957
G1 X76.912 Y112.754 E60.31802
G1 X77.166 Y112.115 E60.38059
G1 X77.442 Y111.697 E60.42608
G1 X78.198 Y110.933 E60.52382
G1 X78.651 Y110.622 E60.57380
G1 X79.160 Y110.405 E60.62411
G1 X79.563 Y110.305 E60.66187
G1 X80.335 Y110.284 E60.73208
G1 X80.348 Y100.589 E61.61368
G1 X80.458 Y100.104 E61.65886
G1 X80.742 Y99.475 E61.72162
G1 X80.985 Y99.146 E61.75887
G1 X81.700 Y98.431 E61.85080
G1 X82.157 Y98.119 E61.90107
G1 X82.667 Y97.902 E61.95144
G1 X83.266 Y97.783 E62.00702
G1 X93.952 Y97.789 E62.97873
G1 X94.439 Y97.888 E63.02388
G1 X94.943 Y98.092 E63.07335
G1 X95.455 Y98.436 E63.12942
G1 X96.296 Y99.308 E63.23958
G1 X96.508 Y99.659 E63.27687
G1 X96.695 Y100.109 E63.32113
G1 X96.802 Y100.579 E63.36498
