; generated by Slic3r Prusa Edition 1.40.1+win64 on 2018-10-05 at 07:56:40

; 

; external perimeters extrusion width = 0.45mm
; perimeters extrusion width = 0.45mm
; infill extrusion width = 0.45mm
; solid infill extrusion width = 0.45mm
; top infill extrusion width = 0.40mm
; first layer extrusion width = 0.70mm

M107
M190 S60 ; set bed temperature and wait for it to be reached
M104 S210 ; set temperature
G28 ; home all axes
G1 Z5 F5000 ; lift nozzle
; Filament gcode
M109 S210 ; set temperature and wait for it to be reached
G21 ; set units to millimeters
G90 ; use absolute coordinates
M82 ; use absolute distances for extrusion
G92 E0
G1 E-4.00000 F2400.00000
G92 E0
G1 Z0.350 F4800.000
G1 Z0.650
G1 X54.323 Y98.072
G1 Z0.350
G1 E4.00000 F2400.00000
G1 F1800
G1 X55.383 Y96.707 E4.15718
G1 X56.494 Y95.773 E4.28918
G1 X57.763 Y95.068 E4.42118
G1 X59.143 Y94.618 E4.55318
G1 X60.591 Y94.440 E4.68579
G1 X142.722 Y94.438 E12.15391
G1 X144.140 Y94.573 E12.28345
G1 X145.507 Y94.972 E12.41299
G1 X146.776 Y95.621 E12.54253
G1 X147.900 Y96.495 E12.67206
G1 X148.841 Y97.566 E12.80160
G1 X149.564 Y98.793 E12.93114
G1 X150.044 Y100.134 E13.06067
G1 X150.263 Y101.542 E13.19021
G1 X150.275 Y178.197 E20.16042
G1 X150.105 Y179.605 E20.28934
G1 X149.678 Y180.950 E20.41765
G1 X149.009 Y182.192 E20.54596
G1 X148.116 Y183.293 E20.67488
G1 X146.966 Y184.254 E20.81118
G1 X145.649 Y184.970 E20.94748
G1 X144.216 Y185.412 E21.08378
G1 X142.725 Y185.562 E21.22008
G1 X60.595 Y185.560 E28.68814
G1 X59.194 Y185.393 E28.81644
G1 X57.842 Y184.966 E28.94537
G1 X56.593 Y184.294 E29.07429
G1 X55.492 Y183.401 E29.20321
G1 X54.882 Y182.726 E29.28594
G1 X54.353 Y181.977 E29.36929
G1 X53.919 Y181.170 E29.45263
G1 X53.588 Y180.322 E29.53536
G1 X49.967 Y167.408 E30.75496
G1 X49.785 Y166.468 E30.84201
G1 X49.723 Y165.506 E30.92967
G1 X49.748 Y113.882 E35.62378
G1 X49.985 Y112.526 E35.74901
G1 X53.600 Y99.643 E36.96571
G1 X54.298 Y98.127 E37.11744
G1 X54.860 Y98.392 F4800.000
G1 F1800
G1 X55.851 Y97.123 E37.26385
G1 X56.874 Y96.270 E37.38496
G1 X58.035 Y95.631 E37.50548
G1 X59.296 Y95.224 E37.62600
G1 X60.618 Y95.065 E37.74711
G1 X142.722 Y95.063 E45.21270
G1 X144.028 Y95.188 E45.33205
G1 X145.281 Y95.555 E45.45080
G1 X146.449 Y96.154 E45.57014
G1 X147.484 Y96.961 E45.68948
G1 X148.343 Y97.945 E45.80824
G1 X149.007 Y99.077 E45.92758
G1 X149.444 Y100.314 E46.04692
G1 X149.641 Y101.612 E46.16626
G1 X149.650 Y178.169 E53.12757
G1 X149.496 Y179.466 E53.24633
G1 X149.101 Y180.711 E53.36508
G1 X148.480 Y181.860 E53.48383
G1 X147.649 Y182.876 E53.60317
G1 X146.600 Y183.748 E53.72723
G1 X145.394 Y184.399 E53.85187
G1 X144.083 Y184.801 E53.97651
G1 X142.719 Y184.937 E54.10115
G1 X60.622 Y184.935 E61.56619
G1 X59.325 Y184.782 E61.68495
G1 X58.074 Y184.386 E61.80429
G1 X56.925 Y183.765 E61.92304
G1 X55.909 Y182.934 E62.04238
G1 X55.349 Y182.310 E62.11866
G1 X54.872 Y181.628 E62.19435
G1 X54.480 Y180.893 E62.27004
G1 X54.177 Y180.111 E62.34633
G1 X50.574 Y167.257 E63.56014
G1 X50.405 Y166.389 E63.64056
G1 X50.348 Y165.507 E63.72097
G1 X50.370 Y113.947 E68.40925
G1 X50.589 Y112.686 E68.52565
G1 X54.189 Y99.849 E69.73796
G1 X54.834 Y98.447 E69.87832
G1 X55.395 Y98.715 F4800.000
G1 F1800
G1 X56.312 Y97.546 E70.01347
G1 X57.238 Y96.778 E70.12280
G1 X58.298 Y96.198 E70.23269
G1 X59.449 Y95.830 E70.34258
G1 X60.650 Y95.689 E70.45247
G1 X142.721 Y95.688 E77.91521
G1 X143.912 Y95.802 E78.02397
G1 X145.060 Y96.139 E78.13274
G1 X146.123 Y96.687 E78.24151
G1 X147.064 Y97.425 E78.35028
G1 X147.849 Y98.328 E78.45904
G1 X148.450 Y99.362 E78.56781
G1 X148.844 Y100.491 E78.67658
G1 X149.019 Y101.675 E78.78535
G1 X149.026 Y178.143 E85.73857
G1 X148.886 Y179.331 E85.84733
G1 X148.524 Y180.471 E85.95610
G1 X147.953 Y181.522 E86.06487
G1 X147.191 Y182.452 E86.17420
G1 X146.234 Y183.240 E86.28690
G1 X145.137 Y183.829 E86.40016
G1 X143.951 Y184.190 E86.51286
G1 X142.715 Y184.312 E86.62582
G1 X60.648 Y184.311 E94.08809
G1 X59.454 Y184.171 E94.19742
G1 X58.314 Y183.809 E94.30619
G1 X57.263 Y183.238 E94.41496
G1 X56.333 Y182.476 E94.52429
G1 X55.394 Y181.284 E94.66223
G1 X54.766 Y179.903 E94.80018
G1 X51.180 Y167.106 E96.00862
G1 X51.025 Y166.315 E96.08195
G1 X50.973 Y165.504 E96.15583
G1 X50.992 Y114.004 E100.83871
G1 X51.194 Y112.844 E100.94579
G1 X54.778 Y100.060 E102.15301
G1 X55.370 Y98.769 E102.28214
G1 E98.28214 F2400.00000
G92 E0
G1 Z0.650 F4800.000
G1 X71.579 Y118.619
G1 Z0.350
G1 E4.00000 F2400.00000
G1 F1800
G1 X71.579 Y120.378 E4.15995
G1 X72.596 Y120.796 E4.25992
G1 X73.207 Y121.204 E4.32669
G1 X74.134 Y122.120 E4.44525
G1 X74.587 Y122.779 E4.51797
G1 X74.908 Y123.536 E4.59270
G1 X75.075 Y124.385 E4.67135
G1 X75.075 Y137.615 E5.87437
G1 X74.913 Y138.449 E5.95164
G1 X74.609 Y139.179 E6.02356
G1 X74.069 Y140.000 E6.11288
G1 X74.602 Y140.807 E6.20075
G1 X74.898 Y141.508 E6.26991
G1 X75.065 Y142.287 E6.34243
G1 X75.073 Y155.629 E7.55562
G1 X74.882 Y156.544 E7.64063
G1 X74.567 Y157.258 E7.71152
G1 X74.153 Y157.858 E7.77781
G1 X73.228 Y158.780 E7.89659
G1 X72.619 Y159.192 E7.96345
G1 X71.579 Y159.621 E8.06572
G1 X71.579 Y161.412 E8.22855
G1 X71.946 Y161.514 E8.26317
G1 X72.561 Y161.777 E8.32395
G1 X73.221 Y162.216 E8.39605
G1 X74.241 Y163.251 E8.52817
G1 X74.672 Y163.947 E8.60269
G1 X74.994 Y164.839 E8.68890
G1 X75.079 Y165.449 E8.74492
G1 X75.056 Y178.803 E9.95918
G1 X74.915 Y179.445 E10.01892
G1 X74.665 Y180.070 E10.08015
G1 X74.161 Y180.850 E10.16458
G1 X73.278 Y181.737 E10.27837
G1 X72.683 Y182.156 E10.34452
G1 X71.911 Y182.497 E10.42132
G1 X71.258 Y182.655 E10.48240
G1 X59.982 Y182.663 E11.50767
G1 X59.340 Y182.522 E11.56746
G1 X58.714 Y182.272 E11.62879
G1 X58.036 Y181.849 E11.70141
G1 X57.039 Y180.875 E11.82812
G1 X56.560 Y180.163 E11.90617
G1 X56.264 Y179.445 E11.97681
G1 X56.112 Y178.713 E12.04478
G1 X56.101 Y170.122 E12.82597
G1 X55.081 Y169.704 E12.92615
G1 X54.470 Y169.296 E12.99298
G1 X53.579 Y168.422 E13.10650
G1 X53.090 Y167.720 E13.18428
G1 X52.770 Y166.965 E13.25886
G1 X52.622 Y166.305 E13.32036
G1 X52.598 Y154.950 E14.35286
G1 X52.684 Y154.339 E14.40890
G1 X53.005 Y153.447 E14.49511
G1 X53.437 Y152.751 E14.56963
G1 X54.456 Y151.716 E14.70175
G1 X55.117 Y151.277 E14.77384
G1 X55.732 Y151.014 E14.83463
G1 X56.100 Y150.912 E14.86939
G1 X56.111 Y142.298 E15.65263
G1 X56.282 Y141.498 E15.72698
G1 X56.602 Y140.757 E15.80040
G1 X57.117 Y140.003 E15.88337
G1 X56.559 Y139.162 E15.97520
G1 X56.267 Y138.454 E16.04486
G1 X56.121 Y137.790 E16.10662
G1 X56.101 Y129.089 E16.89784
G1 X55.732 Y128.986 E16.93275
G1 X55.117 Y128.723 E16.99353
G1 X54.456 Y128.284 E17.06562
G1 X53.437 Y127.249 E17.19774
G1 X53.005 Y126.553 E17.27226
G1 X52.684 Y125.661 E17.35847
G1 X52.598 Y125.050 E17.41451
G1 X52.622 Y113.695 E18.44701
G1 X52.770 Y113.035 E18.50851
G1 X53.090 Y112.280 E18.58309
G1 X53.579 Y111.578 E18.66087
G1 X54.470 Y110.704 E18.77439
G1 X55.081 Y110.296 E18.84122
G1 X56.100 Y109.878 E18.94133
G1 X56.128 Y101.158 E19.73424
G1 X56.307 Y100.427 E19.80275
G1 X56.711 Y99.567 E19.88909
G1 X57.081 Y99.076 E19.94503
G1 X57.872 Y98.285 E20.04671
G1 X58.516 Y97.833 E20.11832
G1 X59.249 Y97.508 E20.19116
G1 X60.219 Y97.313 E20.28113
G1 X71.030 Y97.319 E21.26424
G1 X71.757 Y97.455 E21.33149
G1 X72.484 Y97.738 E21.40238
G1 X73.319 Y98.297 E21.49377
G1 X74.211 Y99.211 E21.60985
G1 X74.583 Y99.771 E21.67098
G1 X74.919 Y100.576 E21.75028
G1 X75.073 Y101.363 E21.82322
G1 X75.073 Y114.632 E23.02978
G1 X74.940 Y115.357 E23.09685
G1 X74.661 Y116.076 E23.16695
G1 X74.342 Y116.619 E23.22422
G1 X73.228 Y117.778 E23.37038
G1 X72.559 Y118.224 E23.44349
G1 X71.635 Y118.597 E23.53412
G1 X70.954 Y118.082 F4800.000
G1 F1800
G1 X70.954 Y120.918 E23.79203
G1 X71.656 Y121.077 E23.85749
G1 X72.322 Y121.359 E23.92319
G1 X72.832 Y121.704 E23.97920
G1 X73.639 Y122.502 E24.08245
G1 X74.025 Y123.054 E24.14369
G1 X74.320 Y123.750 E24.21236
G1 X74.450 Y124.415 E24.27398
G1 X74.450 Y137.585 E25.47157
G1 X74.323 Y138.242 E25.53239
G1 X74.067 Y138.867 E25.59376
G1 X73.728 Y139.391 E25.65053
G1 X73.133 Y140.000 E25.72795
G1 X73.728 Y140.608 E25.80532
G1 X74.061 Y141.122 E25.86096
G1 X74.310 Y141.721 E25.91996
G1 X74.441 Y142.321 E25.97584
G1 X74.448 Y155.597 E27.18302
G1 X74.296 Y156.326 E27.25071
G1 X74.033 Y156.933 E27.31086
G1 X73.689 Y157.439 E27.36647
G1 X72.848 Y158.282 E27.47478
G1 X72.342 Y158.631 E27.53068
G1 X71.665 Y158.920 E27.59764
G1 X70.954 Y159.082 E27.66388
G1 X70.954 Y161.903 E27.92037
G1 X71.726 Y162.100 E27.99277
G1 X72.287 Y162.340 E28.04827
G1 X72.844 Y162.715 E28.10935
G1 X73.769 Y163.662 E28.22971
G1 X74.097 Y164.193 E28.28651
G1 X74.380 Y164.963 E28.36110
G1 X74.454 Y165.472 E28.40788
G1 X74.438 Y178.706 E29.61122
G1 X74.324 Y179.239 E29.66073
G1 X74.095 Y179.810 E29.71672
G1 X73.693 Y180.435 E29.78425
G1 X72.891 Y181.246 E29.88796
G1 X72.397 Y181.599 E29.94320
G1 X71.727 Y181.899 E30.00998
G1 X71.216 Y182.030 E30.05799
G1 X60.079 Y182.045 E31.07063
G1 X59.546 Y181.932 E31.12015
G1 X58.973 Y181.702 E31.17628
G1 X58.400 Y181.340 E31.23799
G1 X57.501 Y180.453 E31.35279
G1 X57.124 Y179.893 E31.41420
G1 X56.868 Y179.282 E31.47440
G1 X56.737 Y178.678 E31.53064
G1 X56.725 Y169.582 E32.35771
G1 X56.021 Y169.423 E32.42332
G1 X55.356 Y169.141 E32.48903
G1 X54.846 Y168.796 E32.54503
G1 X54.038 Y167.998 E32.64828
G1 X53.652 Y167.446 E32.70952
G1 X53.357 Y166.749 E32.77832
G1 X53.240 Y166.206 E32.82882
G1 X53.223 Y154.972 E33.85031
G1 X53.297 Y154.463 E33.89709
G1 X53.581 Y153.693 E33.97168
G1 X53.908 Y153.162 E34.02848
G1 X54.833 Y152.215 E34.14884
G1 X55.390 Y151.840 E34.20992
G1 X55.952 Y151.600 E34.26542
G1 X56.724 Y151.403 E34.33790
G1 X56.736 Y142.332 E35.16271
G1 X56.868 Y141.718 E35.21981
G1 X57.163 Y141.034 E35.28748
G1 X57.508 Y140.538 E35.34245
G1 X58.044 Y139.998 E35.41168
G1 X57.504 Y139.457 E35.48116
G1 X57.123 Y138.890 E35.54332
G1 X56.869 Y138.285 E35.60303
G1 X56.745 Y137.752 E35.65273
G1 X56.725 Y128.598 E36.48512
G1 X55.952 Y128.400 E36.55770
G1 X55.390 Y128.160 E36.61320
G1 X54.833 Y127.785 E36.67429
G1 X53.908 Y126.838 E36.79464
G1 X53.581 Y126.307 E36.85144
G1 X53.297 Y125.537 E36.92603
G1 X53.223 Y125.028 E36.97281
G1 X53.240 Y113.794 E37.99431
G1 X53.357 Y113.251 E38.04480
G1 X53.652 Y112.554 E38.11360
G1 X54.038 Y112.002 E38.17484
G1 X54.846 Y111.204 E38.27809
G1 X55.356 Y110.859 E38.33409
G1 X56.021 Y110.577 E38.39980
G1 X56.724 Y110.418 E38.46532
G1 X56.744 Y101.266 E39.29753
G1 X56.888 Y100.658 E39.35433
G1 X57.232 Y99.913 E39.42893
G1 X57.540 Y99.501 E39.47568
G1 X58.293 Y98.748 E39.57260
G1 X58.845 Y98.365 E39.63371
G1 X59.466 Y98.094 E39.69526
G1 X60.249 Y97.938 E39.76786
G1 X70.999 Y97.944 E40.74535
G1 X71.608 Y98.063 E40.80174
G1 X72.222 Y98.306 E40.86180
G1 X72.894 Y98.757 E40.93541
G1 X73.741 Y99.625 E41.04568
G1 X74.043 Y100.088 E41.09596
G1 X74.314 Y100.731 E41.15941
G1 X74.448 Y101.395 E41.22102
G1 X74.448 Y114.601 E42.42185
G1 X74.332 Y115.209 E42.47812
G1 X74.090 Y115.821 E42.53798
G1 X73.825 Y116.267 E42.58513
G1 X72.804 Y117.318 E42.71835
G1 X72.289 Y117.659 E42.77454
G1 X71.666 Y117.920 E42.83598
G1 X71.013 Y118.069 E42.89688
G1 X70.329 Y117.438 F4800.000
G1 F1800
G1 X70.329 Y121.562 E43.27192
G1 X71.024 Y121.575 E43.33509
G1 X71.446 Y121.666 E43.37435
G1 X72.003 Y121.897 E43.42921
G1 X72.415 Y122.170 E43.47414
G1 X73.180 Y122.927 E43.57203
G1 X73.463 Y123.329 E43.61668
G1 X73.731 Y123.963 E43.67930
G1 X73.825 Y124.444 E43.72388
G1 X73.825 Y137.556 E44.91608
G1 X73.733 Y138.034 E44.96037
G1 X73.501 Y138.601 E45.01603
G1 X73.226 Y139.019 E45.06155
G1 X72.245 Y140.000 E45.18770
G1 X73.226 Y140.981 E45.31385
G1 X73.498 Y141.394 E45.35880
G1 X73.708 Y141.890 E45.40780
G1 X73.816 Y142.359 E45.45152
G1 X73.823 Y155.565 E46.65238
G1 X73.710 Y156.106 E46.70266
G1 X73.471 Y156.657 E46.75728
G1 X73.226 Y157.018 E46.79696
G1 X72.428 Y157.819 E46.89974
G1 X72.020 Y158.095 E46.94452
G1 X71.453 Y158.332 E47.00043
G1 X71.024 Y158.425 E47.04032
G1 X70.329 Y158.438 E47.10347
G1 X70.329 Y162.564 E47.47870
G1 X71.101 Y162.585 E47.54892
G1 X71.504 Y162.685 E47.58668
G1 X72.015 Y162.903 E47.63713
G1 X72.422 Y163.177 E47.68179
G1 X73.260 Y164.025 E47.79019
G1 X73.525 Y164.446 E47.83537
G1 X73.768 Y165.092 E47.89814
G1 X73.829 Y165.497 E47.93539
G1 X73.819 Y178.613 E49.12806
G1 X73.733 Y179.034 E49.16710
G1 X73.526 Y179.551 E49.21775
G1 X73.226 Y180.019 E49.26832
G1 X72.467 Y180.786 E49.36642
G1 X72.065 Y181.069 E49.41113
G1 X71.503 Y181.316 E49.46695
G1 X71.103 Y181.415 E49.50441
G1 X60.172 Y181.427 E50.49838
G1 X59.751 Y181.341 E50.53741
G1 X59.234 Y181.134 E50.58806
G1 X58.767 Y180.833 E50.63856
G1 X57.964 Y180.033 E50.74167
G1 X57.688 Y179.623 E50.78657
G1 X57.455 Y179.066 E50.84147
G1 X57.362 Y178.643 E50.88091
G1 X57.349 Y168.938 E51.76338
G1 X56.654 Y168.925 E51.82662
G1 X56.231 Y168.834 E51.86588
G1 X55.674 Y168.603 E51.92074
G1 X55.263 Y168.330 E51.96567
G1 X54.497 Y167.573 E52.06356
G1 X54.215 Y167.171 E52.10821
G1 X53.945 Y166.535 E52.17099
G1 X53.858 Y166.113 E52.21021
G1 X53.848 Y154.997 E53.22101
G1 X53.910 Y154.592 E53.25826
G1 X54.153 Y153.946 E53.32102
G1 X54.418 Y153.525 E53.36620
G1 X55.255 Y152.677 E53.47461
G1 X55.663 Y152.403 E53.51926
G1 X56.173 Y152.185 E53.56972
G1 X56.576 Y152.085 E53.60748
G1 X57.348 Y152.064 E53.67769
G1 X57.361 Y142.369 E54.55930
G1 X57.470 Y141.887 E54.60417
G1 X57.721 Y141.317 E54.66080
G1 X58.000 Y140.925 E54.70461
G1 X58.941 Y139.994 E54.82497
G1 X58.000 Y139.076 E54.94449
G1 X57.684 Y138.615 E54.99533
G1 X57.468 Y138.107 E55.04548
G1 X57.370 Y137.711 E55.08263
G1 X57.349 Y127.936 E55.97147
G1 X56.576 Y127.915 E56.04174
G1 X56.173 Y127.815 E56.07949
G1 X55.663 Y127.597 E56.12995
G1 X55.255 Y127.323 E56.17460
G1 X54.418 Y126.475 E56.28301
G1 X54.153 Y126.054 E56.32819
G1 X53.910 Y125.408 E56.39096
G1 X53.848 Y125.003 E56.42820
G1 X53.858 Y113.887 E57.43901
G1 X53.945 Y113.465 E57.47822
G1 X54.215 Y112.829 E57.54100
G1 X54.497 Y112.427 E57.58565
G1 X55.263 Y111.670 E57.68354
G1 X55.674 Y111.397 E57.72847
G1 X56.231 Y111.166 E57.78333
G1 X56.654 Y111.075 E57.82259
G1 X57.348 Y111.062 E57.88576
G1 X57.361 Y101.369 E58.76717
G1 X57.471 Y100.884 E58.81235
G1 X57.756 Y100.256 E58.87511
G1 X57.999 Y99.926 E58.91236
G1 X58.714 Y99.211 E59.00429
G1 X59.170 Y98.899 E59.05456
G1 X59.680 Y98.682 E59.10493
G1 X60.279 Y98.563 E59.16051
G1 X70.966 Y98.569 E60.13222
G1 X71.452 Y98.668 E60.17737
G1 X71.957 Y98.872 E60.22684
G1 X72.470 Y99.216 E60.28300
G1 X73.270 Y100.037 E60.38724
G1 X73.500 Y100.398 E60.42618
G1 X73.724 Y100.941 E60.47959
G1 X73.823 Y101.427 E60.52467
G1 X73.823 Y114.569 E61.71968
G1 X73.726 Y115.055 E61.76478
G1 X73.521 Y115.562 E61.81449
G1 X73.310 Y115.911 E61.85159
G1 X72.383 Y116.856 E61.97196
G1 X72.021 Y117.094 E62.01130
G1 X71.453 Y117.332 E62.06737
G1 X71.024 Y117.425 E62.10726
G1 X70.389 Y117.437 E62.16496
G1 X69.704 Y116.811 F4800.000
G1 F1800
G1 X69.704 Y122.189 E62.65402
G1 X70.933 Y122.194 E62.76574
G1 X71.241 Y122.257 E62.79433
G1 X71.691 Y122.439 E62.83849
G1 X72.000 Y122.639 E62.87188
G1 X72.719 Y123.350 E62.96387
G1 X72.928 Y123.654 E62.99738
G1 X73.142 Y124.171 E63.04827
G1 X73.200 Y124.474 E63.07635
G1 X73.200 Y137.526 E64.26315
G1 X73.141 Y137.831 E64.29139
G1 X72.957 Y138.292 E64.33651
G1 X72.758 Y138.602 E64.37004
G1 X72.000 Y139.361 E64.46762
G1 X71.690 Y139.562 E64.50114
G1 X70.633 Y140.000 E64.60525
G1 X71.690 Y140.438 E64.70936
G1 X72.000 Y140.639 E64.74287
G1 X72.758 Y141.398 E64.84048
G1 X72.956 Y141.705 E64.87367
G1 X73.122 Y142.106 E64.91314
G1 X73.191 Y142.397 E64.94034
G1 X73.204 Y155.475 E66.12953
G1 X73.121 Y155.895 E66.16840
G1 X72.932 Y156.340 E66.21236
G1 X72.760 Y156.601 E66.24083
G1 X72.006 Y157.357 E66.33787
G1 X71.750 Y157.530 E66.36605
G1 X71.241 Y157.743 E66.41617
G1 X70.933 Y157.806 E66.44475
G1 X69.704 Y157.811 E66.55648
G1 X69.704 Y163.187 E67.04533
G1 X70.994 Y163.201 E67.16263
G1 X71.285 Y163.270 E67.18977
G1 X71.739 Y163.464 E67.23468
G1 X72.042 Y163.673 E67.26819
G1 X72.754 Y164.393 E67.36017
G1 X72.955 Y164.704 E67.39386
G1 X73.157 Y165.226 E67.44473
G1 X73.204 Y165.523 E67.47208
G1 X73.200 Y178.526 E68.65447
G1 X73.141 Y178.831 E68.68270
G1 X72.957 Y179.292 E68.72783
