; generated by Slic3r Prusa Edition 1.40.1+win64 on 2018-10-07 at 10:17:57

; 

; external perimeters extrusion width = 0.45mm
; perimeters extrusion width = 0.45mm
; infill extrusion width = 0.45mm
; solid infill extrusion width = 0.45mm
; top infill extrusion width = 0.40mm
; first layer extrusion width = 0.70mm

M107
M190 S60 ; set bed temperature and wait for it to be reached
M104 S210 ; set temperature
G28 ; home all axes
G1 Z5 F5000 ; lift nozzle
; Filament gcode
M109 S210 ; set temperature and wait for it to be reached
G21 ; set units to millimeters
G90 ; use absolute coordinates
M82 ; use absolute distances for extrusion
G92 E0
G1 E-4.00000 F2400.00000
G92 E0
G1 Z0.350 F4800.000
G1 Z0.650
G1 X54.323 Y98.072
G1 Z0.350
G1 E4.00000 F2400.00000
G1 F1800
G1 X55.383 Y96.707 E4.15718
G1 X56.494 Y95.773 E4.28918
G1 X57.763 Y95.068 E4.42118
G1 X59.143 Y94.618 E4.55318
G1 X60.591 Y94.440 E4.68579
G1 X142.722 Y94.438 E12.15391
G1 X144.140 Y94.573 E12.28345
G1 X145.507 Y94.972 E12.41299
G1 X146.776 Y95.621 E12.54253
G1 X147.900 Y96.495 E12.67206
G1 X148.841 Y97.566 E12.80160
G1 X149.564 Y98.793 E12.93114
G1 X150.044 Y100.134 E13.06067
G1 X150.263 Y101.542 E13.19021
G1 X150.275 Y178.197 E20.16042
G1 X150.105 Y179.605 E20.28934
G1 X149.678 Y180.950 E20.41765
G1 X149.009 Y182.192 E20.54596
G1 X148.116 Y183.293 E20.67488
G1 X146.966 Y184.254 E20.81118
G1 X145.649 Y184.970 E20.94748
G1 X144.216 Y185.412 E21.08378
G1 X142.725 Y185.562 E21.22008
G1 X60.595 Y185.560 E28.68814
G1 X59.194 Y185.393 E28.81644
G1 X57.842 Y184.966 E28.94537
G1 X56.593 Y184.294 E29.07429
G1 X55.492 Y183.401 E29.20321
G1 X54.882 Y182.726 E29.28594
G1 X54.353 Y181.977 E29.36929
G1 X53.919 Y181.170 E29.45263
G1 X53.588 Y180.322 E29.53536
G1 X49.967 Y167.408 E30.75496
G1 X49.785 Y166.468 E30.84201
G1 X49.723 Y165.506 E30.92967
G1 X49.748 Y113.882 E35.62378
G1 X49.985 Y112.526 E35.74901
G1 X53.600 Y99.643 E36.96571
G1 X54.298 Y98.127 E37.11744
G1 X54.860 Y98.392 F4800.000
G1 F1800
G1 X55.851 Y97.123 E37.26385
G1 X56.874 Y96.270 E37.38496
G1 X58.035 Y95.631 E37.50548
G1 X59.296 Y95.224 E37.62600
G1 X60.618 Y95.065 E37.74711
G1 X142.722 Y95.063 E45.21270
G1 X144.028 Y95.188 E45.33205
G1 X145.281 Y95.555 E45.45080
G1 X146.449 Y96.154 E45.57014
G1 X147.484 Y96.961 E45.68948
G1 X148.343 Y97.945 E45.80824
G1 X149.007 Y99.077 E45.92758
G1 X149.444 Y100.314 E46.04692
G1 X149.641 Y101.612 E46.16626
G1 X149.650 Y178.169 E53.12757
G1 X149.496 Y179.466 E53.24633
G1 X149.101 Y180.711 E53.36508
G1 X148.480 Y181.860 E53.48383
G1 X147.649 Y182.876 E53.60317
G1 X146.600 Y183.748 E53.72723
G1 X145.394 Y184.399 E53.85187
G1 X144.083 Y184.801 E53.97651
G1 X142.719 Y184.937 E54.10115
G1 X60.622 Y184.935 E61.56619
G1 X59.325 Y184.782 E61.68495
G1 X58.074 Y184.386 E61.80429
G1 X56.925 Y183.765 E61.92304
G1 X55.909 Y182.934 E62.04238
G1 X55.349 Y182.310 E62.11866
G1 X54.872 Y181.628 E62.19435
G1 X54.480 Y180.893 E62.27004
G1 X54.177 Y180.111 E62.34633
G1 X50.574 Y167.257 E63.56014
G1 X50.405 Y166.389 E63.64056
G1 X50.348 Y165.507 E63.72097
G1 X50.370 Y113.947 E68.40925
G1 X50.589 Y112.686 E68.52565
G1 X54.189 Y99.849 E69.73796
G1 X54.834 Y98.447 E69.87832
G1 X55.395 Y98.715 F4800.000
G1 F1800
G1 X56.312 Y97.546 E70.01347
G1 X57.238 Y96.778 E70.12280
G1 X58.298 Y96.198 E70.23269
G1 X59.449 Y95.830 E70.34258
G1 X60.650 Y95.689 E70.45247
G1 X142.721 Y95.688 E77.91521
G1 X143.912 Y95.802 E78.02397
G1 X145.060 Y96.139 E78.13274
G1 X146.123 Y96.687 E78.24151
G1 X147.064 Y97.425 E78.35028
G1 X147.849 Y98.328 E78.45904
G1 X148.450 Y99.362 E78.56781
G1 X148.844 Y100.491 E78.67658
G1 X149.019 Y101.675 E78.78535
G1 X149.026 Y178.143 E85.73857
G1 X148.886 Y179.331 E85.84733
G1 X148.524 Y180.471 E85.95610
G1 X147.953 Y181.522 E86.06487
G1 X147.191 Y182.452 E86.17420
G1 X146.234 Y183.240 E86.28690
G1 X145.137 Y183.829 E86.40016
G1 X143.951 Y184.190 E86.51286
G1 X142.715 Y184.312 E86.62582
G1 X60.648 Y184.311 E94.08809
G1 X59.454 Y184.171 E94.19742
G1 X58.314 Y183.809 E94.30619
G1 X57.263 Y183.238 E94.41496
G1 X56.333 Y182.476 E94.52429
G1 X55.394 Y181.284 E94.66223
G1 X54.766 Y179.903 E94.80018
G1 X51.180 Y167.106 E96.00862
G1 X51.025 Y166.315 E96.08195
G1 X50.973 Y165.504 E96.15583
G1 X50.992 Y114.004 E100.83871
G1 X51.194 Y112.844 E100.94579
G1 X54.778 Y100.060 E102.15301
G1 X55.370 Y98.769 E102.28214
G1 E98.28214 F2400.00000
G92 E0
G1 Z0.650 F4800.000
G1 X92.900 Y176.400
G1 Z0.350
G1 E4.00000 F2400.00000
G1 F1800
G1 X86.492 Y176.400 E4.58267
G1 X86.492 Y163.900 E5.71929
G1 X82.992 Y163.900 E6.03755
G1 X82.992 Y157.100 E6.65591
G1 X86.492 Y157.100 E6.97416
G1 X86.492 Y144.600 E8.11078
G1 X92.900 Y144.600 E8.69345
G1 X92.900 Y153.400 E9.49367
G1 X89.400 Y153.400 E9.81193
G1 X89.400 Y167.600 E11.10309
G1 X92.900 Y167.600 E11.42134
G1 X92.900 Y176.340 E12.21610
G1 E8.21610 F2400.00000
G92 E0
G1 Z0.650 F4800.000
G1 X93.500 Y177.000
G1 X89.696 Y173.196
G1 X89.696 Y170.792
G1 X87.946 Y167.000
G1 X87.946 Y164.500
G1 X86.196 Y160.708
G1 X86.196 Y160.292
G1 X87.946 Y156.500
G1 X87.946 Y154.000
G1 X90.025 Y154.025
G1 Z0.350
G1 E4.00000 F2400.00000
G1 F1800
G1 X90.025 Y166.975 E5.17752
G1 X93.525 Y166.975 E5.49577
G1 X93.525 Y177.025 E6.40963
G1 X85.867 Y177.025 E7.10595
G1 X85.867 Y164.525 E8.24257
G1 X82.367 Y164.525 E8.56082
G1 X82.367 Y156.475 E9.29282
G1 X85.867 Y156.475 E9.61108
G1 X85.867 Y143.975 E10.74770
G1 X93.525 Y143.975 E11.44401
G1 X93.525 Y154.025 E12.35787
G1 X90.085 Y154.025 E12.67067
G1 X90.650 Y154.650 F4800.000
G1 F1800
G1 X90.650 Y166.350 E13.73455
G1 X94.150 Y166.350 E14.05280
G1 X94.150 Y177.650 E15.08031
G1 X85.242 Y177.650 E15.89026
G1 X85.242 Y165.150 E17.02688
G1 X81.742 Y165.150 E17.34513
G1 X81.742 Y155.850 E18.19078
G1 X85.242 Y155.850 E18.50903
G1 X85.242 Y143.350 E19.64565
G1 X94.150 Y143.350 E20.45561
G1 X94.150 Y154.650 E21.48311
G1 X90.710 Y154.650 E21.79591
G1 X90.285 Y154.814 F4800.000
G1 E17.79591 F2400.00000
G92 E0
G1 Z0.650 F4800.000
G1 X92.713 Y146.067
G1 Z0.350
G1 E4.00000 F2400.00000
G1 F1800
G1 X91.714 Y145.068 E4.13004
G1 X90.819 Y145.068 E4.21243
G1 X92.432 Y146.681 E4.42237
G1 X92.432 Y147.576 E4.50476
G1 X89.924 Y145.068 E4.83122
G1 X89.030 Y145.068 E4.91361
G1 X92.432 Y148.470 E5.35659
G1 X92.432 Y149.365 E5.43898
G1 X88.135 Y145.068 E5.99848
G1 X87.240 Y145.068 E6.08087
G1 X92.432 Y150.260 E6.75689
G1 X92.432 Y151.155 E6.83929
G1 X86.961 Y145.684 E7.55163
G1 X86.961 Y146.579 E7.63402
G1 X92.432 Y152.050 E8.34637
G1 X92.432 Y152.932 E8.42755
G1 X86.961 Y147.474 E9.13905
G1 X86.961 Y148.369 E9.22144
G1 X91.524 Y152.932 E9.81556
G1 X90.629 Y152.932 E9.89795
G1 X86.961 Y149.264 E10.37556
G1 X86.961 Y150.159 E10.45795
G1 X89.734 Y152.932 E10.81903
G1 X88.932 Y152.932 E10.89291
G1 X88.932 Y153.024 E10.90142
G1 X86.961 Y151.053 E11.15803
G1 X86.961 Y151.948 E11.24042
G1 X88.932 Y153.919 E11.49702
G1 X88.932 Y154.814 E11.57941
G1 X86.961 Y152.843 E11.83601
G1 X86.961 Y153.738 E11.91841
G1 X88.932 Y155.709 E12.17501
G1 X88.932 Y156.603 E12.25740
G1 X86.961 Y154.633 E12.51400
G1 X86.961 Y155.528 E12.59639
G1 X88.932 Y157.498 E12.85300
G1 X88.932 Y158.393 E12.93539
G1 X86.961 Y156.422 E13.19199
G1 X86.961 Y157.317 E13.27438
G1 X88.932 Y159.288 E13.53098
G1 X88.932 Y160.183 E13.61338
G1 X86.317 Y157.568 E13.95380
G1 X85.422 Y157.568 E14.03619
G1 X88.932 Y161.078 E14.49313
G1 X88.932 Y161.972 E14.57553
G1 X84.528 Y157.568 E15.14899
G1 X83.633 Y157.568 E15.23138
G1 X88.932 Y162.867 E15.92136
G1 X88.932 Y163.762 E16.00376
G1 X83.461 Y158.292 E16.71610
G1 X83.461 Y159.186 E16.79849
G1 X88.932 Y164.657 E17.51083
G1 X88.932 Y165.552 E17.59323
G1 X83.461 Y160.081 E18.30557
G1 X83.461 Y160.976 E18.38796
G1 X85.916 Y163.432 E18.70770
G1 X85.022 Y163.432 E18.79009
G1 X83.461 Y161.871 E18.99331
G1 X83.461 Y162.766 E19.07570
G1 X84.408 Y163.713 E19.19901
G1 E15.19901 F2400.00000
G92 E0
G1 Z0.650 F4800.000
G1 X86.680 Y164.195
G1 Z0.350
G1 E4.00000 F2400.00000
G1 F1800
G1 X88.932 Y166.447 E4.29322
G1 X88.932 Y167.342 E4.37561
G1 X86.961 Y165.371 E4.63221
G1 X86.961 Y166.266 E4.71460
G1 X92.432 Y171.736 E5.42695
G1 X92.432 Y170.842 E5.50934
G1 X89.658 Y168.068 E5.87044
G1 X90.553 Y168.068 E5.95283
G1 X92.432 Y169.947 E6.19741
G1 X92.432 Y169.052 E6.27980
G1 X91.448 Y168.068 E6.40786
G1 X92.343 Y168.068 E6.49025
G1 X92.713 Y168.438 E6.53840
G1 E2.53840 F2400.00000
G92 E0
G1 Z0.650 F4800.000
G1 X92.713 Y172.912
G1 Z0.350
G1 E4.00000 F2400.00000
G1 F1800
G1 X86.961 Y167.161 E4.74896
G1 X86.961 Y168.055 E4.83135
G1 X92.432 Y173.526 E5.54370
G1 X92.432 Y174.421 E5.62609
G1 X86.961 Y168.950 E6.33843
G1 X86.961 Y169.845 E6.42082
G1 X92.432 Y175.316 E7.13317
G1 X92.432 Y175.932 E7.18986
G1 X92.152 Y175.932 E7.21556
G1 X86.961 Y170.740 E7.89156
G1 X86.961 Y171.635 E7.97396
G1 X91.258 Y175.932 E8.53344
G1 X90.363 Y175.932 E8.61583
G1 X86.961 Y172.530 E9.05880
G1 X86.961 Y173.425 E9.14119
G1 X89.468 Y175.932 E9.46764
G1 X88.573 Y175.932 E9.55003
G1 X86.961 Y174.319 E9.75995
G1 X86.961 Y175.214 E9.84235
G1 X87.959 Y176.213 E9.97237
G1 E5.97237 F2400.00000
G92 E0
G1 Z0.650 F4800.000
G1 X113.508 Y153.400
G1 Z0.350
G1 E4.00000 F2400.00000
G1 F1800
G1 X113.508 Y167.600 E5.29116
G1 X117.008 Y167.600 E5.60941
G1 X117.008 Y176.400 E6.40963
G1 X110.600 Y176.400 E6.99231
G1 X110.600 Y163.900 E8.12893
G1 X107.100 Y163.900 E8.44718
G1 X107.100 Y157.100 E9.06554
G1 X110.600 Y157.100 E9.38379
G1 X110.600 Y144.600 E10.52041
G1 X117.008 Y144.600 E11.10309
G1 X117.008 Y153.400 E11.90331
G1 X113.568 Y153.400 E12.21610
G1 X114.133 Y154.025 F4800.000
G1 F1800
G1 X114.133 Y166.975 E13.39362
G1 X117.633 Y166.975 E13.71188
G1 X117.633 Y177.025 E14.62574
G1 X109.975 Y177.025 E15.32205
G1 X109.975 Y164.525 E16.45867
G1 X106.475 Y164.525 E16.77693
G1 X106.475 Y156.475 E17.50893
G1 X109.975 Y156.475 E17.82718
G1 X109.975 Y143.975 E18.96380
G1 X117.633 Y143.975 E19.66012
G1 X117.633 Y154.025 E20.57398
G1 X114.193 Y154.025 E20.88678
G1 X114.757 Y154.650 F4800.000
G1 F1800
G1 X114.757 Y166.350 E21.95065
G1 X118.257 Y166.350 E22.26891
G1 X118.257 Y177.650 E23.29641
G1 X109.350 Y177.650 E24.10636
G1 X109.350 Y165.150 E25.24298
G1 X105.850 Y165.150 E25.56124
G1 X105.850 Y155.850 E26.40688
G1 X109.350 Y155.850 E26.72514
G1 X109.350 Y143.350 E27.86176
G1 X118.257 Y143.350 E28.67171
G1 X118.257 Y154.650 E29.69922
G1 X114.818 Y154.650 E30.01201
G1 X114.393 Y154.814 F4800.000
G1 E26.01201 F2400.00000
G92 E0
G1 Z0.650 F4800.000
G1 X116.820 Y146.067
G1 Z0.350
G1 E4.00000 F2400.00000
G1 F1800
G1 X115.822 Y145.068 E4.13004
G1 X114.927 Y145.068 E4.21243
G1 X116.539 Y146.681 E4.42237
G1 X116.539 Y147.576 E4.50476
G1 X114.032 Y145.068 E4.83122
G1 X113.137 Y145.068 E4.91361
G1 X116.539 Y148.470 E5.35659
G1 X116.539 Y149.365 E5.43898
G1 X112.242 Y145.068 E5.99848
G1 X111.347 Y145.068 E6.08087
G1 X116.539 Y150.260 E6.75689
G1 X116.539 Y151.155 E6.83929
G1 X111.068 Y145.684 E7.55163
G1 X111.068 Y146.579 E7.63402
G1 X116.539 Y152.050 E8.34637
G1 X116.539 Y152.932 E8.42755
G1 X111.068 Y147.474 E9.13905
G1 X111.068 Y148.369 E9.22144
G1 X115.631 Y152.932 E9.81556
G1 X114.736 Y152.932 E9.89795
G1 X111.068 Y149.264 E10.37556
G1 X111.068 Y150.159 E10.45795
G1 X113.841 Y152.932 E10.81903
G1 X113.039 Y152.932 E10.89291
G1 X113.039 Y153.024 E10.90142
G1 X111.068 Y151.053 E11.15803
G1 X111.068 Y151.948 E11.24042
G1 X113.039 Y153.919 E11.49702
G1 X113.039 Y154.814 E11.57941
G1 X111.068 Y152.843 E11.83601
G1 X111.068 Y153.738 E11.91841
G1 X113.039 Y155.709 E12.17501
G1 X113.039 Y156.603 E12.25740
G1 X111.068 Y154.633 E12.51400
G1 X111.068 Y155.528 E12.59639
G1 X113.039 Y157.498 E12.85300
G1 X113.039 Y158.393 E12.93539
G1 X111.068 Y156.422 E13.19199
G1 X111.068 Y157.317 E13.27438
G1 X113.039 Y159.288 E13.53098
G1 X113.039 Y160.183 E13.61338
G1 X110.425 Y157.568 E13.95380
G1 X109.530 Y157.568 E14.03619
G1 X113.039 Y161.078 E14.49313
G1 X113.039 Y161.972 E14.57553
G1 X108.635 Y157.568 E15.14899
G1 X107.740 Y157.568 E15.23138
G1 X113.039 Y162.867 E15.92136
G1 X113.039 Y163.762 E16.00376
G1 X107.568 Y158.292 E16.71610
G1 X107.568 Y159.186 E16.79849
G1 X113.039 Y164.657 E17.51083
G1 X113.039 Y165.552 E17.59323
G1 X107.568 Y160.081 E18.30557
G1 X107.568 Y160.976 E18.38796
G1 X110.024 Y163.432 E18.70770
G1 X109.129 Y163.432 E18.79009
G1 X107.568 Y161.871 E18.99331
G1 X107.568 Y162.766 E19.07570
G1 X108.515 Y163.713 E19.19901
G1 E15.19901 F2400.00000
G92 E0
G1 Z0.650 F4800.000
G1 X110.787 Y164.195
G1 Z0.350
G1 E4.00000 F2400.00000
G1 F1800
G1 X113.039 Y166.447 E4.29322
G1 X113.039 Y167.342 E4.37561
G1 X111.068 Y165.371 E4.63221
G1 X111.068 Y166.266 E4.71460
G1 X116.539 Y171.736 E5.42695
G1 X116.539 Y170.842 E5.50934
G1 X113.766 Y168.068 E5.87044
G1 X114.661 Y168.068 E5.95283
G1 X116.539 Y169.947 E6.19741
G1 X116.539 Y169.052 E6.27980
G1 X115.556 Y168.068 E6.40786
G1 X116.450 Y168.068 E6.49025
G1 X116.820 Y168.438 E6.53840
G1 E2.53840 F2400.00000
G92 E0
G1 Z0.650 F4800.000
G1 X116.820 Y172.912
G1 Z0.350
G1 E4.00000 F2400.00000
G1 F1800
G1 X111.068 Y167.161 E4.74896
G1 X111.068 Y168.055 E4.83135
G1 X116.539 Y173.526 E5.54370
G1 X116.539 Y174.421 E5.62609
G1 X111.068 Y168.950 E6.33843
G1 X111.068 Y169.845 E6.42082
G1 X116.539 Y175.316 E7.13317
G1 X116.539 Y175.932 E7.18986
G1 X116.260 Y175.932 E7.21556
G1 X111.068 Y170.740 E7.89156
G1 X111.068 Y171.635 E7.97396
G1 X115.365 Y175.932 E8.53344
G1 X114.470 Y175.932 E8.61583
G1 X111.068 Y172.530 E9.05880
G1 X111.068 Y173.425 E9.14119
G1 X113.575 Y175.932 E9.46764
G1 X112.681 Y175.932 E9.55003
G1 X111.068 Y174.319 E9.75995
G1 X111.068 Y175.214 E9.84235
G1 X112.067 Y176.213 E9.97237
G1 E5.97237 F2400.00000
G92 E0
G1 Z0.650 F4800.000
G1 X137.615 Y153.400
G1 Z0.350
G1 E4.00000 F2400.00000
G1 F1800
G1 X137.615 Y167.600 E5.29116
G1 X141.115 Y167.600 E5.60941
G1 X141.115 Y176.400 E6.40963
G1 X134.707 Y176.400 E6.99231
G1 X134.707 Y163.900 E8.12893
G1 X131.207 Y163.900 E8.44718
G1 X131.207 Y157.100 E9.06554
G1 X134.707 Y157.100 E9.38379
G1 X134.707 Y144.600 E10.52041
G1 X141.115 Y144.600 E11.10309
G1 X141.115 Y153.400 E11.90331
G1 X137.675 Y153.400 E12.21610
G1 X138.240 Y154.025 F4800.000
G1 F1800
G1 X138.240 Y166.975 E13.39362
G1 X141.740 Y166.975 E13.71188
G1 X141.740 Y177.025 E14.62574
G1 X134.082 Y177.025 E15.32205
G1 X134.082 Y164.525 E16.45867
G1 X130.582 Y164.525 E16.77693
G1 X130.582 Y156.475 E17.50893
G1 X134.082 Y156.475 E17.82718
G1 X134.082 Y143.975 E18.96380
G1 X141.740 Y143.975 E19.66012
G1 X141.740 Y154.025 E20.57398
G1 X138.300 Y154.025 E20.88678
G1 X138.865 Y154.650 F4800.000
G1 F1800
G1 X138.865 Y166.350 E21.95065
G1 X142.365 Y166.350 E22.26891
G1 X142.365 Y177.650 E23.29641
G1 X133.457 Y177.650 E24.10636
G1 X133.457 Y165.150 E25.24298
G1 X129.957 Y165.150 E25.56124
G1 X129.957 Y155.850 E26.40688
G1 X133.457 Y155.850 E26.72514
G1 X133.457 Y143.350 E27.86176
G1 X142.365 Y143.350 E28.67171
G1 X142.365 Y154.650 E29.69922
G1 X138.925 Y154.650 E30.01201
G1 X138.500 Y154.814 F4800.000
G1 E26.01201 F2400.00000
G92 E0
G1 Z0.650 F4800.000
G1 X140.928 Y146.067
G1 Z0.350
G1 E4.00000 F2400.00000
G1 F1800
G1 X139.929 Y145.068 E4.13004
G1 X139.034 Y145.068 E4.21243
G1 X140.647 Y146.681 E4.42237
G1 X140.647 Y147.576 E4.50476
G1 X138.139 Y145.068 E4.83122
G1 X137.245 Y145.068 E4.91361
G1 X140.647 Y148.470 E5.35659
G1 X140.647 Y149.365 E5.43898
G1 X136.350 Y145.068 E5.99848
G1 X135.455 Y145.068 E6.08087
G1 X140.647 Y150.260 E6.75689
G1 X140.647 Y151.155 E6.83929
G1 X135.176 Y145.684 E7.55163
G1 X135.176 Y146.579 E7.63402
G1 X140.647 Y152.050 E8.34637
G1 X140.647 Y152.932 E8.42755
G1 X135.176 Y147.474 E9.13905
G1 X135.176 Y148.369 E9.22144
G1 X139.739 Y152.932 E9.81556
G1 X138.844 Y152.932 E9.89795
G1 X135.176 Y149.264 E10.37556
G1 X135.176 Y150.159 E10.45795
G1 X137.949 Y152.932 E10.81903
G1 X137.147 Y152.932 E10.89291
G1 X137.147 Y153.024 E10.90142
G1 X135.176 Y151.053 E11.15803
G1 X135.176 Y151.948 E11.24042
G1 X137.147 Y153.919 E11.49702
G1 X137.147 Y154.814 E11.57941
G1 X135.176 Y152.843 E11.83601
G1 X135.176 Y153.738 E11.91841
G1 X137.147 Y155.709 E12.17501
G1 X137.147 Y156.603 E12.25740
G1 X135.176 Y154.633 E12.51400
G1 X135.176 Y155.528 E12.59639
G1 X137.147 Y157.498 E12.85300
